;FLAVOR:UltiGCode
;TIME:6562
;MATERIAL:3180
;MATERIAL2:0
;NOZZLE_DIAMETER:0.4

;Generated with Cura_SteamEngine 2.1.2
;LAYER_COUNT:29
;LAYER:0
M107
G10
G0 F7200.000000 X57.893 Y30.874 Z0.300
G0 X57.569 Y31.850
;TYPE:SKIRT
G11
G1 F1800.000 X57.600 Y31.700 E0.01838
G1 X57.679 Y31.393 E0.05642
G1 X57.692 Y31.348 E0.06204
G1 X57.742 Y31.217 E0.07887
G1 X57.878 Y30.903 E0.11993
G1 X57.893 Y30.874 E0.12385
G1 X57.952 Y30.772 E0.13799
G1 X58.143 Y30.473 E0.18056
G1 X58.144 Y30.472 E0.18073
G1 X58.263 Y30.326 E0.20334
G1 X58.461 Y30.102 E0.23921
G1 X58.488 Y30.075 E0.24379
G1 X58.578 Y29.994 E0.25832
G1 X58.858 Y29.765 E0.30173
G1 X58.860 Y29.763 E0.30207
G1 X58.870 Y29.757 E0.30347
G1 X58.989 Y29.680 E0.32048
G1 X59.292 Y29.503 E0.36259
G1 X59.307 Y29.496 E0.36457
G1 X59.435 Y29.440 E0.38134
G1 X59.758 Y29.314 E0.42294
G1 X59.776 Y29.308 E0.42522
G1 X59.896 Y29.277 E0.44009
G1 X60.183 Y29.215 E0.47533
G1 X60.699 Y29.167 E0.53751
G1 X60.719 Y29.166 E0.53992
G1 X60.965 Y29.158 E0.56945
G1 X61.175 Y29.156 E0.59465
G1 X70.011 Y29.156 E1.65497
G1 X70.727 Y29.166 E1.74090
G1 X70.890 Y29.173 E1.76048
G1 X75.109 Y29.262 E2.26687
G1 X75.115 Y29.262 E2.26759
G1 X78.297 Y29.211 E2.64948
G1 X79.965 Y29.158 E2.84974
G1 X80.175 Y29.156 E2.87494
G1 X89.011 Y29.156 E3.93526
G1 X89.717 Y29.166 E4.01999
G1 X89.874 Y29.173 E4.03885
G1 X90.191 Y29.202 E4.07705
G1 X90.197 Y29.203 E4.07778
G1 X91.094 Y29.339 E4.18665
G1 X93.896 Y29.722 E4.52602
G1 X96.708 Y30.027 E4.86544
G1 X99.527 Y30.252 E5.20479
G1 X102.352 Y30.397 E5.54424
G1 X105.180 Y30.462 E5.88369
G1 X108.008 Y30.447 E6.22305
G1 X110.835 Y30.352 E6.56248
G1 X113.658 Y30.178 E6.90189
G1 X116.474 Y29.923 E7.24119
G1 X119.283 Y29.589 E7.58064
G1 X121.465 Y29.274 E7.84520
G1 X121.808 Y29.220 E7.88687
G1 X122.380 Y29.167 E7.95580
G1 X122.400 Y29.166 E7.95820
G1 X122.646 Y29.158 E7.98774
G1 X122.856 Y29.156 E8.01294
G1 X131.692 Y29.156 E9.07326
G1 X132.408 Y29.166 E9.15919
G1 X132.571 Y29.173 E9.17877
G1 X136.790 Y29.262 E9.68516
G1 X136.796 Y29.262 E9.68588
G1 X139.978 Y29.211 E10.06777
G1 X141.646 Y29.158 E10.26803
G1 X141.856 Y29.156 E10.29323
G1 X150.692 Y29.156 E11.35355
G1 X151.398 Y29.166 E11.43828
G1 X151.555 Y29.173 E11.45714
G1 X151.872 Y29.202 E11.49534
G1 X151.894 Y29.205 E11.49800
G1 X151.905 Y29.207 E11.49934
G1 X152.055 Y29.238 E11.51772
G1 X152.354 Y29.315 E11.55477
G1 X152.407 Y29.330 E11.56138
G1 X152.538 Y29.380 E11.57821
G1 X152.849 Y29.515 E11.61889
G1 X152.853 Y29.516 E11.61939
G1 X152.873 Y29.527 E11.62213
G1 X152.981 Y29.589 E11.63707
G1 X153.272 Y29.774 E11.67845
G1 X153.273 Y29.775 E11.67862
G1 X153.280 Y29.780 E11.67965
G1 X153.429 Y29.901 E11.70269
G1 X153.653 Y30.099 E11.73856
G1 X153.679 Y30.125 E11.74297
G1 X153.759 Y30.214 E11.75733
G1 X153.978 Y30.481 E11.79877
G1 X153.987 Y30.492 E11.80048
G1 X153.998 Y30.507 E11.80271
G1 X154.075 Y30.627 E11.81982
G1 X154.249 Y30.925 E11.86123
G1 X154.254 Y30.933 E11.86236
G1 X154.315 Y31.073 E11.88069
G1 X154.440 Y31.393 E11.92191
G1 X154.447 Y31.414 E11.92457
G1 X154.478 Y31.534 E11.93944
G1 X154.539 Y31.819 E11.97442
G1 X154.574 Y32.189 E12.01902
G1 X154.878 Y35.001 E12.35842
G1 X155.261 Y37.804 E12.69791
G1 X155.809 Y41.063 E13.09448
G1 X156.037 Y42.297 E13.24506
G1 X156.088 Y42.837 E13.31015
G1 X156.089 Y42.856 E13.31243
G1 X156.097 Y43.103 E13.34209
G1 X156.099 Y43.313 E13.36729
G1 X156.099 Y74.149 E17.06761
G1 X156.089 Y74.855 E17.15234
G1 X156.082 Y75.012 E17.17120
G1 X156.053 Y75.326 E17.20904
G1 X156.050 Y75.351 E17.21206
G1 X156.049 Y75.360 E17.21315
G1 X155.843 Y76.503 E17.35252
G1 X155.721 Y77.132 E17.42940
G1 X155.261 Y79.923 E17.76884
G1 X154.881 Y82.726 E18.10828
G1 X154.590 Y85.431 E18.43475
G1 X154.553 Y85.826 E18.48236
G1 X154.550 Y85.851 E18.48538
G1 X154.549 Y85.860 E18.48647
G1 X154.520 Y85.999 E18.50351
G1 X154.438 Y86.317 E18.54292
G1 X154.429 Y86.351 E18.54714
G1 X154.426 Y86.361 E18.54839
G1 X154.375 Y86.495 E18.56559
G1 X154.249 Y86.787 E18.60376
G1 X154.239 Y86.810 E18.60677
G1 X154.224 Y86.838 E18.61058
G1 X154.165 Y86.940 E18.62472
G1 X153.981 Y87.229 E18.66583
G1 X153.975 Y87.238 E18.66713
G1 X153.854 Y87.386 E18.69007
G1 X153.659 Y87.607 E18.72544
G1 X153.630 Y87.636 E18.73036
G1 X153.546 Y87.712 E18.74395
G1 X153.259 Y87.947 E18.78846
G1 X153.257 Y87.949 E18.78880
G1 X153.247 Y87.955 E18.79020
G1 X153.128 Y88.032 E18.80721
G1 X152.825 Y88.209 E18.84932
G1 X152.815 Y88.214 E18.85066
G1 X152.682 Y88.272 E18.86807
G1 X152.362 Y88.397 E18.90930
G1 X152.360 Y88.398 E18.90957
G1 X152.341 Y88.404 E18.91196
G1 X152.221 Y88.435 E18.92683
G1 X151.934 Y88.497 E18.96207
G1 X151.418 Y88.545 E19.02425
G1 X151.398 Y88.546 E19.02666
G1 X151.152 Y88.554 E19.05619
G1 X150.942 Y88.556 E19.08139
G1 X142.106 Y88.556 E20.14171
G1 X141.390 Y88.546 E20.22764
G1 X141.227 Y88.539 E20.24722
G1 X137.008 Y88.450 E20.75361
G1 X137.002 Y88.450 E20.75433
G1 X133.820 Y88.501 E21.13622
G1 X132.152 Y88.554 E21.33648
G1 X131.942 Y88.556 E21.36168
G1 X123.106 Y88.556 E22.42200
G1 X122.400 Y88.546 E22.50673
G1 X122.243 Y88.539 E22.52559
G1 X121.926 Y88.510 E22.56379
G1 X121.920 Y88.509 E22.56452
G1 X121.023 Y88.373 E22.67339
G1 X118.221 Y87.990 E23.01276
G1 X115.409 Y87.685 E23.35218
G1 X112.590 Y87.460 E23.69153
G1 X109.765 Y87.315 E24.03098
G1 X106.937 Y87.250 E24.37043
G1 X104.109 Y87.265 E24.70979
G1 X101.282 Y87.360 E25.04922
G1 X98.459 Y87.534 E25.38863
G1 X95.643 Y87.789 E25.72793
G1 X92.834 Y88.123 E26.06738
G1 X90.652 Y88.438 E26.33194
G1 X90.309 Y88.492 E26.37360
G1 X89.737 Y88.545 E26.44254
G1 X89.717 Y88.546 E26.44494
G1 X89.471 Y88.554 E26.47448
G1 X89.261 Y88.556 E26.49968
G1 X80.425 Y88.556 E27.56000
G1 X79.709 Y88.546 E27.64593
G1 X79.546 Y88.539 E27.66550
G1 X75.327 Y88.450 E28.17190
G1 X75.321 Y88.450 E28.17262
G1 X72.139 Y88.501 E28.55451
G1 X70.471 Y88.554 E28.75477
G1 X70.261 Y88.556 E28.77997
G1 X61.425 Y88.556 E29.84029
G1 X60.719 Y88.546 E29.92502
G1 X60.562 Y88.539 E29.94388
G1 X60.245 Y88.510 E29.98207
G1 X60.223 Y88.507 E29.98474
G1 X60.212 Y88.505 E29.98608
G1 X60.062 Y88.474 E30.00446
G1 X59.757 Y88.395 E30.04227
G1 X59.710 Y88.382 E30.04812
G1 X59.577 Y88.331 E30.06521
G1 X59.268 Y88.197 E30.10563
G1 X59.264 Y88.196 E30.10612
G1 X59.236 Y88.181 E30.10994
G1 X59.134 Y88.122 E30.12408
G1 X58.844 Y87.937 E30.16535
G1 X58.833 Y87.929 E30.16699
G1 X58.829 Y87.926 E30.16759
G1 X58.688 Y87.811 E30.18942
G1 X58.461 Y87.610 E30.22581
G1 X58.438 Y87.587 E30.22971
G1 X58.357 Y87.497 E30.24424
G1 X58.127 Y87.216 E30.28781
G1 X58.119 Y87.205 E30.28945
G1 X58.119 Y87.204 E30.28957
G1 X58.042 Y87.085 E30.30657
G1 X57.865 Y86.782 E30.34868
G1 X57.860 Y86.772 E30.35003
G1 X57.802 Y86.639 E30.36744
G1 X57.676 Y86.316 E30.40904
G1 X57.670 Y86.298 E30.41132
G1 X57.639 Y86.178 E30.42619
G1 X57.578 Y85.893 E30.46117
G1 X57.543 Y85.523 E30.50576
G1 X57.239 Y82.711 E30.84517
G1 X56.856 Y79.908 E31.18466
G1 X56.308 Y76.649 E31.58123
G1 X56.080 Y75.415 E31.73181
G1 X56.029 Y74.875 E31.79690
G1 X56.028 Y74.855 E31.79930
G1 X56.020 Y74.609 E31.82884
G1 X56.018 Y74.356 E31.85920
G1 X56.018 Y43.563 E35.55436
G1 X56.028 Y42.856 E35.63921
G1 X56.035 Y42.700 E35.65795
G1 X56.064 Y42.383 E35.69615
G1 X56.068 Y42.352 E35.69990
G1 X56.069 Y42.348 E35.70039
G1 X56.274 Y41.209 E35.83927
G1 X56.396 Y40.580 E35.91615
G1 X56.856 Y37.789 E36.25559
G1 X57.236 Y34.986 E36.59503
G1 X57.527 Y32.281 E36.92150
G1 X57.564 Y31.885 E36.96923
G1 X57.568 Y31.852 E36.97322
G1 X57.569 Y31.850 E36.97349
G10
G0 F7200.00000 X59.190 Y30.828
G0 X91.246 Y30.828
G0 X91.177 Y37.950
G0 X119.437 Y43.081
G0 X121.499 Y43.456
G0 X121.527 Y43.484
G0 X121.569 Y43.526
G0 X121.499 Y43.456
;TYPE:WALL-INNER
G11
G1 F1800.000 X122.999 Y43.456 E37.15349
G1 X122.999 Y32.956 E38.41349
G1 X131.799 Y32.956 E39.46949
G1 X131.799 Y43.456 E40.72949
G1 X141.999 Y43.456 E41.95349
G1 X141.999 Y32.956 E43.21349
G1 X150.799 Y32.956 E44.26949
G1 X150.799 Y43.456 E45.52949
G1 X152.299 Y43.456 E45.70949
G1 X152.299 Y74.256 E49.40549
G1 X150.799 Y74.256 E49.58549
G1 X150.799 Y84.756 E50.84549
G1 X141.999 Y84.756 E51.90149
G1 X141.999 Y74.256 E53.16149
G1 X131.799 Y74.256 E54.38549
G1 X131.799 Y84.756 E55.64549
G1 X122.999 Y84.756 E56.70149
G1 X122.999 Y74.256 E57.96149
G1 X121.499 Y74.256 E58.14149
G1 X121.499 Y43.456 E61.83749
G0 F7200.00000 X121.599 Y43.526
G0 X124.229 Y46.186
G0 X124.299 Y46.256
G1 F1800.000 X124.299 Y71.456 E64.86149
G1 X149.499 Y71.456 E67.88549
G1 X149.499 Y46.256 E70.90949
G1 X124.299 Y46.256 E73.93349
G0 F7200.00000 X124.229 Y46.186
G0 X126.571 Y40.451
G0 X126.596 Y40.355
G1 F1800.000 X127.399 Y40.462 E74.03070
G1 X128.202 Y40.355 E74.12791
G1 X128.949 Y40.047 E74.22487
G1 X129.595 Y39.551 E74.32261
G1 X130.090 Y38.907 E74.42008
G1 X130.399 Y38.159 E74.51719
G1 X130.505 Y37.355 E74.61451
G1 X130.399 Y36.553 E74.71159
G1 X130.090 Y35.806 E74.80859
G1 X129.595 Y35.161 E74.90616
G1 X128.949 Y34.664 E75.00397
G1 X128.202 Y34.356 E75.10093
G1 X127.399 Y34.250 E75.19812
G1 X126.596 Y34.356 E75.29532
G1 X125.848 Y34.664 E75.39239
G1 X125.204 Y35.161 E75.49001
G1 X124.708 Y35.805 E75.58755
G1 X124.399 Y36.553 E75.68467
G1 X124.293 Y37.355 E75.78174
G1 X124.399 Y38.159 E75.87906
G1 X124.708 Y38.907 E75.97618
G1 X125.204 Y39.551 E76.07372
G1 X125.848 Y40.047 E76.17127
G1 X126.596 Y40.355 E76.26834
G0 F7200.00000 X126.571 Y40.451
G0 X131.771 Y43.484
G0 X142.027 Y43.484
G0 X143.303 Y38.184
G0 X143.399 Y38.159
G1 F1800.000 X143.708 Y38.907 E76.36545
G1 X144.204 Y39.551 E76.46300
G1 X144.848 Y40.047 E76.56054
G1 X145.596 Y40.355 E76.65761
G1 X146.399 Y40.462 E76.75483
G1 X147.202 Y40.355 E76.85204
G1 X147.949 Y40.047 E76.94900
G1 X148.595 Y39.551 E77.04673
G1 X149.090 Y38.907 E77.14420
G1 X149.399 Y38.159 E77.24132
G1 X149.505 Y37.355 E77.33864
G1 X149.399 Y36.553 E77.43571
G1 X149.090 Y35.806 E77.53272
G1 X148.595 Y35.161 E77.63028
G1 X147.949 Y34.664 E77.72809
G1 X147.202 Y34.356 E77.82505
G1 X146.399 Y34.250 E77.92225
G1 X145.596 Y34.356 E78.01944
G1 X144.848 Y34.664 E78.11652
G1 X144.204 Y35.161 E78.21413
G1 X143.708 Y35.805 E78.31168
G1 X143.399 Y36.553 E78.40879
G1 X143.293 Y37.355 E78.50587
G1 X143.399 Y38.159 E78.60319
G0 F7200.00000 X143.303 Y38.184
G0 X143.939 Y46.215
G0 X149.527 Y46.228
G0 X149.527 Y71.484
G0 X146.395 Y77.209
G0 X146.401 Y77.289
G0 X146.399 Y77.250
G1 F1800.000 X145.596 Y77.356 E78.70038
G1 X144.848 Y77.664 E78.79745
G1 X144.204 Y78.161 E78.89507
G1 X143.708 Y78.805 E78.99262
G1 X143.399 Y79.553 E79.08973
G1 X143.293 Y80.355 E79.18681
G1 X143.399 Y81.159 E79.28412
G1 X143.708 Y81.907 E79.38124
G1 X144.204 Y82.551 E79.47879
G1 X144.848 Y83.047 E79.57633
G1 X145.596 Y83.355 E79.67340
G1 X146.399 Y83.462 E79.77061
G1 X147.202 Y83.355 E79.86782
G1 X147.949 Y83.047 E79.96479
G1 X148.595 Y82.551 E80.06252
G1 X149.090 Y81.907 E80.15999
G1 X149.399 Y81.159 E80.25711
G1 X149.505 Y80.355 E80.35442
G1 X149.399 Y79.553 E80.45150
G1 X149.090 Y78.806 E80.54851
G1 X148.595 Y78.161 E80.64607
G1 X147.949 Y77.664 E80.74388
G1 X147.202 Y77.356 E80.84084
G1 X146.399 Y77.250 E80.93804
G0 F7200.00000 X142.037 Y77.874
G0 X142.027 Y74.228
G0 X131.771 Y74.228
G0 X130.495 Y79.528
G0 X130.399 Y79.553
G1 F1800.000 X130.090 Y78.806 E81.03504
G1 X129.595 Y78.161 E81.13261
G1 X128.949 Y77.664 E81.23042
G1 X128.202 Y77.356 E81.32738
G1 X127.399 Y77.250 E81.42457
G1 X126.596 Y77.356 E81.52177
G1 X125.848 Y77.664 E81.61884
G1 X125.204 Y78.161 E81.71646
G1 X124.708 Y78.805 E81.81400
G1 X124.399 Y79.553 E81.91112
G1 X124.293 Y80.355 E82.00820
G1 X124.399 Y81.159 E82.10551
G1 X124.708 Y81.907 E82.20263
G1 X125.204 Y82.551 E82.30017
G1 X125.848 Y83.047 E82.39772
G1 X126.596 Y83.355 E82.49479
G1 X127.399 Y83.462 E82.59200
G1 X128.202 Y83.355 E82.68921
G1 X128.949 Y83.047 E82.78617
G1 X129.595 Y82.551 E82.88391
G1 X130.090 Y81.907 E82.98138
G1 X130.399 Y81.159 E83.07849
G1 X130.505 Y80.355 E83.17581
G1 X130.399 Y79.553 E83.27289
G0 F7200.00000 X130.009 Y79.656
;TYPE:WALL-OUTER
G1 F1800.000 X129.739 Y79.005 E83.35746
G1 X129.310 Y78.445 E83.44211
G1 X128.750 Y78.015 E83.52684
G1 X128.098 Y77.746 E83.61147
G1 X127.399 Y77.654 E83.69608
G1 X126.700 Y77.746 E83.78068
G1 X126.048 Y78.015 E83.86532
G1 X125.489 Y78.445 E83.94995
G1 X125.059 Y79.005 E84.03467
G1 X124.789 Y79.656 E84.11925
G1 X124.697 Y80.356 E84.20397
G1 X124.789 Y81.055 E84.28857
G1 X125.059 Y81.707 E84.37326
G1 X125.489 Y82.266 E84.45789
G1 X126.048 Y82.696 E84.54252
G1 X126.700 Y82.965 E84.62715
G1 X127.399 Y83.058 E84.71177
G1 X128.098 Y82.965 E84.79639
G1 X128.750 Y82.696 E84.88103
G1 X129.310 Y82.266 E84.96575
G1 X129.739 Y81.707 E85.05031
G1 X130.009 Y81.055 E85.13499
G1 X130.101 Y80.356 E85.21960
G1 X130.009 Y79.656 E85.30432
G0 F7200.00000 X130.472 Y79.468
G0 X131.771 Y74.228
G0 X132.199 Y74.156
G0 X132.199 Y74.656
G1 F1800.000 X132.199 Y85.156 E86.56432
G1 X122.599 Y85.156 E87.71632
G1 X122.599 Y74.656 E88.97632
G1 X121.099 Y74.656 E89.15632
G1 X121.099 Y43.056 E92.94832
G1 X122.599 Y43.056 E93.12832
G1 X122.599 Y32.556 E94.38832
G1 X132.199 Y32.556 E95.54032
G1 X132.199 Y43.056 E96.80032
G1 X141.599 Y43.056 E97.92832
G1 X141.599 Y32.556 E99.18832
G1 X151.199 Y32.556 E100.34032
G1 X151.199 Y43.056 E101.60032
G1 X152.699 Y43.056 E101.78032
G1 X152.699 Y74.656 E105.57232
G1 X151.199 Y74.656 E105.75232
G1 X151.199 Y85.156 E107.01232
G1 X141.599 Y85.156 E108.16432
G1 X141.599 Y74.656 E109.42432
G1 X132.199 Y74.656 E110.55232
G0 F7200.00000 X132.199 Y74.156
G0 X124.271 Y71.484
G0 X124.199 Y71.056
G0 X124.699 Y71.056
G1 F1800.000 X149.099 Y71.056 E113.48032
G1 X149.099 Y46.656 E116.40832
G1 X124.699 Y46.656 E119.33632
G1 X124.699 Y71.056 E122.26432
G0 F7200.00000 X124.199 Y71.056
G0 X124.271 Y71.484
G0 X142.027 Y74.228
G0 X143.663 Y78.700
G0 X144.059 Y79.005
G1 F1800.000 X143.789 Y79.656 E122.34889
G1 X143.697 Y80.356 E122.43362
G1 X143.789 Y81.055 E122.51822
G1 X144.059 Y81.707 E122.60290
G1 X144.489 Y82.266 E122.68753
G1 X145.048 Y82.696 E122.77216
G1 X145.700 Y82.965 E122.85680
G1 X146.399 Y83.058 E122.94142
G1 X147.098 Y82.965 E123.02604
G1 X147.750 Y82.696 E123.11068
G1 X148.310 Y82.266 E123.19540
G1 X148.739 Y81.707 E123.27996
G1 X149.009 Y81.055 E123.36464
G1 X149.101 Y80.356 E123.44925
G1 X149.009 Y79.656 E123.53397
G1 X148.739 Y79.005 E123.61854
G1 X148.310 Y78.445 E123.70319
G1 X147.750 Y78.015 E123.78792
G1 X147.098 Y77.746 E123.87256
G1 X146.399 Y77.654 E123.95716
G1 X145.700 Y77.746 E124.04176
G1 X145.048 Y78.015 E124.12640
G1 X144.489 Y78.445 E124.21103
G1 X144.059 Y79.005 E124.29576
G0 F7200.00000 X143.663 Y78.700
G0 X144.166 Y71.495
G0 X124.271 Y71.484
G0 X124.271 Y46.228
G0 X145.935 Y46.214
G0 X146.332 Y40.553
G0 X146.399 Y40.058
G1 F1800.000 X147.098 Y39.965 E124.38037
G1 X147.750 Y39.696 E124.46501
G1 X148.310 Y39.266 E124.54974
G1 X148.739 Y38.707 E124.63429
G1 X149.009 Y38.055 E124.71898
G1 X149.101 Y37.356 E124.80358
G1 X149.009 Y36.656 E124.88830
G1 X148.739 Y36.005 E124.97288
G1 X148.310 Y35.445 E125.05753
G1 X147.750 Y35.015 E125.14225
G1 X147.098 Y34.746 E125.22689
G1 X146.399 Y34.654 E125.31149
G1 X145.700 Y34.746 E125.39610
G1 X145.048 Y35.015 E125.48074
G1 X144.489 Y35.445 E125.56537
G1 X144.059 Y36.005 E125.65009
G1 X143.789 Y36.656 E125.73466
G1 X143.697 Y37.356 E125.81939
G1 X143.789 Y38.055 E125.90399
G1 X144.059 Y38.707 E125.98867
G1 X144.489 Y39.266 E126.07330
G1 X145.048 Y39.696 E126.15793
G1 X145.700 Y39.965 E126.24257
G1 X146.399 Y40.058 E126.32719
G0 F7200.00000 X146.331 Y40.553
G0 X142.027 Y43.484
G0 X131.771 Y43.484
G0 X130.504 Y38.121
G0 X130.009 Y38.055
G1 F1800.000 X130.101 Y37.356 E126.41179
G1 X130.009 Y36.656 E126.49652
