;FLAVOR:UltiGCode
;TIME:17680
;MATERIAL:9150
;MATERIAL2:0
;NOZZLE_DIAMETER:0.4
;Generated with Cura_SteamEngine 2.4.0

;LAYER_COUNT:13
;LAYER:0
M107
G10
G0 F3600 X29.335 Y30.071 Z0.3
;TYPE:SKIRT
G11
G1 F1800 X29.722 Y29.745 E0.06072
G1 X30.155 Y29.484 E0.12139
G1 X30.623 Y29.294 E0.182
G1 X31.116 Y29.181 E0.2427
G1 X31.586 Y29.146 E0.29925
G1 X147.567 Y29.147 E14.21697
G1 X148.071 Y29.187 E14.27764
G1 X148.562 Y29.306 E14.33827
G1 X149.029 Y29.5 E14.39895
G1 X149.459 Y29.766 E14.45963
G1 X149.842 Y30.096 E14.52029
G1 X150.168 Y30.483 E14.58101
G1 X150.429 Y30.916 E14.64168
G1 X150.619 Y31.384 E14.7023
G1 X150.732 Y31.877 E14.76299
G1 X150.767 Y32.347 E14.81955
G1 X150.767 Y144.327 E28.25715
G1 X150.727 Y144.831 E28.31782
G1 X150.608 Y145.322 E28.37844
G1 X150.414 Y145.789 E28.43913
G1 X150.148 Y146.219 E28.4998
G1 X149.818 Y146.602 E28.56047
G1 X149.431 Y146.928 E28.62119
G1 X148.998 Y147.189 E28.68186
G1 X148.53 Y147.379 E28.74247
G1 X148.037 Y147.492 E28.80316
G1 X147.567 Y147.527 E28.85972
G1 X31.586 Y147.527 E42.77744
G1 X31.082 Y147.487 E42.83811
G1 X30.591 Y147.368 E42.89874
G1 X30.124 Y147.174 E42.95942
G1 X29.694 Y146.908 E43.02009
G1 X29.311 Y146.578 E43.08076
G1 X28.985 Y146.191 E43.14148
G1 X28.724 Y145.758 E43.20215
G1 X28.534 Y145.29 E43.26276
G1 X28.421 Y144.797 E43.32346
G1 X28.386 Y144.327 E43.38001
G1 X28.386 Y32.346 E56.81773
G1 X28.426 Y31.842 E56.8784
G1 X28.545 Y31.351 E56.93903
G1 X28.739 Y30.884 E56.99971
G1 X29.005 Y30.454 E57.06039
G1 X29.335 Y30.071 E57.12105
G10
G0 F3600 X32.191 Y31.672
G0 X32.191 Y32.951
G0 X32.247 Y33.007
G0 X32.177 Y32.937
;TYPE:WALL-INNER
G11
G1 F1800 X146.976 Y32.937 E70.89693
G1 X146.976 Y143.736 E84.19281
G1 X32.177 Y143.736 E97.96869
G1 X32.177 Y32.937 E111.26457
G0 F3600 X32.247 Y33.007
G0 X65.907 Y51.667
G0 X65.977 Y51.737
G1 F1800 X65.977 Y74.737 E114.02457
G1 X50.977 Y74.737 E115.82457
G1 X50.977 Y101.937 E119.08857
G1 X65.977 Y101.937 E120.88857
G1 X65.977 Y124.936 E123.64845
G1 X113.176 Y124.936 E129.31233
G1 X113.176 Y101.937 E132.07221
G1 X128.176 Y101.937 E133.87221
G1 X128.176 Y74.737 E137.13621
G1 X113.176 Y74.737 E138.93621
G1 X113.176 Y51.737 E141.69621
G1 X65.977 Y51.737 E147.36009
G0 F3600 X66.377 Y52.137
;TYPE:WALL-OUTER
G1 F1800 X66.377 Y75.137 E150.12009
G1 X51.377 Y75.137 E151.92009
G1 X51.377 Y101.537 E155.08809
G1 X66.377 Y101.537 E156.88809
G1 X66.377 Y124.536 E159.64797
G1 X112.776 Y124.536 E165.21585
G1 X112.776 Y101.537 E167.97573
G1 X127.776 Y101.537 E169.77573
G1 X127.776 Y75.137 E172.94373
G1 X112.776 Y75.137 E174.74373
G1 X112.776 Y52.137 E177.50373
G1 X66.377 Y52.137 E183.07161
G0 F3600 X66.377 Y52.337
G0 X65.877 Y52.337
G0 X32.247 Y33.007
G0 X31.777 Y32.537
G1 F1800 X147.376 Y32.537 E196.94349
G1 X147.376 Y144.136 E210.33537
G1 X31.777 Y144.136 E224.20725
G1 X31.777 Y32.537 E237.59913
G0 F3600 X31.977 Y32.537
G0 X32.247 Y33.007
G0 X32.55 Y33.116
;TYPE:SKIN
G1 F1800 X65.796 Y66.362 E243.24117
G0 X65.866 Y66.432
G0 F3600 X65.796 Y65.796
G1 F1800 X33.116 Y33.116 E248.78715
G0 X33.046 Y33.046
G0 F3600 X33.682 Y33.116
G1 F1800 X65.796 Y65.231 E254.23716
G0 X65.866 Y65.301
G0 F3600 X65.796 Y64.665
G1 F1800 X34.248 Y33.116 E259.59112
G0 X34.178 Y33.046
G0 F3600 X34.813 Y33.116
G1 F1800 X65.796 Y64.099 E264.84911
G0 X65.866 Y64.169
G0 F3600 X65.796 Y63.534
G1 F1800 X35.379 Y33.116 E270.01113
G0 X35.309 Y33.046
G0 F3600 X35.945 Y33.116
G1 F1800 X65.796 Y62.968 E275.07709
G0 X65.866 Y63.038
G0 F3600 X65.796 Y62.402
G1 F1800 X36.51 Y33.116 E280.04709
G0 X36.44 Y33.046
G0 F3600 X37.076 Y33.116
G1 F1800 X65.796 Y61.837 E284.92112
G0 X65.866 Y61.907
G0 F3600 X65.796 Y61.271
G1 F1800 X37.642 Y33.116 E289.6991
G0 X37.572 Y33.046
G0 F3600 X38.207 Y33.116
G1 F1800 X65.796 Y60.705 E294.38111
G0 X65.866 Y60.775
G0 F3600 X65.796 Y60.14
G1 F1800 X38.773 Y33.116 E298.96715
G0 X38.703 Y33.046
G0 F3600 X39.339 Y33.116
G1 F1800 X65.796 Y59.574 E303.45714
G0 X65.866 Y59.644
G0 F3600 X65.796 Y59.008
G1 F1800 X39.904 Y33.116 E307.85115
G0 X39.834 Y33.046
G0 F3600 X40.47 Y33.116
G1 F1800 X65.796 Y58.443 E312.1492
G0 X65.866 Y58.513
G0 F3600 X65.796 Y57.877
G1 F1800 X41.036 Y33.116 E316.3512
G0 X40.966 Y33.046
G0 F3600 X41.601 Y33.116
G1 F1800 X65.796 Y57.311 E320.45723
G0 X65.866 Y57.381
G0 F3600 X65.796 Y56.746
G1 F1800 X42.167 Y33.116 E324.46729
G0 X42.097 Y33.046
G0 F3600 X42.733 Y33.116
G1 F1800 X65.796 Y56.18 E328.38129
G0 X65.866 Y56.25
G0 F3600 X65.796 Y55.614
G1 F1800 X43.298 Y33.116 E332.19933
G0 X43.228 Y33.046
G0 F3600 X43.864 Y33.116
G1 F1800 X65.796 Y55.048 E335.92131
G0 X65.866 Y55.118
G0 F3600 X65.796 Y54.483
G1 F1800 X44.43 Y33.116 E339.54733
G0 X44.36 Y33.046
G0 F3600 X44.996 Y33.116
G1 F1800 X65.796 Y53.917 E343.07729
G0 X65.866 Y53.987
G0 F3600 X65.796 Y53.351
G1 F1800 X45.561 Y33.116 E346.51128
G0 X45.491 Y33.046
G0 F3600 X46.127 Y33.116
G1 F1800 X65.796 Y52.786 E349.84931
G0 X65.866 Y52.856
G0 F3600 X65.796 Y52.22
G1 F1800 X46.693 Y33.116 E353.09128
G0 X46.623 Y33.046
G0 F3600 X47.258 Y33.116
G1 F1800 X65.796 Y51.654 E356.23728
G0 X65.866 Y51.724
G0 F3600 X66.264 Y51.556
G1 F1800 X47.824 Y33.116 E359.36666
G0 X47.754 Y33.046
G0 F3600 X48.39 Y33.116
G1 F1800 X66.83 Y51.556 E362.49603
G0 X66.9 Y51.626
G0 F3600 X67.395 Y51.556
G1 F1800 X48.955 Y33.116 E365.6254
G0 X48.885 Y33.046
G0 F3600 X49.521 Y33.116
G1 F1800 X67.961 Y51.556 E368.75477
G0 X68.031 Y51.626
G0 F3600 X68.527 Y51.556
G1 F1800 X50.087 Y33.116 E371.88414
G0 X50.017 Y33.046
G0 F3600 X50.652 Y33.116
G1 F1800 X69.092 Y51.556 E375.01351
G0 X69.162 Y51.626
G0 F3600 X69.658 Y51.556
G1 F1800 X51.218 Y33.116 E378.14289
G0 X51.148 Y33.046
G0 F3600 X51.784 Y33.116
G1 F1800 X70.224 Y51.556 E381.27226
G0 X70.294 Y51.626
G0 F3600 X70.789 Y51.556
G1 F1800 X52.349 Y33.116 E384.40163
G0 X52.279 Y33.046
G0 F3600 X52.915 Y33.116
G1 F1800 X71.355 Y51.556 E387.531
G0 X71.425 Y51.626
G0 F3600 X71.921 Y51.556
G1 F1800 X53.481 Y33.116 E390.66037
G0 X53.411 Y33.046
G0 F3600 X54.046 Y33.116
G1 F1800 X72.486 Y51.556 E393.78975
G0 X72.556 Y51.626
G0 F3600 X73.052 Y51.556
G1 F1800 X54.612 Y33.116 E396.91912
G0 X54.542 Y33.046
G0 F3600 X55.178 Y33.116
G1 F1800 X73.618 Y51.556 E400.04849
G0 X73.688 Y51.626
G0 F3600 X74.183 Y51.556
G1 F1800 X55.744 Y33.116 E403.17778
G0 X55.674 Y33.046
G0 F3600 X56.309 Y33.116
G1 F1800 X74.749 Y51.556 E406.30715
G0 X74.819 Y51.626
G0 F3600 X75.315 Y51.556
G1 F1800 X56.875 Y33.116 E409.43652
G0 X56.805 Y33.046
G0 F3600 X57.441 Y33.116
G1 F1800 X75.881 Y51.556 E412.56589
G0 X75.951 Y51.626
G0 F3600 X76.446 Y51.556
G1 F1800 X58.006 Y33.116 E415.69526
G0 X57.936 Y33.046
G0 F3600 X58.572 Y33.116
G1 F1800 X77.012 Y51.556 E418.82463
G0 X77.082 Y51.626
G0 F3600 X77.578 Y51.556
G1 F1800 X59.138 Y33.116 E421.95401
G0 X59.068 Y33.046
G0 F3600 X59.703 Y33.116
G1 F1800 X78.143 Y51.556 E425.08338
G0 X78.213 Y51.626
G0 F3600 X78.709 Y51.556
G1 F1800 X60.269 Y33.116 E428.21275
G0 X60.199 Y33.046
G0 F3600 X60.835 Y33.116
G1 F1800 X79.275 Y51.556 E431.34212
G0 X79.345 Y51.626
G0 F3600 X79.84 Y51.556
G1 F1800 X61.4 Y33.116 E434.47149
G0 X61.33 Y33.046
G0 F3600 X61.966 Y33.116
G1 F1800 X80.406 Y51.556 E437.60086
G0 X80.476 Y51.626
G0 F3600 X80.972 Y51.556
G1 F1800 X62.532 Y33.116 E440.73024
G0 X62.462 Y33.046
G0 F3600 X63.097 Y33.116
G1 F1800 X81.537 Y51.556 E443.85961
G0 X81.607 Y51.626
G0 F3600 X82.103 Y51.556
G1 F1800 X63.663 Y33.116 E446.98898
G0 X63.593 Y33.046
G0 F3600 X64.229 Y33.116
G1 F1800 X82.669 Y51.556 E450.11835
G0 X82.739 Y51.626
G0 F3600 X83.234 Y51.556
G1 F1800 X64.795 Y33.116 E453.24764
G0 X64.725 Y33.046
G0 F3600 X65.36 Y33.116
G1 F1800 X83.8 Y51.556 E456.37701
G0 X83.87 Y51.626
G0 F3600 X84.366 Y51.556
G1 F1800 X65.926 Y33.116 E459.50638
G0 X65.856 Y33.046
G0 F3600 X66.492 Y33.116
G1 F1800 X84.932 Y51.556 E462.63575
G0 X85.002 Y51.626
G0 F3600 X85.497 Y51.556
G1 F1800 X67.057 Y33.116 E465.76513
G0 X66.987 Y33.046
G0 F3600 X67.623 Y33.116
G1 F1800 X86.063 Y51.556 E468.8945
G0 X86.133 Y51.626
G0 F3600 X86.629 Y51.556
G1 F1800 X68.189 Y33.116 E472.02387
G0 X68.119 Y33.046
G0 F3600 X68.754 Y33.116
G1 F1800 X87.194 Y51.556 E475.15324
G0 X87.264 Y51.626
G0 F3600 X87.76 Y51.556
G1 F1800 X69.32 Y33.116 E478.28261
G0 X69.25 Y33.046
G0 F3600 X69.886 Y33.116
G1 F1800 X88.326 Y51.556 E481.41198
G0 X88.396 Y51.626
G0 F3600 X88.891 Y51.556
G1 F1800 X70.451 Y33.116 E484.54136
G0 X70.381 Y33.046
G0 F3600 X71.017 Y33.116
G1 F1800 X89.457 Y51.556 E487.67073
G0 X89.527 Y51.626
G0 F3600 X90.023 Y51.556
G1 F1800 X71.583 Y33.116 E490.8001
G0 X71.513 Y33.046
G0 F3600 X72.148 Y33.116
G1 F1800 X90.588 Y51.556 E493.92947
G0 X90.658 Y51.626
G0 F3600 X91.154 Y51.556
G1 F1800 X72.714 Y33.116 E497.05884
G0 X72.644 Y33.046
G0 F3600 X73.28 Y33.116
G1 F1800 X91.72 Y51.556 E500.18822
G0 X91.79 Y51.626
G0 F3600 X92.285 Y51.556
G1 F1800 X73.845 Y33.116 E503.31759
G0 X73.775 Y33.046
G0 F3600 X74.411 Y33.116
G1 F1800 X92.851 Y51.556 E506.44696
G0 X92.921 Y51.626
G0 F3600 X93.417 Y51.556
G1 F1800 X74.977 Y33.116 E509.57633
G0 X74.907 Y33.046
G0 F3600 X75.543 Y33.116
G1 F1800 X93.982 Y51.556 E512.70562
G0 X94.052 Y51.626
G0 F3600 X94.548 Y51.556
G1 F1800 X76.108 Y33.116 E515.83499
G0 X76.038 Y33.046
G0 F3600 X76.674 Y33.116
G1 F1800 X95.114 Y51.556 E518.96436
G0 X95.184 Y51.626
G0 F3600 X95.68 Y51.556
G1 F1800 X77.24 Y33.116 E522.09373
G0 X77.17 Y33.046
G0 F3600 X77.805 Y33.116
G1 F1800 X96.245 Y51.556 E525.2231
G0 X96.315 Y51.626
G0 F3600 X96.811 Y51.556
G1 F1800 X78.371 Y33.116 E528.35248
G0 X78.301 Y33.046
G0 F3600 X78.937 Y33.116
G1 F1800 X97.377 Y51.556 E531.48185
G0 X97.447 Y51.626
G0 F3600 X97.942 Y51.556
G1 F1800 X79.502 Y33.116 E534.61122
G0 X79.432 Y33.046
G0 F3600 X80.068 Y33.116
G1 F1800 X98.508 Y51.556 E537.74059
G0 X98.578 Y51.626
G0 F3600 X99.074 Y51.556
G1 F1800 X80.634 Y33.116 E540.86996
G0 X80.564 Y33.046
G0 F3600 X81.199 Y33.116
G1 F1800 X99.639 Y51.556 E543.99934
G0 X99.709 Y51.626
G0 F3600 X100.205 Y51.556
G1 F1800 X81.765 Y33.116 E547.12871
G0 X81.695 Y33.046
G0 F3600 X82.331 Y33.116
G1 F1800 X100.771 Y51.556 E550.25808
G0 X100.841 Y51.626
G0 F3600 X101.336 Y51.556
G1 F1800 X82.896 Y33.116 E553.38745
G0 X82.826 Y33.046
G0 F3600 X83.462 Y33.116
G1 F1800 X101.902 Y51.556 E556.51682
G0 X101.972 Y51.626
G0 F3600 X102.468 Y51.556
G1 F1800 X84.028 Y33.116 E559.64619
G0 X83.958 Y33.046
G0 F3600 X84.594 Y33.116
G1 F1800 X103.033 Y51.556 E562.77548
G0 X103.103 Y51.626
G0 F3600 X103.599 Y51.556
G1 F1800 X85.159 Y33.116 E565.90485
G0 X85.089 Y33.046
G0 F3600 X85.725 Y33.116
G1 F1800 X104.165 Y51.556 E569.03422
G0 X104.235 Y51.626
G0 F3600 X104.73 Y51.556
G1 F1800 X86.291 Y33.116 E572.16351
G0 X86.221 Y33.046
G0 F3600 X86.856 Y33.116
G1 F1800 X105.296 Y51.556 E575.29288
G0 X105.366 Y51.626
G0 F3600 X105.862 Y51.556
G1 F1800 X87.422 Y33.116 E578.42226
G0 X87.352 Y33.046
G0 F3600 X87.988 Y33.116
G1 F1800 X106.428 Y51.556 E581.55163
G0 X106.498 Y51.626
G0 F3600 X106.993 Y51.556
G1 F1800 X88.553 Y33.116 E584.681
G0 X88.483 Y33.046
G0 F3600 X89.119 Y33.116
G1 F1800 X107.559 Y51.556 E587.81037
G0 X107.629 Y51.626
G0 F3600 X108.125 Y51.556
G1 F1800 X89.685 Y33.116 E590.93974
G0 X89.615 Y33.046
G0 F3600 X90.25 Y33.116
G1 F1800 X108.69 Y51.556 E594.06911
G0 X108.76 Y51.626
G0 F3600 X109.256 Y51.556
G1 F1800 X90.816 Y33.116 E597.19849
G0 X90.746 Y33.046
G0 F3600 X91.382 Y33.116
G1 F1800 X109.822 Y51.556 E600.32786
G0 X109.892 Y51.626
G0 F3600 X110.387 Y51.556
G1 F1800 X91.947 Y33.116 E603.45723
G0 X91.877 Y33.046
G0 F3600 X92.513 Y33.116
G1 F1800 X110.953 Y51.556 E606.5866
G0 X111.023 Y51.626
G0 F3600 X111.519 Y51.556
G1 F1800 X93.079 Y33.116 E609.71597
G0 X93.009 Y33.046
G0 F3600 X93.644 Y33.116
G1 F1800 X112.084 Y51.556 E612.84534
G0 X112.154 Y51.626
G0 F3600 X112.65 Y51.556
G1 F1800 X94.21 Y33.116 E615.97472
G0 X94.14 Y33.046
G0 F3600 X94.776 Y33.116
G1 F1800 X113.216 Y51.556 E619.10409
G0 X113.286 Y51.626
G0 F3600 X113.355 Y51.695
G1 F1800 X146.795 Y85.135 E624.77904
G0 X146.865 Y85.205
G0 F3600 X146.795 Y84.569
G1 F1800 X95.342 Y33.116 E633.51091
G0 X95.272 Y33.046
G0 F3600 X95.907 Y33.116
G1 F1800 X146.795 Y84.004 E642.14689
G0 X146.865 Y84.074
G0 F3600 X146.795 Y83.438
G1 F1800 X96.473 Y33.116 E650.68681
G0 X96.403 Y33.046
G0 F3600 X97.039 Y33.116
G1 F1800 X146.795 Y82.872 E659.13069
G0 X146.865 Y82.942
G0 F3600 X146.795 Y82.307
G1 F1800 X97.604 Y33.116 E667.47868
G0 X97.534 Y33.046
G0 F3600 X98.17 Y33.116
G1 F1800 X146.795 Y81.741 E675.73061
G0 X146.865 Y81.811
G0 F3600 X146.795 Y81.175
G1 F1800 X98.736 Y33.116 E683.8865
G0 X98.666 Y33.046
G0 F3600 X99.301 Y33.116
G1 F1800 X146.795 Y80.61 E691.9465
G0 X146.865 Y80.68
G0 F3600 X146.795 Y80.044
G1 F1800 X99.867 Y33.116 E699.91044
G0 X99.797 Y33.046
G0 F3600 X100.433 Y33.116
G1 F1800 X146.795 Y79.478 E707.77833
G0 X146.865 Y79.548
G0 F3600 X146.795 Y78.913
G1 F1800 X100.998 Y33.116 E715.55034
G0 X100.928 Y33.046
G0 F3600 X101.564 Y33.116
G1 F1800 X146.795 Y78.347 E723.2263
G0 X146.865 Y78.417
G0 F3600 X146.795 Y77.781
G1 F1800 X102.13 Y33.116 E730.8062
G0 X102.06 Y33.046
G0 F3600 X102.695 Y33.116
G1 F1800 X146.795 Y77.216 E738.29022
G0 X146.865 Y77.286
G0 F3600 X146.795 Y76.65
G1 F1800 X103.261 Y33.116 E745.67818
G0 X103.191 Y33.046
G0 F3600 X103.827 Y33.116
G1 F1800 X146.795 Y76.084 E752.97009
G0 X146.865 Y76.154
G0 F3600 X146.795 Y75.519
G1 F1800 X104.393 Y33.116 E760.16604
G0 X104.323 Y33.046
G0 F3600 X104.958 Y33.116
G1 F1800 X146.795 Y74.953 E767.26601
G0 X146.865 Y75.023
G0 F3600 X146.795 Y74.387
G1 F1800 X105.524 Y33.116 E774.26993
G0 X105.454 Y33.046
G0 F3600 X106.09 Y33.116
G1 F1800 X146.795 Y73.821 E781.1778
G0 X146.865 Y73.891
G0 F3600 X146.795 Y73.256
G1 F1800 X106.655 Y33.116 E787.98978
G0 X106.585 Y33.046
G0 F3600 X107.221 Y33.116
G1 F1800 X146.795 Y72.69 E794.70571
G0 X146.865 Y72.76
G0 F3600 X146.795 Y72.124
G1 F1800 X107.787 Y33.116 E801.32559
G0 X107.717 Y33.046
G0 F3600 X108.352 Y33.116
G1 F1800 X146.795 Y71.559 E807.84958
G0 X146.865 Y71.629
G0 F3600 X146.795 Y70.993
G1 F1800 X108.918 Y33.116 E814.27752
G0 X108.848 Y33.046
G0 F3600 X109.484 Y33.116
G1 F1800 X146.795 Y70.427 E820.60941
G0 X146.865 Y70.497
G0 F3600 X146.795 Y69.862
G1 F1800 X110.049 Y33.116 E826.84541
G0 X109.979 Y33.046
G0 F3600 X110.615 Y33.116
G1 F1800 X146.795 Y69.296 E832.98536
G0 X146.865 Y69.366
G0 F3600 X146.795 Y68.73
G1 F1800 X111.181 Y33.116 E839.02926
G0 X111.111 Y33.046
G0 F3600 X111.746 Y33.116
G1 F1800 X146.795 Y68.165 E844.97727
G0 X146.865 Y68.235
G0 F3600 X146.795 Y67.599
G1 F1800 X112.312 Y33.116 E850.82923
G0 X112.242 Y33.046
G0 F3600 X112.878 Y33.116
G1 F1800 X146.795 Y67.033 E856.58514
G0 X146.865 Y67.103
G0 F3600 X146.795 Y66.468
G1 F1800 X113.443 Y33.116 E862.24516
G0 X113.373 Y33.046
G0 F3600 X114.009 Y33.116
G1 F1800 X146.795 Y65.902 E867.80913
G0 X146.865 Y65.972
G0 F3600 X146.795 Y65.336
G1 F1800 X114.575 Y33.116 E873.27704
G0 X114.505 Y33.046
G0 F3600 X115.141 Y33.116
G1 F1800 X146.795 Y64.77 E878.64891
G0 X146.865 Y64.84
G0 F3600 X146.795 Y64.205
G1 F1800 X115.706 Y33.116 E883.92488
G0 X115.636 Y33.046
G0 F3600 X116.272 Y33.116
G1 F1800 X146.795 Y63.639 E889.10481
G0 X146.865 Y63.709
G0 F3600 X146.795 Y63.073
G1 F1800 X116.838 Y33.116 E894.18868
G0 X116.768 Y33.046
G0 F3600 X117.403 Y33.116
G1 F1800 X146.795 Y62.508 E899.17667
G0 X146.865 Y62.578
G0 F3600 X146.795 Y61.942
G1 F1800 X117.969 Y33.116 E904.0686
G0 X117.899 Y33.046
G0 F3600 X118.535 Y33.116
G1 F1800 X146.795 Y61.376 E908.86448
G0 X146.865 Y61.446
G0 F3600 X146.795 Y60.811
G1 F1800 X119.1 Y33.116 E913.56448
G0 X119.03 Y33.046
G0 F3600 X119.666 Y33.116
G1 F1800 X146.795 Y60.245 E918.16842
