;FLAVOR:UltiGCode
;TIME:17811
;MATERIAL:9215
;MATERIAL2:0
;NOZZLE_DIAMETER:0.4
;Generated with Cura_SteamEngine master

;LAYER_COUNT:13
;LAYER:0
M107
G10
G0 F3600 X32.144 Y31.654 Z0.3
;TYPE:SKIRT
G11
G1 F1800 X32.531 Y31.328 E0.06072
G1 X32.964 Y31.067 E0.12139
G1 X33.432 Y30.877 E0.182
G1 X33.925 Y30.764 E0.2427
G1 X34.395 Y30.729 E0.29925
G1 X150.876 Y30.73 E14.27697
G1 X151.38 Y30.77 E14.33764
G1 X151.871 Y30.889 E14.39827
G1 X152.338 Y31.083 E14.45895
G1 X152.768 Y31.349 E14.51963
G1 X153.151 Y31.679 E14.58029
G1 X153.477 Y32.066 E14.64101
G1 X153.738 Y32.499 E14.70168
G1 X153.928 Y32.967 E14.7623
G1 X154.041 Y33.46 E14.82299
G1 X154.076 Y33.93 E14.87955
G1 X154.076 Y147.41 E28.49715
G1 X154.036 Y147.914 E28.55782
G1 X153.917 Y148.405 E28.61844
G1 X153.723 Y148.872 E28.67913
G1 X153.457 Y149.302 E28.7398
G1 X153.127 Y149.685 E28.80047
G1 X152.74 Y150.011 E28.86119
G1 X152.307 Y150.272 E28.92186
G1 X151.839 Y150.462 E28.98247
G1 X151.346 Y150.575 E29.04316
G1 X150.876 Y150.61 E29.09972
G1 X34.395 Y150.61 E43.07744
G1 X33.891 Y150.57 E43.13811
G1 X33.4 Y150.451 E43.19874
G1 X32.933 Y150.257 E43.25942
G1 X32.503 Y149.991 E43.32009
G1 X32.12 Y149.661 E43.38076
G1 X31.794 Y149.274 E43.44148
G1 X31.533 Y148.841 E43.50215
G1 X31.343 Y148.373 E43.56276
G1 X31.23 Y147.88 E43.62346
G1 X31.195 Y147.41 E43.68001
G1 X31.195 Y33.929 E57.29773
G1 X31.235 Y33.425 E57.3584
G1 X31.354 Y32.934 E57.41903
G1 X31.548 Y32.467 E57.47971
G1 X31.814 Y32.037 E57.54039
G1 X32.144 Y31.654 E57.60105
G10
G0 F3600 X35 Y33.255
G0 X35 Y34.534
G0 X35.056 Y34.59
G0 X34.986 Y34.52
;TYPE:WALL-INNER
G11
G1 F1800 X150.285 Y34.52 E71.43693
G1 X150.285 Y146.819 E84.91281
G1 X34.986 Y146.819 E98.74869
G1 X34.986 Y34.52 E112.22457
G0 F3600 X35.056 Y34.59
G0 X68.466 Y53.25
G0 X68.536 Y53.32
G1 F1800 X68.536 Y76.82 E115.04457
G1 X53.786 Y76.82 E116.81457
G1 X53.786 Y104.52 E120.13857
G1 X68.536 Y104.52 E121.90857
G1 X68.536 Y128.019 E124.72845
G1 X117.235 Y128.019 E130.57233
G1 X117.235 Y104.52 E133.39221
G1 X131.485 Y104.52 E135.10221
G1 X131.485 Y76.82 E138.42621
G1 X117.235 Y76.82 E140.13621
G1 X117.235 Y53.32 E142.95621
G1 X68.536 Y53.32 E148.80009
G0 F3600 X68.936 Y53.72
;TYPE:WALL-OUTER
G1 F1800 X68.936 Y77.22 E151.62009
G1 X54.186 Y77.22 E153.39009
G1 X54.186 Y104.12 E156.61809
G1 X68.936 Y104.12 E158.38809
G1 X68.936 Y127.619 E161.20797
G1 X116.835 Y127.619 E166.95585
G1 X116.835 Y104.12 E169.77573
G1 X131.085 Y104.12 E171.48573
G1 X131.085 Y77.22 E174.71373
G1 X116.835 Y77.22 E176.42373
G1 X116.835 Y53.72 E179.24373
G1 X68.936 Y53.72 E184.99161
G0 F3600 X68.936 Y53.92
G0 X68.436 Y53.92
G0 X35.056 Y34.59
G0 X34.586 Y34.12
G1 F1800 X150.685 Y34.12 E198.92349
G1 X150.685 Y147.219 E212.49537
G1 X34.586 Y147.219 E226.42725
G1 X34.586 Y34.12 E239.99913
G0 F3600 X34.786 Y34.12
G0 X35.265 Y34.699
;TYPE:SKIN
G1 F1800 X68.356 Y67.79 E245.61486
G0 X68.426 Y67.86
G0 F3600 X68.356 Y67.224
G1 F1800 X35.831 Y34.699 E251.13454
G0 X35.761 Y34.629
G0 F3600 X36.396 Y34.699
G1 F1800 X68.356 Y66.658 E256.55825
G0 X68.426 Y66.728
G0 F3600 X68.356 Y66.093
G1 F1800 X36.962 Y34.699 E261.88598
G0 X36.892 Y34.629
G0 F3600 X37.528 Y34.699
G1 F1800 X68.356 Y65.527 E267.11767
G0 X68.426 Y65.597
G0 F3600 X68.356 Y64.961
G1 F1800 X38.093 Y34.699 E272.25339
G0 X38.023 Y34.629
G0 F3600 X38.659 Y34.699
G1 F1800 X68.356 Y64.396 E277.29313
G0 X68.426 Y64.466
G0 F3600 X68.356 Y63.83
G1 F1800 X39.225 Y34.699 E282.23683
G0 X39.155 Y34.629
G0 F3600 X39.791 Y34.699
G1 F1800 X68.356 Y63.264 E287.08447
G0 X68.426 Y63.334
G0 F3600 X68.356 Y62.699
G1 F1800 X40.356 Y34.699 E291.83623
G0 X40.286 Y34.629
G0 F3600 X40.922 Y34.699
G1 F1800 X68.356 Y62.133 E296.49193
G0 X68.426 Y62.203
G0 F3600 X68.356 Y61.567
G1 F1800 X41.488 Y34.699 E301.05158
G0 X41.418 Y34.629
G0 F3600 X42.053 Y34.699
G1 F1800 X68.356 Y61.002 E305.51535
G0 X68.426 Y61.072
G0 F3600 X68.356 Y60.436
G1 F1800 X42.619 Y34.699 E309.88306
G0 X42.549 Y34.629
G0 F3600 X43.185 Y34.699
G1 F1800 X68.356 Y59.87 E314.15472
G0 X68.426 Y59.94
G0 F3600 X68.356 Y59.305
G1 F1800 X43.75 Y34.699 E318.3305
G0 X43.68 Y34.629
G0 F3600 X44.316 Y34.699
G1 F1800 X68.356 Y58.739 E322.41022
G0 X68.426 Y58.809
G0 F3600 X68.356 Y58.173
G1 F1800 X44.882 Y34.699 E326.39389
G0 X44.812 Y34.629
G0 F3600 X45.447 Y34.699
G1 F1800 X68.356 Y57.607 E330.28159
G0 X68.426 Y57.677
G0 F3600 X68.356 Y57.042
G1 F1800 X46.013 Y34.699 E334.07333
G0 X45.943 Y34.629
G0 F3600 X46.579 Y34.699
G1 F1800 X68.356 Y56.476 E337.76901
G0 X68.426 Y56.546
G0 F3600 X68.356 Y55.91
G1 F1800 X47.144 Y34.699 E341.36872
G0 X47.074 Y34.629
G0 F3600 X47.71 Y34.699
G1 F1800 X68.356 Y55.345 E344.87246
G0 X68.426 Y55.415
G0 F3600 X68.356 Y54.779
G1 F1800 X48.276 Y34.699 E348.28015
G0 X48.206 Y34.629
G0 F3600 X48.841 Y34.699
G1 F1800 X68.356 Y54.213 E351.59187
G0 X68.426 Y54.283
G0 F3600 X68.356 Y53.648
G1 F1800 X49.407 Y34.699 E354.80762
G0 X49.337 Y34.629
G0 F3600 X49.973 Y34.699
G1 F1800 X68.413 Y53.139 E357.93699
G0 X68.483 Y53.209
G0 F3600 X68.978 Y53.139
G1 F1800 X50.539 Y34.699 E361.06628
G0 X50.469 Y34.629
G0 F3600 X51.104 Y34.699
G1 F1800 X69.544 Y53.139 E364.19565
G0 X69.614 Y53.209
G0 F3600 X70.11 Y53.139
G1 F1800 X51.67 Y34.699 E367.32502
G0 X51.6 Y34.629
G0 F3600 X52.236 Y34.699
G1 F1800 X70.676 Y53.139 E370.4544
G0 X70.746 Y53.209
G0 F3600 X71.241 Y53.139
G1 F1800 X52.801 Y34.699 E373.58377
G0 X52.731 Y34.629
G0 F3600 X53.367 Y34.699
G1 F1800 X71.807 Y53.139 E376.71314
G0 X71.877 Y53.209
G0 F3600 X72.373 Y53.139
G1 F1800 X53.933 Y34.699 E379.84251
G0 X53.863 Y34.629
G0 F3600 X54.498 Y34.699
G1 F1800 X72.938 Y53.139 E382.97188
G0 X73.008 Y53.209
G0 F3600 X73.504 Y53.139
G1 F1800 X55.064 Y34.699 E386.10125
G0 X54.994 Y34.629
G0 F3600 X55.63 Y34.699
G1 F1800 X74.07 Y53.139 E389.23063
G0 X74.14 Y53.209
G0 F3600 X74.635 Y53.139
G1 F1800 X56.195 Y34.699 E392.36
G0 X56.125 Y34.629
G0 F3600 X56.761 Y34.699
G1 F1800 X75.201 Y53.139 E395.48937
G0 X75.271 Y53.209
G0 F3600 X75.767 Y53.139
G1 F1800 X57.327 Y34.699 E398.61874
G0 X57.257 Y34.629
G0 F3600 X57.892 Y34.699
G1 F1800 X76.332 Y53.139 E401.74811
G0 X76.402 Y53.209
G0 F3600 X76.898 Y53.139
G1 F1800 X58.458 Y34.699 E404.87749
G0 X58.388 Y34.629
G0 F3600 X59.024 Y34.699
G1 F1800 X77.464 Y53.139 E408.00686
G0 X77.534 Y53.209
G0 F3600 X78.029 Y53.139
G1 F1800 X59.59 Y34.699 E411.13614
G0 X59.52 Y34.629
G0 F3600 X60.155 Y34.699
G1 F1800 X78.595 Y53.139 E414.26552
G0 X78.665 Y53.209
G0 F3600 X79.161 Y53.139
G1 F1800 X60.721 Y34.699 E417.39489
G0 X60.651 Y34.629
G0 F3600 X61.287 Y34.699
G1 F1800 X79.726 Y53.139 E420.52417
G0 X79.796 Y53.209
G0 F3600 X80.292 Y53.139
G1 F1800 X61.852 Y34.699 E423.65355
G0 X61.782 Y34.629
G0 F3600 X62.418 Y34.699
G1 F1800 X80.858 Y53.139 E426.78292
G0 X80.928 Y53.209
G0 F3600 X81.424 Y53.139
G1 F1800 X62.984 Y34.699 E429.91229
G0 X62.914 Y34.629
G0 F3600 X63.549 Y34.699
G1 F1800 X81.989 Y53.139 E433.04166
G0 X82.059 Y53.209
G0 F3600 X82.555 Y53.139
G1 F1800 X64.115 Y34.699 E436.17103
G0 X64.045 Y34.629
G0 F3600 X64.681 Y34.699
G1 F1800 X83.121 Y53.139 E439.3004
G0 X83.191 Y53.209
G0 F3600 X83.686 Y53.139
G1 F1800 X65.246 Y34.699 E442.42978
G0 X65.176 Y34.629
G0 F3600 X65.812 Y34.699
G1 F1800 X84.252 Y53.139 E445.55915
G0 X84.322 Y53.209
G0 F3600 X84.818 Y53.139
G1 F1800 X66.378 Y34.699 E448.68852
G0 X66.308 Y34.629
G0 F3600 X66.943 Y34.699
G1 F1800 X85.383 Y53.139 E451.81789
G0 X85.453 Y53.209
G0 F3600 X85.949 Y53.139
G1 F1800 X67.509 Y34.699 E454.94726
G0 X67.439 Y34.629
G0 F3600 X68.075 Y34.699
G1 F1800 X86.515 Y53.139 E458.07664
G0 X86.585 Y53.209
G0 F3600 X87.08 Y53.139
G1 F1800 X68.64 Y34.699 E461.20601
G0 X68.57 Y34.629
G0 F3600 X69.206 Y34.699
G1 F1800 X87.646 Y53.139 E464.33538
G0 X87.716 Y53.209
G0 F3600 X88.212 Y53.139
G1 F1800 X69.772 Y34.699 E467.46475
G0 X69.702 Y34.629
G0 F3600 X70.338 Y34.699
G1 F1800 X88.777 Y53.139 E470.59404
G0 X88.847 Y53.209
G0 F3600 X89.343 Y53.139
G1 F1800 X70.903 Y34.699 E473.72341
G0 X70.833 Y34.629
G0 F3600 X71.469 Y34.699
G1 F1800 X89.909 Y53.139 E476.85278
G0 X89.979 Y53.209
G0 F3600 X90.475 Y53.139
G1 F1800 X72.035 Y34.699 E479.98215
G0 X71.965 Y34.629
G0 F3600 X72.6 Y34.699
G1 F1800 X91.04 Y53.139 E483.11152
G0 X91.11 Y53.209
G0 F3600 X91.606 Y53.139
G1 F1800 X73.166 Y34.699 E486.2409
G0 X73.096 Y34.629
G0 F3600 X73.732 Y34.699
G1 F1800 X92.172 Y53.139 E489.37027
G0 X92.242 Y53.209
G0 F3600 X92.737 Y53.139
G1 F1800 X74.297 Y34.699 E492.49964
G0 X74.227 Y34.629
G0 F3600 X74.863 Y34.699
G1 F1800 X93.303 Y53.139 E495.62901
G0 X93.373 Y53.209
G0 F3600 X93.869 Y53.139
G1 F1800 X75.429 Y34.699 E498.75838
G0 X75.359 Y34.629
G0 F3600 X75.994 Y34.699
G1 F1800 X94.434 Y53.139 E501.88776
G0 X94.504 Y53.209
G0 F3600 X95 Y53.139
G1 F1800 X76.56 Y34.699 E505.01713
G0 X76.49 Y34.629
G0 F3600 X77.126 Y34.699
G1 F1800 X95.566 Y53.139 E508.1465
G0 X95.636 Y53.209
G0 F3600 X96.131 Y53.139
G1 F1800 X77.691 Y34.699 E511.27587
G0 X77.621 Y34.629
G0 F3600 X78.257 Y34.699
G1 F1800 X96.697 Y53.139 E514.40524
G0 X96.767 Y53.209
G0 F3600 X97.263 Y53.139
G1 F1800 X78.823 Y34.699 E517.53461
G0 X78.753 Y34.629
G0 F3600 X79.388 Y34.699
G1 F1800 X97.828 Y53.139 E520.66399
G0 X97.898 Y53.209
G0 F3600 X98.394 Y53.139
G1 F1800 X79.954 Y34.699 E523.79336
G0 X79.884 Y34.629
G0 F3600 X80.52 Y34.699
G1 F1800 X98.96 Y53.139 E526.92273
G0 X99.03 Y53.209
G0 F3600 X99.525 Y53.139
G1 F1800 X81.086 Y34.699 E530.05202
G0 X81.016 Y34.629
G0 F3600 X81.651 Y34.699
G1 F1800 X100.091 Y53.139 E533.18139
G0 X100.161 Y53.209
G0 F3600 X100.657 Y53.139
G1 F1800 X82.217 Y34.699 E536.31076
G0 X82.147 Y34.629
G0 F3600 X82.783 Y34.699
G1 F1800 X101.223 Y53.139 E539.44013
G0 X101.293 Y53.209
G0 F3600 X101.788 Y53.139
G1 F1800 X83.348 Y34.699 E542.5695
G0 X83.278 Y34.629
G0 F3600 X83.914 Y34.699
G1 F1800 X102.354 Y53.139 E545.69888
G0 X102.424 Y53.209
G0 F3600 X102.92 Y53.139
G1 F1800 X84.48 Y34.699 E548.82825
G0 X84.41 Y34.629
G0 F3600 X85.045 Y34.699
G1 F1800 X103.485 Y53.139 E551.95762
G0 X103.555 Y53.209
G0 F3600 X104.051 Y53.139
G1 F1800 X85.611 Y34.699 E555.08699
G0 X85.541 Y34.629
G0 F3600 X86.177 Y34.699
G1 F1800 X104.617 Y53.139 E558.21636
G0 X104.687 Y53.209
G0 F3600 X105.182 Y53.139
G1 F1800 X86.742 Y34.699 E561.34573
G0 X86.672 Y34.629
G0 F3600 X87.308 Y34.699
G1 F1800 X105.748 Y53.139 E564.47511
G0 X105.818 Y53.209
G0 F3600 X106.314 Y53.139
G1 F1800 X87.874 Y34.699 E567.60448
G0 X87.804 Y34.629
G0 F3600 X88.439 Y34.699
G1 F1800 X106.879 Y53.139 E570.73385
G0 X106.949 Y53.209
G0 F3600 X107.445 Y53.139
G1 F1800 X89.005 Y34.699 E573.86322
G0 X88.935 Y34.629
G0 F3600 X89.571 Y34.699
G1 F1800 X108.011 Y53.139 E576.99259
G0 X108.081 Y53.209
G0 F3600 X108.576 Y53.139
G1 F1800 X90.137 Y34.699 E580.12188
G0 X90.067 Y34.629
G0 F3600 X90.702 Y34.699
G1 F1800 X109.142 Y53.139 E583.25125
G0 X109.212 Y53.209
G0 F3600 X109.708 Y53.139
G1 F1800 X91.268 Y34.699 E586.38062
G0 X91.198 Y34.629
G0 F3600 X91.834 Y34.699
G1 F1800 X110.274 Y53.139 E589.51
G0 X110.344 Y53.209
G0 F3600 X110.839 Y53.139
G1 F1800 X92.399 Y34.699 E592.63937
G0 X92.329 Y34.629
G0 F3600 X92.965 Y34.699
G1 F1800 X111.405 Y53.139 E595.76874
G0 X111.475 Y53.209
G0 F3600 X111.971 Y53.139
G1 F1800 X93.531 Y34.699 E598.89811
G0 X93.461 Y34.629
G0 F3600 X94.096 Y34.699
G1 F1800 X112.536 Y53.139 E602.02748
G0 X112.606 Y53.209
G0 F3600 X113.102 Y53.139
G1 F1800 X94.662 Y34.699 E605.15685
G0 X94.592 Y34.629
G0 F3600 X95.228 Y34.699
G1 F1800 X113.668 Y53.139 E608.28623
G0 X113.738 Y53.209
G0 F3600 X114.233 Y53.139
G1 F1800 X95.793 Y34.699 E611.4156
G0 X95.723 Y34.629
G0 F3600 X96.359 Y34.699
G1 F1800 X114.799 Y53.139 E614.54497
G0 X114.869 Y53.209
G0 F3600 X115.365 Y53.139
G1 F1800 X96.925 Y34.699 E617.67434
G0 X96.855 Y34.629
G0 F3600 X97.49 Y34.699
G1 F1800 X115.93 Y53.139 E620.80371
G0 X116 Y53.209
G0 F3600 X116.496 Y53.139
G1 F1800 X98.056 Y34.699 E623.93308
G0 X97.986 Y34.629
G0 F3600 X98.622 Y34.699
G1 F1800 X117.062 Y53.139 E627.06246
G0 X117.132 Y53.209
G0 F3600 X117.414 Y53.491
G1 F1800 X150.103 Y86.181 E632.61005
G0 X150.173 Y86.251
G0 F3600 X150.103 Y85.615
G1 F1800 X99.187 Y34.699 E641.25078
G0 X99.117 Y34.629
G0 F3600 X99.753 Y34.699
G1 F1800 X150.103 Y85.05 E649.79554
G0 X150.173 Y85.12
G0 F3600 X150.103 Y84.484
G1 F1800 X100.319 Y34.699 E658.24425
G0 X100.249 Y34.629
G0 F3600 X100.885 Y34.699
G1 F1800 X150.103 Y83.918 E666.59691
G0 X150.173 Y83.988
G0 F3600 X150.103 Y83.353
G1 F1800 X101.45 Y34.699 E674.85368
G0 X101.38 Y34.629
G0 F3600 X102.016 Y34.699
G1 F1800 X150.103 Y82.787 E683.0144
G0 X150.173 Y82.857
G0 F3600 X150.103 Y82.221
G1 F1800 X102.582 Y34.699 E691.07907
G0 X102.512 Y34.629
G0 F3600 X103.147 Y34.699
G1 F1800 X150.103 Y81.655 E699.04777
G0 X150.173 Y81.725
G0 F3600 X150.103 Y81.09
G1 F1800 X103.713 Y34.699 E706.92049
G0 X103.643 Y34.629
G0 F3600 X104.279 Y34.699
G1 F1800 X150.103 Y80.524 E714.69717
G0 X150.173 Y80.594
G0 F3600 X150.103 Y79.958
G1 F1800 X104.844 Y34.699 E722.37788
G0 X104.774 Y34.629
G0 F3600 X105.41 Y34.699
G1 F1800 X150.103 Y79.393 E729.96262
G0 X150.173 Y79.463
G0 F3600 X150.103 Y78.827
G1 F1800 X105.976 Y34.699 E737.4513
G0 X105.906 Y34.629
G0 F3600 X106.541 Y34.699
G1 F1800 X150.103 Y78.261 E744.84402
G0 X150.173 Y78.331
G0 F3600 X150.103 Y77.696
G1 F1800 X107.107 Y34.699 E752.14076
G0 X107.037 Y34.629
G0 F3600 X107.673 Y34.699
G1 F1800 X150.103 Y77.13 E759.34146
G0 X150.173 Y77.2
G0 F3600 X150.103 Y76.564
G1 F1800 X108.238 Y34.699 E766.44619
G0 X108.168 Y34.629
G0 F3600 X108.804 Y34.699
G1 F1800 X150.103 Y75.999 E773.45494
G0 X150.173 Y76.069
G0 F3600 X150.103 Y75.433
G1 F1800 X109.37 Y34.699 E780.36765
G0 X109.3 Y34.629
G0 F3600 X109.936 Y34.699
G1 F1800 X150.103 Y74.867 E787.1843
G0 X150.173 Y74.937
G0 F3600 X150.103 Y74.302
G1 F1800 X110.501 Y34.699 E793.90507
G0 X110.431 Y34.629
G0 F3600 X111.067 Y34.699
G1 F1800 X150.103 Y73.736 E800.52978
G0 X150.173 Y73.806
G0 F3600 X150.103 Y73.17
G1 F1800 X111.633 Y34.699 E807.05844
G0 X111.563 Y34.629
G0 F3600 X112.198 Y34.699
G1 F1800 X150.103 Y72.605 E813.49122
G0 X150.173 Y72.675
G0 F3600 X150.103 Y72.039
G1 F1800 X112.764 Y34.699 E819.82794
G0 X112.694 Y34.629
G0 F3600 X113.33 Y34.699
G1 F1800 X150.103 Y71.473 E826.06861
G0 X150.173 Y71.543
G0 F3600 X150.103 Y70.907
G1 F1800 X113.895 Y34.699 E832.21331
G0 X113.825 Y34.629
G0 F3600 X114.461 Y34.699
G1 F1800 X150.103 Y70.342 E838.26204
G0 X150.173 Y70.412
G0 F3600 X150.103 Y69.776
G1 F1800 X115.027 Y34.699 E844.21472
G0 X114.957 Y34.629
G0 F3600 X115.592 Y34.699
G1 F1800 X150.103 Y69.21 E850.07143
G0 X150.173 Y69.28
G0 F3600 X150.103 Y68.645
G1 F1800 X116.158 Y34.699 E855.83218
G0 X116.088 Y34.629
G0 F3600 X116.724 Y34.699
G1 F1800 X150.103 Y68.079 E861.49687
G0 X150.173 Y68.149
G0 F3600 X150.103 Y67.513
G1 F1800 X117.289 Y34.699 E867.06559
G0 X117.219 Y34.629
G0 F3600 X117.855 Y34.699
G1 F1800 X150.103 Y66.948 E872.53834
G0 X150.173 Y67.018
G0 F3600 X150.103 Y66.382
G1 F1800 X118.421 Y34.699 E877.91504
G0 X118.351 Y34.629
G0 F3600 X118.986 Y34.699
G1 F1800 X150.103 Y65.816 E883.19577
G0 X150.173 Y65.886
G0 F3600 X150.103 Y65.251
G1 F1800 X119.552 Y34.699 E888.38053
G0 X119.482 Y34.629
G0 F3600 X120.118 Y34.699
G1 F1800 X150.103 Y64.685 E893.46924
G0 X150.173 Y64.755
G0 F3600 X150.103 Y64.119
G1 F1800 X120.684 Y34.699 E898.46189
G0 X120.614 Y34.629
G0 F3600 X121.249 Y34.699
G1 F1800 X150.103 Y63.554 E903.35866
G0 X150.173 Y63.624
G0 F3600 X150.103 Y62.988
G1 F1800 X121.815 Y34.699 E908.15938
G0 X121.745 Y34.629
G0 F3600 X122.381 Y34.699
G1 F1800 X150.103 Y62.422 E912.86404
G0 X150.173 Y62.492
G0 F3600 X150.103 Y61.856
G1 F1800 X122.946 Y34.699 E917.47274
G0 X122.876 Y34.629
G0 F3600 X123.512 Y34.699
G1 F1800 X150.103 Y61.291 E921.98547
G0 X150.173 Y61.361
G0 F3600 X150.103 Y60.725
G1 F1800 X124.078 Y34.699 E926.40214
G0 X124.008 Y34.629
G0 F3600 X124.643 Y34.699
G1 F1800 X150.103 Y60.159 E930.72285
G0 X150.173 Y60.229
G0 F3600 X150.103 Y59.594
G1 F1800 X125.209 Y34.699 E934.94758
G0 X125.139 Y34.629
G0 F3600 X125.775 Y34.699
G1 F1800 X150.103 Y59.028 E939.07627
G0 X150.173 Y59.098
G0 F3600 X150.103 Y58.462
G1 F1800 X126.34 Y34.699 E943.10898
G0 X126.27 Y34.629
G0 F3600 X126.906 Y34.699
