;FLAVOR:UltiGCode
;TIME:9605
;MATERIAL:11636
;MATERIAL2:0
;NOZZLE_DIAMETER:0.4
;Generated with Cura_SteamEngine master

;LAYER_COUNT:88
;LAYER:0
M107
G10
G0 F3600 X84.518 Y37.414 Z.3
;TYPE:SKIRT
G11
G1 F1800 X84.784 Y36.984 E0.06067
G1 X85.114 Y36.601 E0.12134
G1 X85.501 Y36.275 E0.18206
G1 X85.934 Y36.014 E0.24273
G1 X86.402 Y35.824 E0.30334
G1 X86.895 Y35.711 E0.36404
G1 X87.365 Y35.676 E0.42059
G1 X146.646 Y35.677 E7.53431
G1 X147.15 Y35.717 E7.59498
G1 X147.641 Y35.836 E7.65561
G1 X148.108 Y36.031 E7.71634
G1 X148.538 Y36.296 E7.77695
G1 X148.921 Y36.626 E7.83762
G1 X149.247 Y37.013 E7.89834
G1 X149.508 Y37.446 E7.95901
G1 X149.698 Y37.914 E8.01962
G1 X149.811 Y38.407 E8.08031
G1 X149.846 Y38.877 E8.13687
G1 X149.846 Y98.158 E15.25059
G1 X149.806 Y98.662 E15.31126
G1 X149.687 Y99.153 E15.37189
G1 X149.493 Y99.62 E15.43257
G1 X149.227 Y100.05 E15.49325
G1 X148.897 Y100.433 E15.55391
G1 X148.51 Y100.759 E15.61463
G1 X148.077 Y101.02 E15.6753
G1 X147.609 Y101.21 E15.73591
G1 X147.116 Y101.323 E15.79661
G1 X146.646 Y101.358 E15.85316
G1 X87.365 Y101.358 E22.96688
G1 X86.861 Y101.318 E23.02755
G1 X86.37 Y101.199 E23.08818
G1 X85.903 Y101.005 E23.14886
G1 X85.473 Y100.739 E23.20954
G1 X85.09 Y100.409 E23.27021
G1 X84.764 Y100.022 E23.33093
G1 X84.503 Y99.589 E23.3916
G1 X84.313 Y99.121 E23.45221
G1 X84.2 Y98.628 E23.5129
G1 X84.165 Y98.158 E23.56946
G1 X84.165 Y38.876 E30.6833
G1 X84.205 Y38.372 E30.74397
G1 X84.324 Y37.881 E30.80459
G1 X84.518 Y37.414 E30.86528
G10
G0 F3600 X86.691 Y39.495
G0 X87.984 Y39.495
G0 X88.026 Y39.537
G0 X87.956 Y39.467
;TYPE:WALL-INNER
G11
G1 F1800 X146.055 Y39.467 E37.83716
G1 X146.055 Y97.567 E44.80916
G1 X87.956 Y97.567 E51.78104
G1 X87.956 Y39.467 E58.75304
G0 F3600 X88.026 Y39.537
G0 X105.336 Y56.847
G0 X105.406 Y56.917
G1 F1800 X105.406 Y80.117 E61.53704
G1 X128.605 Y80.117 E64.32092
G1 X128.605 Y56.917 E67.10492
G1 X105.406 Y56.917 E69.8888
G0 F3600 X105.806 Y57.317
;TYPE:WALL-OUTER
G1 F1800 X105.806 Y79.717 E72.5768
G1 X128.205 Y79.717 E75.26468
G1 X128.205 Y57.317 E77.95268
G1 X105.806 Y57.317 E80.64056
G0 F3600 X105.306 Y57.317
G0 X88.026 Y39.537
G0 X87.556 Y39.067
G1 F1800 X146.455 Y39.067 E87.70844
G1 X146.455 Y97.967 E94.77644
G1 X87.556 Y97.967 E101.84432
G1 X87.556 Y39.067 E108.91232
G0 F3600 X88.026 Y39.537
G0 X88.296 Y39.647
;TYPE:SKIN
G1 F1800 X105.385 Y56.736 E111.81242
G0 X105.455 Y56.806
G0 F3600 X105.225 Y57.142
G1 F1800 X88.135 Y40.051 E114.71277
G0 X88.065 Y39.981
G0 F3600 X88.135 Y40.617
G1 F1800 X105.225 Y57.707 E117.61304
G0 X105.295 Y57.777
G0 F3600 X105.225 Y58.273
G1 F1800 X88.135 Y41.183 E120.51331
G0 X88.065 Y41.113
G0 F3600 X88.135 Y41.748
G1 F1800 X105.225 Y58.839 E123.41366
G0 X105.295 Y58.909
G0 F3600 X105.225 Y59.404
G1 F1800 X88.135 Y42.314 E126.31393
G0 X88.065 Y42.244
G0 F3600 X88.135 Y42.88
G1 F1800 X105.225 Y59.97 E129.2142
G0 X105.295 Y60.04
G0 F3600 X105.225 Y60.536
G1 F1800 X88.135 Y43.446 E132.11447
G0 X88.065 Y43.376
G0 F3600 X88.135 Y44.011
G1 F1800 X105.225 Y61.101 E135.01474
G0 X105.295 Y61.171
G0 F3600 X105.225 Y61.667
G1 F1800 X88.135 Y44.577 E137.91501
G0 X88.065 Y44.507
G0 F3600 X88.135 Y45.143
G1 F1800 X105.225 Y62.233 E140.81528
G0 X105.295 Y62.303
G0 F3600 X105.225 Y62.798
G1 F1800 X88.135 Y45.708 E143.71555
G0 X88.065 Y45.638
G0 F3600 X88.135 Y46.274
G1 F1800 X105.225 Y63.364 E146.61582
G0 X105.295 Y63.434
G0 F3600 X105.225 Y63.93
G1 F1800 X88.135 Y46.84 E149.51609
G0 X88.065 Y46.77
G0 F3600 X88.135 Y47.405
G1 F1800 X105.225 Y64.495 E152.41635
G0 X105.295 Y64.565
G0 F3600 X105.225 Y65.061
G1 F1800 X88.135 Y47.971 E155.31662
G0 X88.065 Y47.901
G0 F3600 X88.135 Y48.537
G1 F1800 X105.225 Y65.627 E158.21689
G0 X105.295 Y65.697
G0 F3600 X105.225 Y66.192
G1 F1800 X88.135 Y49.102 E161.11716
G0 X88.065 Y49.032
G0 F3600 X88.135 Y49.668
G1 F1800 X105.225 Y66.758 E164.01743
G0 X105.295 Y66.828
G0 F3600 X105.225 Y67.324
G1 F1800 X88.135 Y50.234 E166.9177
G0 X88.065 Y50.164
G0 F3600 X88.135 Y50.799
G1 F1800 X105.225 Y67.89 E169.81805
G0 X105.295 Y67.96
G0 F3600 X105.225 Y68.455
G1 F1800 X88.135 Y51.365 E172.71832
G0 X88.065 Y51.295
G0 F3600 X88.135 Y51.931
G1 F1800 X105.225 Y69.021 E175.61859
G0 X105.295 Y69.091
G0 F3600 X105.225 Y69.587
G1 F1800 X88.135 Y52.497 E178.51886
G0 X88.065 Y52.427
G0 F3600 X88.135 Y53.062
G1 F1800 X105.225 Y70.152 E181.41913
G0 X105.295 Y70.222
G0 F3600 X105.225 Y70.718
G1 F1800 X88.135 Y53.628 E184.3194
G0 X88.065 Y53.558
G0 F3600 X88.135 Y54.194
G1 F1800 X105.225 Y71.284 E187.21967
G0 X105.295 Y71.354
G0 F3600 X105.225 Y71.849
G1 F1800 X88.135 Y54.759 E190.11994
G0 X88.065 Y54.689
G0 F3600 X88.135 Y55.325
G1 F1800 X105.225 Y72.415 E193.02021
G0 X105.295 Y72.485
G0 F3600 X105.225 Y72.981
G1 F1800 X88.135 Y55.891 E195.92048
G0 X88.065 Y55.821
G0 F3600 X88.135 Y56.456
G1 F1800 X105.225 Y73.546 E198.82075
G0 X105.295 Y73.616
G0 F3600 X105.225 Y74.112
G1 F1800 X88.135 Y57.022 E201.72102
G0 X88.065 Y56.952
G0 F3600 X88.135 Y57.588
G1 F1800 X105.225 Y74.678 E204.62128
G0 X105.295 Y74.748
G0 F3600 X105.225 Y75.243
G1 F1800 X88.135 Y58.153 E207.52155
G0 X88.065 Y58.083
G0 F3600 X88.135 Y58.719
G1 F1800 X105.225 Y75.809 E210.42182
G0 X105.295 Y75.879
G0 F3600 X105.225 Y76.375
G1 F1800 X88.135 Y59.285 E213.32209
G0 X88.065 Y59.215
G0 F3600 X88.135 Y59.85
G1 F1800 X105.225 Y76.94 E216.22236
G0 X105.295 Y77.01
G0 F3600 X105.225 Y77.506
G1 F1800 X88.135 Y60.416 E219.12263
G0 X88.065 Y60.346
G0 F3600 X88.135 Y60.982
G1 F1800 X105.225 Y78.072 E222.0229
G0 X105.295 Y78.142
G0 F3600 X105.225 Y78.638
G1 F1800 X88.135 Y61.547 E224.92325
G0 X88.065 Y61.477
G0 F3600 X88.135 Y62.113
G1 F1800 X105.225 Y79.203 E227.82352
G0 X105.295 Y79.273
G0 F3600 X105.225 Y79.769
G1 F1800 X88.135 Y62.679 E230.72379
G0 X88.065 Y62.609
G0 F3600 X88.135 Y63.245
G1 F1800 X122.276 Y97.386 E236.51771
G0 X122.346 Y97.456
G0 F3600 X122.842 Y97.386
G1 F1800 X105.752 Y80.296 E239.41798
G0 X105.682 Y80.226
G0 F3600 X106.318 Y80.296
G1 F1800 X123.407 Y97.386 E242.31817
G0 X123.477 Y97.456
G0 F3600 X123.973 Y97.386
G1 F1800 X106.884 Y80.296 E245.21835
G0 X106.814 Y80.226
G0 F3600 X107.449 Y80.296
G1 F1800 X124.539 Y97.386 E248.11862
G0 X124.609 Y97.456
G0 F3600 X125.104 Y97.386
G1 F1800 X108.015 Y80.296 E251.0188
G0 X107.945 Y80.226
G0 F3600 X108.581 Y80.296
G1 F1800 X125.67 Y97.386 E253.91899
G0 X125.74 Y97.456
G0 F3600 X126.236 Y97.386
G1 F1800 X109.146 Y80.296 E256.81926
G0 X109.076 Y80.226
G0 F3600 X109.712 Y80.296
G1 F1800 X126.801 Y97.386 E259.71944
G0 X126.871 Y97.456
G0 F3600 X127.367 Y97.386
G1 F1800 X110.278 Y80.296 E262.61963
G0 X110.208 Y80.226
G0 F3600 X110.843 Y80.296
G1 F1800 X127.933 Y97.386 E265.51989
G0 X128.003 Y97.456
G0 F3600 X128.498 Y97.386
G1 F1800 X111.409 Y80.296 E268.42008
G0 X111.339 Y80.226
G0 F3600 X111.975 Y80.296
G1 F1800 X129.064 Y97.386 E271.32026
G0 X129.134 Y97.456
G0 F3600 X129.63 Y97.386
G1 F1800 X112.54 Y80.296 E274.22053
G0 X112.47 Y80.226
G0 F3600 X113.106 Y80.296
G1 F1800 X130.196 Y97.386 E277.1208
G0 X130.266 Y97.456
G0 F3600 X130.761 Y97.386
G1 F1800 X113.672 Y80.296 E280.02099
G0 X113.602 Y80.226
G0 F3600 X114.238 Y80.296
G1 F1800 X131.327 Y97.386 E282.92117
G0 X131.397 Y97.456
G0 F3600 X131.893 Y97.386
G1 F1800 X114.803 Y80.296 E285.82144
G0 X114.733 Y80.226
G0 F3600 X115.369 Y80.296
G1 F1800 X132.458 Y97.386 E288.72162
G0 X132.528 Y97.456
G0 F3600 X133.024 Y97.386
G1 F1800 X115.935 Y80.296 E291.62181
G0 X115.865 Y80.226
G0 F3600 X116.5 Y80.296
G1 F1800 X133.59 Y97.386 E294.52208
G0 X133.66 Y97.456
G0 F3600 X134.155 Y97.386
G1 F1800 X117.066 Y80.296 E297.42226
G0 X116.996 Y80.226
G0 F3600 X117.632 Y80.296
G1 F1800 X134.721 Y97.386 E300.32245
G0 X134.791 Y97.456
G0 F3600 X135.287 Y97.386
G1 F1800 X118.197 Y80.296 E303.22272
G0 X118.127 Y80.226
G0 F3600 X118.763 Y80.296
G1 F1800 X135.852 Y97.386 E306.1229
G0 X135.922 Y97.456
G0 F3600 X136.418 Y97.386
G1 F1800 X119.329 Y80.296 E309.02308
G0 X119.259 Y80.226
G0 F3600 X119.894 Y80.296
G1 F1800 X136.984 Y97.386 E311.92335
G0 X137.054 Y97.456
G0 F3600 X137.549 Y97.386
G1 F1800 X120.46 Y80.296 E314.82354
G0 X120.39 Y80.226
G0 F3600 X121.026 Y80.296
G1 F1800 X138.115 Y97.386 E317.72372
G0 X138.185 Y97.456
G0 F3600 X138.681 Y97.386
G1 F1800 X121.591 Y80.296 E320.62399
G0 X121.521 Y80.226
G0 F3600 X122.157 Y80.296
G1 F1800 X139.247 Y97.386 E323.52426
G0 X139.317 Y97.456
G0 F3600 X139.812 Y97.386
G1 F1800 X122.723 Y80.296 E326.42444
G0 X122.653 Y80.226
G0 F3600 X123.289 Y80.296
G1 F1800 X140.378 Y97.386 E329.32463
G0 X140.448 Y97.456
G0 F3600 X140.944 Y97.386
G1 F1800 X123.854 Y80.296 E332.2249
G0 X123.784 Y80.226
G0 F3600 X124.42 Y80.296
G1 F1800 X141.509 Y97.386 E335.12508
G0 X141.579 Y97.456
G0 F3600 X142.075 Y97.386
G1 F1800 X124.986 Y80.296 E338.02527
G0 X124.916 Y80.226
G0 F3600 X125.551 Y80.296
G1 F1800 X142.641 Y97.386 E340.92554
G0 X142.711 Y97.456
G0 F3600 X143.206 Y97.386
G1 F1800 X126.117 Y80.296 E343.82572
G0 X126.047 Y80.226
G0 F3600 X126.683 Y80.296
G1 F1800 X143.772 Y97.386 E346.7259
G0 X143.842 Y97.456
G0 F3600 X144.338 Y97.386
G1 F1800 X127.248 Y80.296 E349.62617
G0 X127.178 Y80.226
G0 F3600 X127.814 Y80.296
G1 F1800 X144.903 Y97.386 E352.52636
G0 X144.973 Y97.456
G0 F3600 X145.469 Y97.386
G1 F1800 X128.38 Y80.296 E355.42654
G0 X128.31 Y80.226
G0 F3600 X128.783 Y80.134
G1 F1800 X145.874 Y97.225 E358.32698
G0 X145.944 Y97.295
G0 F3600 X145.874 Y96.66
G1 F1800 X128.783 Y79.569 E361.22742
G0 X128.713 Y79.499
G0 F3600 X128.783 Y79.003
G1 F1800 X145.874 Y96.094 E364.12786
G0 X145.944 Y96.164
G0 F3600 X145.874 Y95.528
G1 F1800 X128.783 Y78.437 E367.0283
G0 X128.713 Y78.367
G0 F3600 X128.783 Y77.872
G1 F1800 X145.874 Y94.963 E369.92874
G0 X145.944 Y95.033
G0 F3600 X145.874 Y94.397
G1 F1800 X128.783 Y77.306 E372.82918
G0 X128.713 Y77.236
G0 F3600 X128.783 Y76.74
G1 F1800 X145.874 Y93.831 E375.72961
G0 X145.944 Y93.901
G0 F3600 X145.874 Y93.265
G1 F1800 X128.783 Y76.175 E378.62997
G0 X128.713 Y76.105
G0 F3600 X128.783 Y75.609
G1 F1800 X145.874 Y92.7 E381.53041
G0 X145.944 Y92.77
G0 F3600 X145.874 Y92.134
G1 F1800 X128.783 Y75.043 E384.43085
G0 X128.713 Y74.973
G0 F3600 X128.783 Y74.478
G1 F1800 X145.874 Y91.568 E387.3312
G0 X145.944 Y91.638
G0 F3600 X145.874 Y91.003
G1 F1800 X128.783 Y73.912 E390.23164
G0 X128.713 Y73.842
G0 F3600 X128.783 Y73.346
G1 F1800 X145.874 Y90.437 E393.13208
G0 X145.944 Y90.507
G0 F3600 X145.874 Y89.871
G1 F1800 X128.783 Y72.781 E396.03243
G0 X128.713 Y72.711
G0 F3600 X128.783 Y72.215
G1 F1800 X145.874 Y89.306 E398.93287
G0 X145.944 Y89.376
G0 F3600 X145.874 Y88.74
G1 F1800 X128.783 Y71.649 E401.83331
G0 X128.713 Y71.579
G0 F3600 X128.783 Y71.084
G1 F1800 X145.874 Y88.174 E404.73366
G0 X145.944 Y88.244
G0 F3600 X145.874 Y87.609
G1 F1800 X128.783 Y70.518 E407.6341
G0 X128.713 Y70.448
G0 F3600 X128.783 Y69.952
G1 F1800 X145.874 Y87.043 E410.53454
G0 X145.944 Y87.113
G0 F3600 X145.874 Y86.477
G1 F1800 X128.783 Y69.386 E413.43498
G0 X128.713 Y69.316
G0 F3600 X128.783 Y68.821
G1 F1800 X145.874 Y85.912 E416.33542
G0 X145.944 Y85.982
G0 F3600 X145.874 Y85.346
G1 F1800 X128.783 Y68.255 E419.23586
G0 X128.713 Y68.185
G0 F3600 X128.783 Y67.689
G1 F1800 X145.874 Y84.78 E422.1363
G0 X145.944 Y84.85
G0 F3600 X145.874 Y84.215
G1 F1800 X128.783 Y67.124 E425.03674
G0 X128.713 Y67.054
G0 F3600 X128.783 Y66.558
G1 F1800 X145.874 Y83.649 E427.93717
G0 X145.944 Y83.719
G0 F3600 X145.874 Y83.083
G1 F1800 X128.783 Y65.992 E430.83761
G0 X128.713 Y65.922
G0 F3600 X128.783 Y65.427
G1 F1800 X145.874 Y82.517 E433.73797
G0 X145.944 Y82.587
G0 F3600 X145.874 Y81.952
G1 F1800 X128.783 Y64.861 E436.63841
G0 X128.713 Y64.791
G0 F3600 X128.783 Y64.295
G1 F1800 X145.874 Y81.386 E439.53885
G0 X145.944 Y81.456
G0 F3600 X145.874 Y80.82
G1 F1800 X128.783 Y63.73 E442.4392
G0 X128.713 Y63.66
G0 F3600 X128.783 Y63.164
G1 F1800 X145.874 Y80.255 E445.33964
G0 X145.944 Y80.325
G0 F3600 X145.874 Y79.689
G1 F1800 X128.783 Y62.598 E448.24008
G0 X128.713 Y62.528
G0 F3600 X128.783 Y62.033
G1 F1800 X145.874 Y79.123 E451.14043
G0 X145.944 Y79.193
G0 F3600 X145.874 Y78.558
G1 F1800 X128.783 Y61.467 E454.04087
G0 X128.713 Y61.397
G0 F3600 X128.783 Y60.901
G1 F1800 X145.874 Y77.992 E456.94131
G0 X145.944 Y78.062
G0 F3600 X145.874 Y77.426
G1 F1800 X128.783 Y60.336 E459.84166
G0 X128.713 Y60.266
G0 F3600 X128.783 Y59.77
G1 F1800 X145.874 Y76.861 E462.7421
G0 X145.944 Y76.931
G0 F3600 X145.874 Y76.295
G1 F1800 X128.783 Y59.204 E465.64254
G0 X128.713 Y59.134
G0 F3600 X128.783 Y58.638
G1 F1800 X145.874 Y75.729 E468.54298
G0 X145.944 Y75.799
G0 F3600 X145.874 Y75.164
G1 F1800 X128.783 Y58.073 E471.44342
G0 X128.713 Y58.003
G0 F3600 X128.783 Y57.507
G1 F1800 X145.874 Y74.598 E474.34386
G0 X145.944 Y74.668
G0 F3600 X145.874 Y74.032
G1 F1800 X128.783 Y56.941 E477.2443
G0 X128.713 Y56.871
G0 F3600 X128.578 Y56.736
G1 F1800 X111.489 Y39.647 E480.1444
G0 X111.419 Y39.577
G0 F3600 X112.055 Y39.647
G1 F1800 X145.874 Y73.466 E485.88367
G0 X145.944 Y73.536
G0 F3600 X145.874 Y72.901
G1 F1800 X112.62 Y39.647 E491.52706
G0 X112.55 Y39.577
G0 F3600 X113.186 Y39.647
G1 F1800 X145.874 Y72.335 E497.0744
G0 X145.944 Y72.405
G0 F3600 X145.874 Y71.769
G1 F1800 X113.752 Y39.647 E502.52568
G0 X113.682 Y39.577
G0 F3600 X114.317 Y39.647
G1 F1800 X145.874 Y71.204 E507.88108
G0 X145.944 Y71.274
G0 F3600 X145.874 Y70.638
G1 F1800 X114.883 Y39.647 E513.14043
G0 X114.813 Y39.577
G0 F3600 X115.449 Y39.647
G1 F1800 X145.874 Y70.072 E518.30372
G0 X145.944 Y70.142
G0 F3600 X145.874 Y69.507
G1 F1800 X116.015 Y39.647 E523.37105
G0 X115.945 Y39.577
G0 F3600 X116.58 Y39.647
G1 F1800 X145.874 Y68.941 E528.34241
G0 X145.944 Y69.011
G0 F3600 X145.874 Y68.375
G1 F1800 X117.146 Y39.647 E533.21771
G0 X117.076 Y39.577
G0 F3600 X117.712 Y39.647
G1 F1800 X145.874 Y67.81 E537.99704
G0 X145.944 Y67.88
G0 F3600 X145.874 Y67.244
G1 F1800 X118.277 Y39.647 E542.68041
G0 X118.207 Y39.577
G0 F3600 X118.843 Y39.647
G1 F1800 X145.874 Y66.678 E547.26772
G0 X145.944 Y66.748
G0 F3600 X145.874 Y66.113
G1 F1800 X119.409 Y39.647 E551.75907
G0 X119.339 Y39.577
G0 F3600 X119.974 Y39.647
G1 F1800 X145.874 Y65.547 E556.15444
G0 X145.944 Y65.617
G0 F3600 X145.874 Y64.981
G1 F1800 X120.54 Y39.647 E560.45377
G0 X120.47 Y39.577
G0 F3600 X121.106 Y39.647
G1 F1800 X145.874 Y64.416 E564.65712
G0 X145.944 Y64.486
G0 F3600 X145.874 Y63.85
G1 F1800 X121.671 Y39.647 E568.7645
G0 X121.601 Y39.577
G0 F3600 X122.237 Y39.647
G1 F1800 X145.874 Y63.284 E572.77584
G0 X145.944 Y63.354
G0 F3600 X145.874 Y62.718
G1 F1800 X122.803 Y39.647 E576.69112
G0 X122.733 Y39.577
G0 F3600 X123.368 Y39.647
G1 F1800 X145.874 Y62.153 E580.51051
G0 X145.944 Y62.223
G0 F3600 X145.874 Y61.587
G1 F1800 X123.934 Y39.647 E584.23385
G0 X123.864 Y39.577
G0 F3600 X124.5 Y39.647
G1 F1800 X145.874 Y61.021 E587.86114
G0 X145.944 Y61.091
G0 F3600 X145.874 Y60.456
G1 F1800 X125.065 Y39.647 E591.39254
G0 X124.995 Y39.577
G0 F3600 X125.631 Y39.647
G1 F1800 X145.874 Y59.89 E594.8279
G0 X145.944 Y59.96
G0 F3600 X145.874 Y59.324
G1 F1800 X126.197 Y39.647 E598.16719
G0 X126.127 Y39.577
G0 F3600 X126.763 Y39.647
G1 F1800 X145.874 Y58.759 E601.41052
G0 X145.944 Y58.829
G0 F3600 X145.874 Y58.193
G1 F1800 X127.328 Y39.647 E604.55788
G0 X127.258 Y39.577
G0 F3600 X127.894 Y39.647
G1 F1800 X145.874 Y57.627 E607.60919
G0 X145.944 Y57.697
G0 F3600 X145.874 Y57.062
G1 F1800 X128.46 Y39.647 E610.56453
G0 X128.39 Y39.577
G0 F3600 X129.025 Y39.647
G1 F1800 X145.874 Y56.496 E613.4239
G0 X145.944 Y56.566
G0 F3600 X145.874 Y55.93
G1 F1800 X129.591 Y39.647 E616.18721
G0 X129.521 Y39.577
G0 F3600 X130.157 Y39.647
G1 F1800 X145.874 Y55.365 E618.85456
G0 X145.944 Y55.435
G0 F3600 X145.874 Y54.799
G1 F1800 X130.722 Y39.647 E621.42594
G0 X130.652 Y39.577
G0 F3600 X131.288 Y39.647
G1 F1800 X145.874 Y54.233 E623.90127
G0 X145.944 Y54.303
G0 F3600 X145.874 Y53.667
G1 F1800 X131.854 Y39.647 E626.28054
G0 X131.784 Y39.577
G0 F3600 X132.419 Y39.647
G1 F1800 X145.874 Y53.102 E628.56393
G0 X145.944 Y53.172
G0 F3600 X145.874 Y52.536
G1 F1800 X132.985 Y39.647 E630.75127
G0 X132.915 Y39.577
G0 F3600 X133.551 Y39.647
G1 F1800 X145.874 Y51.97 E632.84255
G0 X145.944 Y52.04
G0 F3600 X145.874 Y51.405
G1 F1800 X134.116 Y39.647 E634.83795
