;FLAVOR:UltiGCode
;TIME:3677
;MATERIAL:5605
;MATERIAL2:0
;Generated with Cura_SteamEngine DEV
;LAYER:0
M107
G0 F9000 X82.859 Y63.859 Z0.300
G0 X83.073 Y63.596
;TYPE:SKIRT
G1 F900 X84.825 Y61.375 E0.33946
G1 X86.513 Y59.106 E0.67882
G1 X88.136 Y56.790 E1.01819
G1 X89.693 Y54.428 E1.35767
G1 X91.183 Y52.024 E1.69707
G1 X92.452 Y49.848 E1.99935
G1 X92.606 Y49.577 E2.03675
G1 X92.648 Y49.506 E2.04665
G1 X92.676 Y49.463 E2.05281
G1 X92.750 Y49.355 E2.06852
G1 X92.798 Y49.289 E2.07831
G1 X92.853 Y49.217 E2.08919
G1 X92.896 Y49.165 E2.09728
G1 X92.974 Y49.074 E2.11167
G1 X93.003 Y49.041 E2.11694
G1 X93.090 Y48.952 E2.13187
G1 X93.160 Y48.882 E2.14375
G1 X93.184 Y48.860 E2.14766
G1 X93.268 Y48.786 E2.16109
G1 X93.346 Y48.721 E2.17328
G1 X93.443 Y48.645 E2.18806
G1 X93.478 Y48.619 E2.19330
G1 X93.582 Y48.547 E2.20847
G1 X93.613 Y48.526 E2.21297
G1 X93.723 Y48.458 E2.22849
G1 X93.779 Y48.426 E2.23623
G1 X93.860 Y48.381 E2.24735
G1 X93.930 Y48.346 E2.25674
G1 X94.036 Y48.295 E2.27085
G1 X94.123 Y48.257 E2.28224
G1 X94.162 Y48.241 E2.28730
G1 X94.292 Y48.192 E2.30397
G1 X94.345 Y48.174 E2.31069
G1 X94.435 Y48.146 E2.32200
G1 X94.519 Y48.122 E2.33249
G1 X94.596 Y48.103 E2.34200
G1 X94.695 Y48.080 E2.35420
G1 X94.788 Y48.062 E2.36557
G1 X94.887 Y48.046 E2.37760
G1 X94.947 Y48.037 E2.38488
G1 X95.038 Y48.028 E2.39585
G1 X95.035 Y48.028 E2.39621
G1 X96.349 Y48.002 E2.55393
G1 X133.975 Y48.002 E7.06905
G1 X134.718 Y48.012 E7.15821
G1 X134.847 Y48.018 E7.17371
G1 X134.891 Y48.021 E7.17900
G1 X135.026 Y48.034 E7.19528
G1 X135.093 Y48.042 E7.20337
G1 X135.172 Y48.055 E7.21298
G1 X135.280 Y48.074 E7.22614
G1 X135.334 Y48.086 E7.23278
G1 X135.457 Y48.116 E7.24797
G1 X135.515 Y48.131 E7.25516
G1 X135.613 Y48.161 E7.26746
G1 X135.668 Y48.179 E7.27440
G1 X135.791 Y48.223 E7.29008
G1 X135.874 Y48.256 E7.30080
G1 X135.920 Y48.276 E7.30682
G1 X136.035 Y48.329 E7.32201
G1 X136.108 Y48.365 E7.33178
G1 X136.167 Y48.396 E7.33978
G1 X136.283 Y48.462 E7.35579
G1 X136.345 Y48.499 E7.36446
G1 X136.387 Y48.526 E7.37045
G1 X136.479 Y48.589 E7.38383
G1 X136.562 Y48.649 E7.39612
G1 X136.634 Y48.704 E7.40699
G1 X136.686 Y48.747 E7.41509
G1 X136.777 Y48.825 E7.42947
G1 X136.810 Y48.854 E7.43474
G1 X136.899 Y48.940 E7.44959
G1 X136.965 Y49.007 E7.46088
G1 X136.991 Y49.035 E7.46546
G1 X137.065 Y49.119 E7.47890
G1 X137.130 Y49.197 E7.49108
G1 X137.206 Y49.294 E7.50587
G1 X137.219 Y49.311 E7.50844
G1 X137.304 Y49.433 E7.52628
G1 X137.322 Y49.460 E7.53017
G1 X137.393 Y49.574 E7.54629
G1 X138.138 Y50.855 E7.72412
G1 X138.145 Y50.851 E7.72508
G1 X138.579 Y51.607 E7.82969
G1 X140.056 Y54.019 E8.16909
G1 X141.601 Y56.388 E8.50848
G1 X143.212 Y58.713 E8.84791
G1 X144.888 Y60.991 E9.18729
G1 X146.628 Y63.221 E9.52671
G1 X146.875 Y63.523 E9.57353
G1 X147.206 Y63.944 E9.63779
G1 X147.224 Y63.968 E9.64139
G1 X147.304 Y64.083 E9.65820
G1 X147.322 Y64.110 E9.66209
G1 X147.393 Y64.224 E9.67821
G1 X147.421 Y64.272 E9.68488
G1 X147.470 Y64.361 E9.69707
G1 X147.505 Y64.431 E9.70646
G1 X147.556 Y64.537 E9.72058
G1 X147.594 Y64.624 E9.73197
G1 X147.610 Y64.663 E9.73703
G1 X147.659 Y64.793 E9.75370
G1 X147.677 Y64.846 E9.76042
G1 X147.705 Y64.936 E9.77173
G1 X147.728 Y65.017 E9.78183
G1 X147.748 Y65.097 E9.79173
G1 X147.768 Y65.184 E9.80244
G1 X147.786 Y65.273 E9.81334
G1 X147.805 Y65.388 E9.82732
G1 X147.814 Y65.448 E9.83460
G1 X147.823 Y65.537 E9.84534
G1 X147.849 Y66.850 E10.00293
G1 X147.849 Y75.158 E10.99989
G1 X147.839 Y75.921 E11.09146
G1 X147.833 Y76.050 E11.10695
G1 X147.831 Y76.084 E11.11104
G1 X147.817 Y76.229 E11.12852
G1 X147.809 Y76.296 E11.13662
G1 X147.796 Y76.375 E11.14623
G1 X147.777 Y76.483 E11.15939
G1 X147.769 Y76.520 E11.16393
G1 X147.738 Y76.649 E11.17985
G1 X147.720 Y76.718 E11.18841
G1 X147.690 Y76.816 E11.20070
G1 X147.671 Y76.873 E11.20791
G1 X147.628 Y76.994 E11.22332
G1 X147.595 Y77.077 E11.23404
G1 X147.575 Y77.123 E11.24006
G1 X147.522 Y77.238 E11.25526
G1 X147.486 Y77.311 E11.26502
G1 X147.455 Y77.370 E11.27302
G1 X147.389 Y77.486 E11.28904
G1 X147.352 Y77.547 E11.29760
G1 X147.324 Y77.591 E11.30386
G1 X147.264 Y77.679 E11.31664
G1 X147.202 Y77.765 E11.32936
G1 X147.143 Y77.842 E11.34100
G1 X146.927 Y78.108 E11.38212
G1 X145.175 Y80.329 E11.72158
G1 X143.487 Y82.598 E12.06094
G1 X141.864 Y84.914 E12.40031
G1 X140.307 Y87.276 E12.73979
G1 X138.817 Y89.680 E13.07919
G1 X137.548 Y91.856 E13.38147
G1 X137.394 Y92.127 E13.41887
G1 X137.352 Y92.198 E13.42877
G1 X137.324 Y92.241 E13.43493
G1 X137.262 Y92.332 E13.44814
G1 X137.211 Y92.403 E13.45863
G1 X137.148 Y92.485 E13.47104
G1 X137.104 Y92.539 E13.47940
G1 X137.014 Y92.644 E13.49600
G1 X136.910 Y92.752 E13.51399
G1 X136.840 Y92.822 E13.52587
G1 X136.816 Y92.844 E13.52977
G1 X136.732 Y92.918 E13.54321
G1 X136.654 Y92.983 E13.55539
G1 X136.565 Y93.053 E13.56898
G1 X136.524 Y93.083 E13.57508
G1 X136.418 Y93.157 E13.59059
G1 X136.391 Y93.175 E13.59448
G1 X136.285 Y93.241 E13.60947
G1 X136.221 Y93.278 E13.61834
G1 X136.143 Y93.321 E13.62903
G1 X136.070 Y93.358 E13.63885
G1 X135.964 Y93.409 E13.65296
G1 X135.877 Y93.447 E13.66436
G1 X135.838 Y93.463 E13.66941
G1 X135.708 Y93.512 E13.68609
G1 X135.655 Y93.530 E13.69280
G1 X135.565 Y93.558 E13.70411
G1 X135.481 Y93.582 E13.71460
G1 X135.404 Y93.601 E13.72411
G1 X135.305 Y93.624 E13.73631
G1 X135.212 Y93.642 E13.74768
G1 X135.113 Y93.658 E13.75971
G1 X135.053 Y93.667 E13.76699
G1 X134.962 Y93.676 E13.77796
G1 X134.965 Y93.676 E13.77832
G1 X133.651 Y93.702 E13.93604
G1 X96.025 Y93.702 E18.45116
G1 X95.282 Y93.692 E18.54032
G1 X95.153 Y93.686 E18.55582
G1 X95.109 Y93.683 E18.56111
G1 X94.974 Y93.670 E18.57739
G1 X94.907 Y93.662 E18.58548
G1 X94.828 Y93.649 E18.59509
G1 X94.717 Y93.629 E18.60863
G1 X94.666 Y93.618 E18.61489
G1 X94.543 Y93.588 E18.63008
G1 X94.485 Y93.573 E18.63727
G1 X94.387 Y93.543 E18.64957
G1 X94.330 Y93.524 E18.65678
G1 X94.209 Y93.481 E18.67219
G1 X94.124 Y93.447 E18.68317
G1 X94.080 Y93.428 E18.68892
G1 X93.965 Y93.375 E18.70412
G1 X93.892 Y93.339 E18.71389
G1 X93.833 Y93.308 E18.72188
G1 X93.715 Y93.241 E18.73817
G1 X93.652 Y93.203 E18.74700
G1 X93.612 Y93.177 E18.75272
G1 X93.521 Y93.115 E18.76593
G1 X93.438 Y93.055 E18.77822
G1 X93.366 Y93.000 E18.78910
G1 X93.314 Y92.957 E18.79719
G1 X93.219 Y92.876 E18.81218
G1 X93.190 Y92.849 E18.81693
G1 X93.101 Y92.763 E18.83178
G1 X93.031 Y92.693 E18.84366
G1 X93.009 Y92.669 E18.84757
G1 X92.926 Y92.574 E18.86271
G1 X92.870 Y92.507 E18.87318
G1 X92.781 Y92.393 E18.89054
G1 X92.770 Y92.377 E18.89287
G1 X92.696 Y92.271 E18.90838
G1 X92.678 Y92.244 E18.91228
G1 X92.605 Y92.127 E18.92883
G1 X91.862 Y90.849 E19.10622
G1 X91.855 Y90.853 E19.10719
G1 X91.421 Y90.097 E19.21179
G1 X89.944 Y87.685 E19.55119
G1 X88.399 Y85.316 E19.89058
G1 X86.788 Y82.991 E20.23001
G1 X85.112 Y80.713 E20.56939
G1 X83.372 Y78.483 E20.90881
G1 X83.097 Y78.146 E20.96101
G1 X82.794 Y77.760 E21.01989
G1 X82.770 Y77.727 E21.02479
G1 X82.690 Y77.613 E21.04150
G1 X82.678 Y77.594 E21.04420
G1 X82.607 Y77.480 E21.06031
G1 X82.572 Y77.420 E21.06865
G1 X82.525 Y77.333 E21.08052
G1 X82.495 Y77.273 E21.08857
G1 X82.444 Y77.167 E21.10268
G1 X82.406 Y77.080 E21.11407
G1 X82.390 Y77.041 E21.11913
G1 X82.341 Y76.911 E21.13580
G1 X82.323 Y76.858 E21.14252
G1 X82.293 Y76.763 E21.15448
G1 X82.271 Y76.684 E21.16432
G1 X82.252 Y76.607 E21.17383
G1 X82.229 Y76.508 E21.18603
G1 X82.211 Y76.415 E21.19740
G1 X82.195 Y76.316 E21.20943
G1 X82.186 Y76.256 E21.21671
G1 X82.177 Y76.165 E21.22769
G1 X82.151 Y74.833 E21.38756
G1 X82.151 Y66.513 E22.38596
G1 X82.161 Y65.783 E22.47356
G1 X82.167 Y65.654 E22.48906
G1 X82.170 Y65.610 E22.49435
G1 X82.183 Y65.475 E22.51063
G1 X82.191 Y65.408 E22.51873
G1 X82.205 Y65.322 E22.52918
G1 X82.223 Y65.221 E22.54149
G1 X82.235 Y65.167 E22.54813
G1 X82.265 Y65.044 E22.56332
G1 X82.280 Y64.986 E22.57051
G1 X82.314 Y64.874 E22.58456
G1 X82.329 Y64.831 E22.59002
G1 X82.372 Y64.710 E22.60543
G1 X82.405 Y64.627 E22.61615
G1 X82.425 Y64.581 E22.62217
G1 X82.478 Y64.466 E22.63736
G1 X82.514 Y64.393 E22.64713
G1 X82.545 Y64.334 E22.65513
G1 X82.611 Y64.218 E22.67114
G1 X82.648 Y64.156 E22.67981
G1 X82.676 Y64.113 E22.68597
G1 X82.738 Y64.022 E22.69918
G1 X82.798 Y63.939 E22.71147
G1 X82.859 Y63.859 E22.72354
G1 X83.073 Y63.596 E22.76423
G10
G0 F9000 X85.951 Y66.452
;TYPE:WALL-INNER
G11
G1 F900 X95.951 Y66.452 E23.96423
G1 X95.951 Y51.802 E25.72223
G1 X134.049 Y51.802 E30.29399
G1 X134.049 Y66.452 E32.05199
G1 X144.049 Y66.452 E33.25199
G1 X144.049 Y75.252 E34.30799
G1 X134.049 Y75.252 E35.50799
G1 X134.049 Y89.902 E37.26599
G1 X95.951 Y89.902 E41.83775
G1 X95.951 Y75.252 E43.59575
G1 X85.951 Y75.252 E44.79575
G1 X85.951 Y66.452 E45.85175
G0 F9000 X95.692 Y66.193
G0 X102.900 Y58.752
G1 F900 X102.900 Y82.952 E48.75575
G1 X127.100 Y82.952 E51.65975
G1 X127.100 Y58.752 E54.56375
G1 X102.900 Y58.752 E57.46775
G0 F9000 X103.300 Y59.152
;TYPE:WALL-OUTER
G1 F900 X103.300 Y82.552 E60.27575
G1 X126.700 Y82.552 E63.08375
G1 X126.700 Y59.152 E65.89175
G1 X103.300 Y59.152 E68.69975
G0 F9000 X95.541 Y66.152
G0 X95.551 Y66.052
G1 F900 X95.551 Y51.402 E70.45775
G1 X134.449 Y51.402 E75.12551
G1 X134.449 Y66.052 E76.88351
G1 X144.449 Y66.052 E78.08351
G1 X144.449 Y75.652 E79.23551
G1 X134.449 Y75.652 E80.43551
G1 X134.449 Y90.302 E82.19351
G1 X95.551 Y90.302 E86.86127
G1 X95.551 Y75.652 E88.61927
G1 X85.551 Y75.652 E89.81927
G1 X85.551 Y66.052 E90.97127
G1 X95.551 Y66.052 E92.17127
G0 F9000 X96.090 Y66.108
;TYPE:SKIN
G1 F900 X102.759 Y72.778 E93.30312
G0 F9000 X102.759 Y73.343
G1 F900 X96.008 Y66.592 E94.44880
G0 F9000 X95.442 Y66.592
G1 F900 X102.759 Y73.909 E95.69054
G0 F9000 X102.759 Y74.475
G1 F900 X94.876 Y66.592 E97.02833
G0 F9000 X94.311 Y66.592
G1 F900 X102.759 Y75.041 E98.46209
G0 F9000 X102.759 Y75.606
G1 F900 X93.745 Y66.592 E99.99181
G0 F9000 X93.179 Y66.592
G1 F900 X102.759 Y76.172 E101.61759
G0 F9000 X102.759 Y76.738
G1 F900 X92.614 Y66.592 E103.33934
G0 F9000 X92.048 Y66.592
G1 F900 X102.759 Y77.303 E105.15706
G0 F9000 X102.759 Y77.869
G1 F900 X91.482 Y66.592 E107.07083
G0 F9000 X90.916 Y66.592
G1 F900 X102.759 Y78.435 E109.08065
G0 F9000 X102.759 Y79.000
G1 F900 X90.351 Y66.592 E111.18636
G0 F9000 X89.785 Y66.592
G1 F900 X102.759 Y79.566 E113.38812
G0 F9000 X102.759 Y80.132
G1 F900 X89.219 Y66.592 E115.68594
G0 F9000 X88.654 Y66.592
G1 F900 X102.759 Y80.697 E118.07963
G0 F9000 X102.759 Y81.263
G1 F900 X88.088 Y66.592 E120.56939
G0 F9000 X87.522 Y66.592
G1 F900 X96.042 Y75.111 E122.01519
G0 F9000 X96.090 Y75.159
G1 F900 X102.759 Y81.829 E123.14704
G0 F9000 X102.759 Y82.394
G1 F900 X96.090 Y75.725 E124.27881
G0 F9000 X96.090 Y76.291
G1 F900 X102.759 Y82.960 E125.41058
G0 F9000 X102.891 Y83.092
G1 F900 X109.560 Y89.761 E126.54234
G0 F9000 X110.126 Y89.761
G1 F900 X103.456 Y83.092 E127.67420
G0 F9000 X104.022 Y83.092
G1 F900 X110.691 Y89.761 E128.80596
G0 F9000 X111.257 Y89.761
G1 F900 X104.588 Y83.092 E129.93773
G0 F9000 X105.153 Y83.092
G1 F900 X111.823 Y89.761 E131.06958
G0 F9000 X112.388 Y89.761
G1 F900 X105.719 Y83.092 E132.20135
G0 F9000 X106.285 Y83.092
G1 F900 X112.954 Y89.761 E133.33312
G0 F9000 X113.520 Y89.761
G1 F900 X106.850 Y83.092 E134.46497
G0 F9000 X107.416 Y83.092
G1 F900 X114.086 Y89.761 E135.59682
G0 F9000 X114.651 Y89.761
G1 F900 X107.982 Y83.092 E136.72859
G0 F9000 X108.547 Y83.092
G1 F900 X115.217 Y89.761 E137.86044
G0 F9000 X115.783 Y89.761
G1 F900 X109.113 Y83.092 E138.99229
G0 F9000 X109.679 Y83.092
G1 F900 X116.348 Y89.761 E140.12406
G0 F9000 X116.914 Y89.761
G1 F900 X110.245 Y83.092 E141.25582
G0 F9000 X110.810 Y83.092
G1 F900 X117.480 Y89.761 E142.38767
G0 F9000 X118.045 Y89.761
G1 F900 X111.376 Y83.092 E143.51944
G0 F9000 X111.942 Y83.092
G1 F900 X118.611 Y89.761 E144.65121
G0 F9000 X119.177 Y89.761
G1 F900 X112.507 Y83.092 E145.78306
G0 F9000 X113.073 Y83.092
G1 F900 X119.742 Y89.761 E146.91483
G0 F9000 X120.308 Y89.761
G1 F900 X113.639 Y83.092 E148.04659
G0 F9000 X114.204 Y83.092
G1 F900 X120.874 Y89.761 E149.17845
G0 F9000 X121.439 Y89.761
G1 F900 X114.770 Y83.092 E150.31021
G0 F9000 X115.336 Y83.092
G1 F900 X122.005 Y89.761 E151.44198
G0 F9000 X122.571 Y89.761
G1 F900 X115.901 Y83.092 E152.57383
G0 F9000 X116.467 Y83.092
G1 F900 X123.136 Y89.761 E153.70560
G0 F9000 X123.702 Y89.761
G1 F900 X117.033 Y83.092 E154.83736
G0 F9000 X117.598 Y83.092
G1 F900 X124.268 Y89.761 E155.96922
G0 F9000 X124.834 Y89.761
G1 F900 X118.164 Y83.092 E157.10107
G0 F9000 X118.730 Y83.092
G1 F900 X125.399 Y89.761 E158.23283
G0 F9000 X125.965 Y89.761
G1 F900 X119.295 Y83.092 E159.36469
G0 F9000 X119.861 Y83.092
G1 F900 X126.531 Y89.761 E160.49654
G0 F9000 X127.096 Y89.761
G1 F900 X120.427 Y83.092 E161.62830
G0 F9000 X120.993 Y83.092
G1 F900 X127.662 Y89.761 E162.76007
G0 F9000 X128.228 Y89.761
G1 F900 X121.558 Y83.092 E163.89192
G0 F9000 X122.124 Y83.092
G1 F900 X128.793 Y89.761 E165.02369
G0 F9000 X129.359 Y89.761
G1 F900 X122.690 Y83.092 E166.15546
G0 F9000 X123.255 Y83.092
G1 F900 X129.925 Y89.761 E167.28731
G0 F9000 X130.490 Y89.761
G1 F900 X123.821 Y83.092 E168.41908
G0 F9000 X124.387 Y83.092
G1 F900 X131.056 Y89.761 E169.55084
G0 F9000 X131.622 Y89.761
G1 F900 X124.952 Y83.092 E170.68269
G0 F9000 X125.518 Y83.092
G1 F900 X132.187 Y89.761 E171.81446
G0 F9000 X132.753 Y89.761
G1 F900 X126.084 Y83.092 E172.94623
G0 F9000 X126.649 Y83.092
G1 F900 X133.319 Y89.761 E174.07808
G0 F9000 X133.885 Y89.761
G1 F900 X127.215 Y83.092 E175.20993
G0 F9000 X127.239 Y82.550
G1 F900 X133.908 Y89.219 E176.34170
G0 F9000 X133.908 Y88.653
G1 F900 X127.239 Y81.984 E177.47346
G0 F9000 X127.239 Y81.419
G1 F900 X133.908 Y88.087 E178.60515
G0 F9000 X133.908 Y87.522
G1 F900 X127.239 Y80.853 E179.73691
G0 F9000 X127.239 Y80.287
G1 F900 X133.908 Y86.956 E180.86868
G0 F9000 X133.908 Y86.390
G1 F900 X127.239 Y79.722 E182.00036
G0 F9000 X127.239 Y79.156
G1 F900 X133.908 Y85.825 E183.13213
G0 F9000 X133.908 Y85.259
G1 F900 X127.239 Y78.590 E184.26390
G0 F9000 X127.239 Y78.024
G1 F900 X133.908 Y84.693 E185.39566
G0 F9000 X133.908 Y84.128
G1 F900 X127.239 Y77.459 E186.52743
G0 F9000 X127.239 Y76.893
G1 F900 X133.908 Y83.562 E187.65920
G0 F9000 X133.908 Y82.996
G1 F900 X127.239 Y76.327 E188.79096
G0 F9000 X127.239 Y75.762
G1 F900 X133.908 Y82.430 E189.92265
G0 F9000 X133.908 Y81.865
G1 F900 X127.239 Y75.196 E191.05441
G0 F9000 X127.239 Y74.630
G1 F900 X133.908 Y81.299 E192.18618
G0 F9000 X133.908 Y80.733
G1 F900 X127.239 Y74.065 E193.31786
G0 F9000 X127.239 Y73.499
G1 F900 X133.908 Y80.168 E194.44963
G0 F9000 X133.908 Y79.602
G1 F900 X127.239 Y72.933 E195.58139
G0 F9000 X127.239 Y72.368
G1 F900 X133.908 Y79.036 E196.71308
G0 F9000 X133.908 Y78.471
G1 F900 X127.239 Y71.802 E197.84484
G0 F9000 X127.239 Y71.236
G1 F900 X133.908 Y77.905 E198.97661
G0 F9000 X133.908 Y77.339
G1 F900 X127.239 Y70.671 E200.10829
G0 F9000 X127.239 Y70.105
G1 F900 X133.908 Y76.774 E201.24006
G0 F9000 X133.908 Y76.208
G1 F900 X127.239 Y69.539 E202.37183
G0 F9000 X127.239 Y68.974
G1 F900 X133.908 Y75.642 E203.50351
G0 F9000 X133.943 Y75.112
G1 F900 X127.239 Y68.408 E204.64121
G0 F9000 X127.239 Y67.842
G1 F900 X134.509 Y75.112 E205.87497
G0 F9000 X135.075 Y75.112
G1 F900 X127.239 Y67.276 E207.20479
G0 F9000 X127.239 Y66.711
G1 F900 X135.640 Y75.112 E208.63048
G0 F9000 X136.206 Y75.112
G1 F900 X127.239 Y66.145 E210.15223
G0 F9000 X127.239 Y65.579
G1 F900 X136.772 Y75.112 E211.77004
G0 F9000 X137.337 Y75.112
G1 F900 X127.239 Y65.014 E213.48373
G0 F9000 X127.239 Y64.448
G1 F900 X137.903 Y75.112 E215.29347
G0 F9000 X138.469 Y75.112
G1 F900 X127.239 Y63.882 E217.19926
G0 F9000 X127.239 Y63.317
G1 F900 X139.034 Y75.112 E219.20094
G0 F9000 X139.600 Y75.112
G1 F900 X127.239 Y62.751 E221.29867
G0 F9000 X127.239 Y62.185
G1 F900 X140.166 Y75.112 E223.49245
G0 F9000 X140.731 Y75.112
G1 F900 X127.239 Y61.620 E225.78212
G0 F9000 X127.239 Y61.054
G1 F900 X141.297 Y75.112 E228.16784
G0 F9000 X141.863 Y75.112
G1 F900 X127.239 Y60.488 E230.64962
G0 F9000 X127.239 Y59.923
G1 F900 X133.908 Y66.591 E231.78130
G1 X142.428 Y75.112 E233.22728
G0 F9000 X142.994 Y75.112
G1 F900 X134.474 Y66.591 E234.67326
G0 F9000 X135.039 Y66.591
G1 F900 X143.560 Y75.112 E236.11932
