;FLAVOR:UltiGCode
;TIME:3277
;MATERIAL:4450
;MATERIAL2:0
;NOZZLE_DIAMETER:0.4
;Generated with Cura_SteamEngine master

;LAYER_COUNT:58
;LAYER:0
M107
G10
G0 F3600 X87.99 Y48.49 Z.3
G0 X88.426 Y47.797
;TYPE:SKIRT
G11
G1 F1800 X89.785 Y46.1 E0.26089
G1 X93.049 Y41.685 E0.91976
G1 X96.05 Y37.103 E1.57703
G1 X98.133 Y33.573 E2.06888
G1 X98.439 Y33.133 E2.13319
G1 X98.807 Y32.743 E2.19754
G1 X99.229 Y32.412 E2.2619
G1 X99.696 Y32.148 E2.32627
G1 X100.196 Y31.955 E2.39059
G1 X100.72 Y31.84 E2.45496
G1 X101.233 Y31.803 E2.51668
G1 X140.519 Y31.803 E7.231
G1 X141.054 Y31.843 E7.29538
G1 X141.577 Y31.962 E7.35975
G1 X142.076 Y32.157 E7.42404
G1 X142.541 Y32.425 E7.48844
G1 X142.961 Y32.758 E7.55276
G1 X143.327 Y33.15 E7.61712
G1 X143.635 Y33.6 E7.68255
G1 X145.009 Y35.976 E8.01192
G1 X147.934 Y40.572 E8.66566
G1 X151.146 Y45.04 E9.32598
G1 X153.34 Y47.817 E9.75068
G1 X153.64 Y48.261 E9.81498
G1 X153.871 Y48.745 E9.87933
G1 X154.027 Y49.258 E9.94368
G1 X154.115 Y50.048 E10.03906
G1 X154.115 Y60.039 E11.23798
G1 X154.075 Y60.574 E11.30236
G1 X153.956 Y61.097 E11.36673
G1 X153.761 Y61.596 E11.43102
G1 X153.493 Y62.061 E11.49542
G1 X153.325 Y62.289 E11.52941
G1 X151.966 Y63.986 E11.7903
G1 X148.702 Y68.401 E12.44916
G1 X145.701 Y72.983 E13.10644
G1 X143.618 Y76.513 E13.59829
G1 X143.312 Y76.953 E13.6626
G1 X142.944 Y77.343 E13.72695
G1 X142.522 Y77.674 E13.7913
G1 X142.055 Y77.938 E13.85568
G1 X141.555 Y78.131 E13.91999
G1 X141.031 Y78.246 E13.98437
G1 X140.518 Y78.283 E14.04609
G1 X101.235 Y78.283 E18.76005
G1 X100.7 Y78.243 E18.82443
G1 X100.177 Y78.124 E18.88879
G1 X99.678 Y77.929 E18.95308
G1 X99.213 Y77.661 E19.01749
G1 X98.793 Y77.328 E19.08181
G1 X98.427 Y76.936 E19.14616
G1 X98.145 Y76.531 E19.20538
G1 X95.298 Y71.771 E19.87096
G1 X92.255 Y67.274 E20.52253
G1 X88.379 Y62.224 E21.28645
G1 X88.085 Y61.775 E21.35086
G1 X87.861 Y61.288 E21.41518
G1 X87.712 Y60.773 E21.47952
G1 X87.635 Y60.032 E21.56892
G1 X87.636 Y50.047 E22.76712
G1 X87.676 Y49.512 E22.83149
G1 X87.795 Y48.989 E22.89586
G1 X87.99 Y48.49 E22.96015
G1 X88.258 Y48.025 E23.02455
G1 X88.426 Y47.797 E23.05854
G0 F3600 X88.738 Y48.047
G1 F1800 X90.112 Y46.332 E23.32224
G1 X93.376 Y41.916 E23.9812
G1 X96.38 Y37.329 E24.63918
G1 X98.477 Y33.776 E25.13426
G1 X98.768 Y33.363 E25.19488
G1 X99.12 Y33 E25.25556
G1 X99.525 Y32.697 E25.31626
G1 X99.972 Y32.462 E25.37686
G1 X100.451 Y32.3 E25.43754
G1 X100.95 Y32.216 E25.49826
G1 X101.233 Y32.203 E25.53225
G1 X140.519 Y32.203 E30.24657
G1 X141.023 Y32.243 E30.30724
G1 X141.514 Y32.362 E30.36787
G1 X141.981 Y32.556 E30.42855
G1 X142.411 Y32.822 E30.48923
G1 X142.794 Y33.152 E30.54989
G1 X143.12 Y33.539 E30.61062
G1 X143.289 Y33.801 E30.64803
G1 X144.656 Y36.164 E30.97562
G1 X147.615 Y40.815 E31.63712
G1 X150.814 Y45.264 E32.29468
G1 X153.026 Y48.064 E32.72288
G1 X153.307 Y48.485 E32.78362
G1 X153.519 Y48.944 E32.84429
G1 X153.655 Y49.431 E32.90497
G1 X153.715 Y50.048 E32.97936
G1 X153.715 Y60.039 E34.17828
G1 X153.675 Y60.543 E34.23895
G1 X153.556 Y61.034 E34.29957
G1 X153.362 Y61.501 E34.36026
G1 X153.013 Y62.039 E34.43721
G1 X151.639 Y63.754 E34.70091
G1 X148.375 Y68.17 E35.35987
G1 X145.371 Y72.757 E36.01785
G1 X143.274 Y76.31 E36.51293
G1 X142.983 Y76.723 E36.57356
G1 X142.631 Y77.086 E36.63423
G1 X142.226 Y77.389 E36.69493
G1 X141.779 Y77.624 E36.75553
G1 X141.3 Y77.786 E36.81621
G1 X140.801 Y77.87 E36.87693
G1 X140.518 Y77.883 E36.91093
G1 X101.235 Y77.883 E41.62489
G1 X100.731 Y77.843 E41.68556
G1 X100.24 Y77.724 E41.74618
G1 X99.773 Y77.53 E41.80687
G1 X99.343 Y77.264 E41.86754
G1 X98.96 Y76.934 E41.92821
G1 X98.634 Y76.547 E41.98893
G1 X98.489 Y76.326 E42.02065
G1 X95.643 Y71.568 E42.68595
G1 X92.576 Y67.035 E43.34272
G1 X88.696 Y61.98 E44.10741
G1 X88.421 Y61.556 E44.16805
G1 X88.216 Y61.094 E44.22871
G1 X88.087 Y60.605 E44.28939
G1 X88.035 Y60.032 E44.35844
G1 X88.036 Y50.047 E45.55664
G1 X88.076 Y49.543 E45.61731
G1 X88.195 Y49.051 E45.67805
G1 X88.39 Y48.585 E45.73867
G1 X88.738 Y48.047 E45.81556
G10
G0 F3600 X90.561 Y50.671
G0 X91.854 Y50.671
G0 X91.896 Y50.713
G0 X91.826 Y50.643
;TYPE:WALL-INNER
G11
G1 F1800 X101.826 Y50.643 E47.01556
G1 X101.826 Y35.993 E48.77356
G1 X139.925 Y35.993 E53.34544
G1 X139.925 Y50.643 E55.10344
G1 X149.925 Y50.643 E56.30344
G1 X149.925 Y59.443 E57.35944
G1 X139.925 Y59.443 E58.55944
G1 X139.925 Y74.093 E60.31744
G1 X101.826 Y74.093 E64.88932
G1 X101.826 Y59.443 E66.64732
G1 X91.826 Y59.443 E67.84732
G1 X91.826 Y50.643 E68.90332
G0 F3600 X91.896 Y50.713
G0 X101.854 Y50.671
G0 X108.706 Y42.873
G0 X108.776 Y42.943
G1 F1800 X108.776 Y67.143 E71.80732
G1 X132.975 Y67.143 E74.7112
G1 X132.975 Y42.943 E77.6152
G1 X108.776 Y42.943 E80.51908
G0 F3600 X109.176 Y43.343
;TYPE:WALL-OUTER
G1 F1800 X109.176 Y66.743 E83.32708
G1 X132.575 Y66.743 E86.13496
G1 X132.575 Y43.343 E88.94296
G1 X109.176 Y43.343 E91.75084
G0 F3600 X108.676 Y43.343
G0 X101.854 Y50.671
G0 X101.426 Y50.743
G0 X101.426 Y50.243
G1 F1800 X101.426 Y35.593 E93.50884
G1 X140.325 Y35.593 E98.17672
G1 X140.325 Y50.243 E99.93472
G1 X150.325 Y50.243 E101.13472
G1 X150.325 Y59.843 E102.28672
G1 X140.325 Y59.843 E103.48672
G1 X140.325 Y74.493 E105.24472
G1 X101.426 Y74.493 E109.9126
G1 X101.426 Y59.843 E111.6706
G1 X91.426 Y59.843 E112.8706
G1 X91.426 Y50.243 E114.0226
G1 X101.426 Y50.243 E115.2226
G0 F3600 X101.169 Y50.823
;TYPE:SKIN
G1 F1800 X108.595 Y58.249 E116.48283
G0 X108.665 Y58.319
G0 F3600 X108.595 Y57.683
G1 F1800 X101.734 Y50.823 E117.6471
G0 X101.664 Y50.753
G0 F3600 X102.005 Y50.527
G1 F1800 X108.595 Y57.117 E118.76546
G0 X108.665 Y57.187
G0 F3600 X108.595 Y56.552
G1 F1800 X102.005 Y49.962 E119.88382
G0 X101.935 Y49.892
G0 F3600 X102.005 Y49.396
G1 F1800 X108.595 Y55.986 E121.00218
G0 X108.665 Y56.056
G0 F3600 X108.595 Y55.42
G1 F1800 X102.005 Y48.83 E122.12054
G0 X101.935 Y48.76
G0 F3600 X102.005 Y48.264
G1 F1800 X108.595 Y54.855 E123.23898
G0 X108.665 Y54.925
G0 F3600 X108.595 Y54.289
G1 F1800 X102.005 Y47.699 E124.35734
G0 X101.935 Y47.629
G0 F3600 X102.005 Y47.133
G1 F1800 X108.595 Y53.723 E125.4757
G0 X108.665 Y53.793
G0 F3600 X108.595 Y53.158
G1 F1800 X102.005 Y46.567 E126.59415
G0 X101.935 Y46.497
G0 F3600 X102.005 Y46.002
G1 F1800 X108.595 Y52.592 E127.71251
G0 X108.665 Y52.662
G0 F3600 X108.595 Y52.026
G1 F1800 X102.005 Y45.436 E128.83087
G0 X101.935 Y45.366
G0 F3600 X102.005 Y44.87
G1 F1800 X108.595 Y51.461 E129.94931
G0 X108.665 Y51.531
G0 F3600 X108.595 Y50.895
G1 F1800 X102.005 Y44.305 E131.06767
G0 X101.935 Y44.235
G0 F3600 X102.005 Y43.739
G1 F1800 X108.595 Y50.329 E132.18603
G0 X108.665 Y50.399
G0 F3600 X108.595 Y49.764
G1 F1800 X102.005 Y43.173 E133.30448
G0 X101.935 Y43.103
G0 F3600 X102.005 Y42.608
G1 F1800 X108.595 Y49.198 E134.42284
G0 X108.665 Y49.268
G0 F3600 X108.595 Y48.632
G1 F1800 X102.005 Y42.042 E135.5412
G0 X101.935 Y41.972
G0 F3600 X102.005 Y41.476
G1 F1800 X108.595 Y48.066 E136.65956
G0 X108.665 Y48.136
G0 F3600 X108.595 Y47.501
G1 F1800 X102.005 Y40.911 E137.77792
G0 X101.935 Y40.841
G0 F3600 X102.005 Y40.345
G1 F1800 X108.595 Y46.935 E138.89628
G0 X108.665 Y47.005
G0 F3600 X108.595 Y46.369
G1 F1800 X102.005 Y39.779 E140.01464
G0 X101.935 Y39.709
G0 F3600 X102.005 Y39.214
G1 F1800 X108.595 Y45.804 E141.133
G0 X108.665 Y45.874
G0 F3600 X108.595 Y45.238
G1 F1800 X102.005 Y38.648 E142.25136
G0 X101.935 Y38.578
G0 F3600 X102.005 Y38.082
G1 F1800 X108.595 Y44.672 E143.36972
G0 X108.665 Y44.742
G0 F3600 X108.595 Y44.107
G1 F1800 X102.005 Y37.516 E144.48816
G0 X101.935 Y37.446
G0 F3600 X102.005 Y36.951
G1 F1800 X108.595 Y43.541 E145.60652
G0 X108.665 Y43.611
G0 F3600 X108.595 Y42.975
G1 F1800 X102.005 Y36.385 E146.72488
G0 X101.935 Y36.315
G0 F3600 X102.358 Y36.173
G1 F1800 X108.948 Y42.762 E147.84316
G0 X109.018 Y42.832
G0 F3600 X109.513 Y42.762
G1 F1800 X102.924 Y36.173 E148.96135
G0 X102.854 Y36.103
G0 F3600 X103.49 Y36.173
G1 F1800 X110.079 Y42.762 E150.07954
G0 X110.149 Y42.832
G0 F3600 X110.645 Y42.762
G1 F1800 X104.055 Y36.173 E151.19781
G0 X103.985 Y36.103
G0 F3600 X104.621 Y36.173
G1 F1800 X111.21 Y42.762 E152.316
G0 X111.28 Y42.832
G0 F3600 X111.776 Y42.762
G1 F1800 X105.187 Y36.173 E153.43419
G0 X105.117 Y36.103
G0 F3600 X105.752 Y36.173
G1 F1800 X112.342 Y42.762 E154.55247
G0 X112.412 Y42.832
G0 F3600 X112.907 Y42.762
G1 F1800 X106.318 Y36.173 E155.67066
G0 X106.248 Y36.103
G0 F3600 X106.884 Y36.173
G1 F1800 X113.473 Y42.762 E156.78885
G0 X113.543 Y42.832
G0 F3600 X114.039 Y42.762
G1 F1800 X107.449 Y36.173 E157.90713
G0 X107.379 Y36.103
G0 F3600 X108.015 Y36.173
G1 F1800 X114.605 Y42.762 E159.0254
G0 X114.675 Y42.832
G0 F3600 X115.17 Y42.762
G1 F1800 X108.581 Y36.173 E160.14359
G0 X108.511 Y36.103
G0 F3600 X109.146 Y36.173
G1 F1800 X115.736 Y42.762 E161.26187
G0 X115.806 Y42.832
G0 F3600 X116.302 Y42.762
G1 F1800 X109.712 Y36.173 E162.38014
G0 X109.642 Y36.103
G0 F3600 X110.278 Y36.173
G1 F1800 X116.867 Y42.762 E163.49833
G0 X116.937 Y42.832
G0 F3600 X117.433 Y42.762
G1 F1800 X110.843 Y36.173 E164.61661
G0 X110.773 Y36.103
G0 F3600 X111.409 Y36.173
G1 F1800 X117.999 Y42.762 E165.73488
G0 X118.069 Y42.832
G0 F3600 X118.564 Y42.762
G1 F1800 X111.975 Y36.173 E166.85307
G0 X111.905 Y36.103
G0 F3600 X112.54 Y36.173
G1 F1800 X119.13 Y42.762 E167.97135
G0 X119.2 Y42.832
G0 F3600 X119.696 Y42.762
G1 F1800 X113.106 Y36.173 E169.08962
G0 X113.036 Y36.103
G0 F3600 X113.672 Y36.173
G1 F1800 X120.261 Y42.762 E170.20781
G0 X120.331 Y42.832
G0 F3600 X120.827 Y42.762
G1 F1800 X114.238 Y36.173 E171.326
G0 X114.168 Y36.103
G0 F3600 X114.803 Y36.173
G1 F1800 X121.393 Y42.762 E172.44428
G0 X121.463 Y42.832
G0 F3600 X121.958 Y42.762
G1 F1800 X115.369 Y36.173 E173.56247
G0 X115.299 Y36.103
G0 F3600 X115.935 Y36.173
G1 F1800 X122.524 Y42.762 E174.68066
G0 X122.594 Y42.832
G0 F3600 X123.09 Y42.762
G1 F1800 X116.5 Y36.173 E175.79894
G0 X116.43 Y36.103
G0 F3600 X117.066 Y36.173
G1 F1800 X123.656 Y42.762 E176.91721
G0 X123.726 Y42.832
G0 F3600 X124.221 Y42.762
G1 F1800 X117.632 Y36.173 E178.0354
G0 X117.562 Y36.103
G0 F3600 X118.197 Y36.173
G1 F1800 X124.787 Y42.762 E179.15368
G0 X124.857 Y42.832
G0 F3600 X125.353 Y42.762
G1 F1800 X118.763 Y36.173 E180.27195
G0 X118.693 Y36.103
G0 F3600 X119.329 Y36.173
G1 F1800 X125.918 Y42.762 E181.39014
G0 X125.988 Y42.832
G0 F3600 X126.484 Y42.762
G1 F1800 X119.894 Y36.173 E182.50842
G0 X119.824 Y36.103
G0 F3600 X120.46 Y36.173
G1 F1800 X127.05 Y42.762 E183.62669
G0 X127.12 Y42.832
G0 F3600 X127.615 Y42.762
G1 F1800 X121.026 Y36.173 E184.74488
G0 X120.956 Y36.103
G0 F3600 X121.591 Y36.173
G1 F1800 X128.181 Y42.762 E185.86316
G0 X128.251 Y42.832
G0 F3600 X128.747 Y42.762
G1 F1800 X122.157 Y36.173 E186.98143
G0 X122.087 Y36.103
G0 F3600 X122.723 Y36.173
G1 F1800 X129.312 Y42.762 E188.09962
G0 X129.382 Y42.832
G0 F3600 X129.878 Y42.762
G1 F1800 X123.289 Y36.173 E189.21781
G0 X123.219 Y36.103
G0 F3600 X123.854 Y36.173
G1 F1800 X130.444 Y42.762 E190.33609
G0 X130.514 Y42.832
G0 F3600 X131.009 Y42.762
G1 F1800 X124.42 Y36.173 E191.45428
G0 X124.35 Y36.103
G0 F3600 X124.986 Y36.173
G1 F1800 X131.575 Y42.762 E192.57247
G0 X131.645 Y42.832
G0 F3600 X132.141 Y42.762
G1 F1800 X125.551 Y36.173 E193.69075
G0 X125.481 Y36.103
G0 F3600 X126.117 Y36.173
G1 F1800 X132.706 Y42.762 E194.80894
G0 X132.776 Y42.832
G0 F3600 X133.153 Y43.209
G1 F1800 X139.744 Y49.8 E195.92747
G0 X139.814 Y49.87
G0 F3600 X139.744 Y50.365
G1 F1800 X133.153 Y43.775 E197.04591
G0 X133.083 Y43.705
G0 F3600 X133.153 Y44.341
G1 F1800 X148.075 Y59.262 E199.57817
G0 X148.145 Y59.332
G0 F3600 X148.64 Y59.262
G1 F1800 X140.2 Y50.822 E201.01049
G0 X140.13 Y50.752
G0 F3600 X140.766 Y50.822
G1 F1800 X149.206 Y59.262 E202.4428
G0 X149.276 Y59.332
G0 F3600 X149.744 Y59.234
G1 F1800 X141.332 Y50.822 E203.87037
G0 X141.262 Y50.752
G0 F3600 X141.897 Y50.822
G1 F1800 X149.744 Y58.668 E205.20196
G0 X149.814 Y58.738
G0 F3600 X149.744 Y58.102
G1 F1800 X142.463 Y50.822 E206.4375
G0 X142.393 Y50.752
G0 F3600 X143.029 Y50.822
G1 F1800 X149.744 Y57.537 E207.57708
G0 X149.814 Y57.607
G0 F3600 X149.744 Y56.971
G1 F1800 X143.595 Y50.822 E208.6206
G0 X143.525 Y50.752
G0 F3600 X144.16 Y50.822
G1 F1800 X149.744 Y56.405 E209.56815
G0 X149.814 Y56.475
G0 F3600 X149.744 Y55.84
G1 F1800 X144.726 Y50.822 E210.41973
G0 X144.656 Y50.752
G0 F3600 X145.292 Y50.822
G1 F1800 X149.744 Y55.274 E211.17526
G0 X149.814 Y55.344
G0 F3600 X149.744 Y54.708
G1 F1800 X145.857 Y50.822 E211.83482
G0 X145.787 Y50.752
G0 F3600 X146.423 Y50.822
G1 F1800 X149.744 Y54.143 E212.39842
G0 X149.814 Y54.213
G0 F3600 X149.744 Y53.577
G1 F1800 X146.989 Y50.822 E212.86595
G0 X146.919 Y50.752
G0 F3600 X147.554 Y50.822
G1 F1800 X149.744 Y53.011 E213.23752
G0 X149.814 Y53.081
G0 F3600 X149.744 Y52.446
G1 F1800 X148.12 Y50.822 E213.51313
G0 X148.05 Y50.752
G0 F3600 X148.686 Y50.822
G1 F1800 X149.744 Y51.88 E213.69268
G0 X149.814 Y51.95
G0 F3600 X149.744 Y51.314
G1 F1800 X149.251 Y50.822 E213.77626
G0 F3600 X147.509 Y59.262
G1 F1800 X133.153 Y44.906 E216.21255
G0 X133.083 Y44.836
G0 F3600 X133.153 Y45.472
G1 F1800 X146.943 Y59.262 E218.55279
G0 X147.013 Y59.332
G0 F3600 X146.378 Y59.262
G1 F1800 X133.153 Y46.038 E220.79706
G0 X133.083 Y45.968
G0 F3600 X133.153 Y46.603
G1 F1800 X145.812 Y59.262 E222.94537
G0 X145.882 Y59.332
G0 F3600 X145.246 Y59.262
G1 F1800 X133.153 Y47.169 E224.99762
G0 X133.083 Y47.099
G0 F3600 X133.153 Y47.735
G1 F1800 X144.681 Y59.262 E226.9539
G0 X144.751 Y59.332
G0 F3600 X144.115 Y59.262
G1 F1800 X133.153 Y48.301 E228.81413
G0 X133.083 Y48.231
G0 F3600 X133.153 Y48.866
G1 F1800 X143.549 Y59.262 E230.57839
G0 X143.619 Y59.332
G0 F3600 X142.984 Y59.262
G1 F1800 X133.153 Y49.432 E232.24668
G0 X133.083 Y49.362
G0 F3600 X133.153 Y49.998
G1 F1800 X142.418 Y59.262 E233.81891
G0 X142.488 Y59.332
G0 F3600 X141.852 Y59.262
G1 F1800 X133.153 Y50.563 E235.29518
G0 X133.083 Y50.493
G0 F3600 X133.153 Y51.129
G1 F1800 X141.287 Y59.262 E236.67548
G0 X141.357 Y59.332
G0 F3600 X140.721 Y59.262
G1 F1800 X133.153 Y51.695 E237.95973
G0 X133.083 Y51.625
G0 F3600 X133.153 Y52.26
G1 F1800 X140.155 Y59.262 E239.14801
G0 X140.225 Y59.332
G0 F3600 X139.744 Y59.417
G1 F1800 X133.153 Y52.826 E240.26654
G0 X133.083 Y52.756
G0 F3600 X133.153 Y53.392
G1 F1800 X139.744 Y59.983 E241.38507
G0 X139.814 Y60.053
G0 F3600 X139.744 Y60.548
G1 F1800 X133.153 Y53.957 E242.5036
G0 X133.083 Y53.887
G0 F3600 X133.153 Y54.523
G1 F1800 X139.744 Y61.114 E243.62213
G0 X139.814 Y61.184
G0 F3600 X139.744 Y61.68
G1 F1800 X133.153 Y55.089 E244.74066
G0 X133.083 Y55.019
G0 F3600 X133.153 Y55.654
G1 F1800 X139.744 Y62.245 E245.85919
G0 X139.814 Y62.315
G0 F3600 X139.744 Y62.811
G1 F1800 X133.153 Y56.22 E246.97772
G0 X133.083 Y56.15
G0 F3600 X133.153 Y56.786
G1 F1800 X139.744 Y63.377 E248.09625
G0 X139.814 Y63.447
G0 F3600 X139.744 Y63.942
G1 F1800 X133.153 Y57.352 E249.21469
G0 X133.083 Y57.282
G0 F3600 X133.153 Y57.917
G1 F1800 X139.744 Y64.508 E250.33322
G0 X139.814 Y64.578
G0 F3600 X139.744 Y65.074
G1 F1800 X133.153 Y58.483 E251.45175
G0 X133.083 Y58.413
G0 F3600 X133.153 Y59.049
G1 F1800 X139.744 Y65.64 E252.57028
G0 X139.814 Y65.71
G0 F3600 X139.744 Y66.205
G1 F1800 X133.153 Y59.614 E253.68881
G0 X133.083 Y59.544
G0 F3600 X133.153 Y60.18
G1 F1800 X139.744 Y66.771 E254.80734
G0 X139.814 Y66.841
G0 F3600 X139.744 Y67.337
G1 F1800 X133.153 Y60.746 E255.92587
G0 X133.083 Y60.676
G0 F3600 X133.153 Y61.311
G1 F1800 X139.744 Y67.902 E257.0444
G0 X139.814 Y67.972
G0 F3600 X139.744 Y68.468
G1 F1800 X133.153 Y61.877 E258.16293
G0 X133.083 Y61.807
G0 F3600 X133.153 Y62.443
G1 F1800 X139.744 Y69.034 E259.28146
G0 X139.814 Y69.104
G0 F3600 X139.744 Y69.599
G1 F1800 X133.153 Y63.008 E260.39999
G0 X133.083 Y62.938
G0 F3600 X133.153 Y63.574
G1 F1800 X139.744 Y70.165 E261.51852
G0 X139.814 Y70.235
G0 F3600 X139.744 Y70.731
G1 F1800 X133.153 Y64.14 E262.63705
G0 X133.083 Y64.07
G0 F3600 X133.153 Y64.705
G1 F1800 X139.744 Y71.296 E263.75558
G0 X139.814 Y71.366
G0 F3600 X139.744 Y71.862
G1 F1800 X133.153 Y65.271 E264.87411
G0 X133.083 Y65.201
G0 F3600 X133.153 Y65.837
G1 F1800 X139.744 Y72.428 E265.99264
G0 X139.814 Y72.498
G0 F3600 X139.744 Y72.993
G1 F1800 X133.153 Y66.402 E267.11117
G0 X133.083 Y66.332
