;FLAVOR:UltiGCode
;TIME:4450
;MATERIAL:6650
;MATERIAL2:0
;Generated with Cura_SteamEngine DEV
;LAYER:0
G0 X135.315 Y100.210 Z0.300
G0 X137.365 Y99.178
;TYPE:SKIRT
G11
G1 F900 X137.261 Y99.286 E0.01799
G1 X137.191 Y99.356 E0.02987
G1 X137.167 Y99.378 E0.03378
G1 X137.083 Y99.452 E0.04721
G1 X137.005 Y99.517 E0.05940
G1 X136.916 Y99.587 E0.07298
G1 X136.875 Y99.617 E0.07908
G1 X136.769 Y99.691 E0.09459
G1 X136.742 Y99.709 E0.09849
G1 X136.636 Y99.775 E0.11347
G1 X136.572 Y99.812 E0.12234
G1 X136.494 Y99.855 E0.13303
G1 X136.421 Y99.892 E0.14285
G1 X136.315 Y99.943 E0.15697
G1 X136.228 Y99.981 E0.16836
G1 X136.189 Y99.997 E0.17342
G1 X136.059 Y100.046 E0.19009
G1 X136.006 Y100.064 E0.19681
G1 X135.916 Y100.092 E0.20812
G1 X135.832 Y100.116 E0.21860
G1 X135.755 Y100.135 E0.22812
G1 X135.656 Y100.158 E0.24031
G1 X135.563 Y100.176 E0.25168
G1 X135.464 Y100.192 E0.26371
G1 X135.404 Y100.201 E0.27100
G1 X135.315 Y100.210 E0.28173
G1 X134.002 Y100.236 E0.43932
G1 X95.674 Y100.236 E5.03868
G1 X94.931 Y100.226 E5.12785
G1 X94.802 Y100.220 E5.14335
G1 X94.758 Y100.217 E5.14864
G1 X94.623 Y100.204 E5.16491
G1 X94.556 Y100.196 E5.17301
G1 X94.477 Y100.183 E5.18262
G1 X94.366 Y100.163 E5.19615
G1 X94.315 Y100.152 E5.20241
G1 X94.192 Y100.122 E5.21761
G1 X94.134 Y100.107 E5.22479
G1 X94.036 Y100.077 E5.23709
G1 X93.979 Y100.058 E5.24430
G1 X93.858 Y100.015 E5.25971
G1 X93.773 Y99.981 E5.27070
G1 X93.729 Y99.962 E5.27645
G1 X93.614 Y99.909 E5.29164
G1 X93.541 Y99.873 E5.30141
G1 X93.482 Y99.842 E5.30941
G1 X93.364 Y99.775 E5.32569
G1 X93.301 Y99.737 E5.33452
G1 X93.261 Y99.711 E5.34025
G1 X93.170 Y99.649 E5.35346
G1 X93.087 Y99.589 E5.36575
G1 X93.015 Y99.534 E5.37662
G1 X92.963 Y99.491 E5.38472
G1 X92.868 Y99.410 E5.39970
G1 X92.839 Y99.383 E5.40446
G1 X92.750 Y99.297 E5.41931
G1 X92.680 Y99.227 E5.43119
G1 X92.652 Y99.196 E5.43620
G1 X92.575 Y99.108 E5.45023
G1 X92.519 Y99.041 E5.46071
G1 X92.430 Y98.927 E5.47806
G1 X92.419 Y98.911 E5.48039
G1 X92.345 Y98.805 E5.49591
G1 X92.327 Y98.778 E5.49980
G1 X92.254 Y98.661 E5.51635
G1 X92.151 Y98.482 E5.54113
G1 X90.931 Y96.315 E5.83955
G1 X89.475 Y93.890 E6.17897
G1 X87.951 Y91.508 E6.51831
G1 X86.360 Y89.169 E6.85777
G1 X84.703 Y86.876 E7.19726
G1 X83.104 Y84.785 E7.51313
G1 X82.445 Y83.946 E7.64116
G1 X82.419 Y83.911 E7.64639
G1 X82.339 Y83.797 E7.66310
G1 X82.327 Y83.778 E7.66580
G1 X82.256 Y83.664 E7.68191
G1 X82.221 Y83.604 E7.69025
G1 X82.174 Y83.517 E7.70212
G1 X82.144 Y83.457 E7.71017
G1 X82.093 Y83.351 E7.72428
G1 X82.055 Y83.264 E7.73567
G1 X82.039 Y83.225 E7.74073
G1 X81.990 Y83.095 E7.75740
G1 X81.972 Y83.042 E7.76412
G1 X81.944 Y82.952 E7.77543
G1 X81.918 Y82.860 E7.78690
G1 X81.901 Y82.791 E7.79543
G1 X81.878 Y82.692 E7.80763
G1 X81.860 Y82.599 E7.81899
G1 X81.844 Y82.500 E7.83103
G1 X81.835 Y82.440 E7.83831
G1 X81.826 Y82.349 E7.84928
G1 X81.800 Y81.017 E8.00915
G1 X81.800 Y72.697 E9.00755
G1 X81.810 Y71.967 E9.09516
G1 X81.816 Y71.838 E9.11066
G1 X81.819 Y71.794 E9.11595
G1 X81.832 Y71.659 E9.13222
G1 X81.840 Y71.592 E9.14032
G1 X81.854 Y71.506 E9.15078
G1 X81.872 Y71.405 E9.16309
G1 X81.884 Y71.351 E9.16973
G1 X81.914 Y71.228 E9.18492
G1 X81.929 Y71.170 E9.19211
G1 X81.959 Y71.072 E9.20441
G1 X81.978 Y71.015 E9.21162
G1 X82.021 Y70.894 E9.22703
G1 X82.054 Y70.811 E9.23775
G1 X82.074 Y70.765 E9.24376
G1 X82.130 Y70.644 E9.25976
G1 X82.163 Y70.577 E9.26873
G1 X82.194 Y70.518 E9.27672
G1 X82.260 Y70.402 E9.29274
G1 X82.297 Y70.340 E9.30140
G1 X82.325 Y70.297 E9.30756
G1 X82.387 Y70.206 E9.32077
G1 X82.447 Y70.123 E9.33306
G1 X82.923 Y69.503 E9.42686
G1 X83.776 Y68.424 E9.59192
G1 X85.466 Y66.157 E9.93123
G1 X87.091 Y63.842 E10.27064
G1 X88.650 Y61.482 E10.61005
G1 X90.142 Y59.079 E10.94947
G1 X91.565 Y56.635 E11.28884
G1 X91.639 Y56.498 E11.30753
G1 X92.260 Y55.402 E11.45869
G1 X92.297 Y55.340 E11.46736
G1 X92.328 Y55.292 E11.47421
G1 X92.399 Y55.189 E11.48922
G1 X92.447 Y55.123 E11.49902
G1 X92.502 Y55.051 E11.50989
G1 X92.545 Y54.999 E11.51799
G1 X92.623 Y54.908 E11.53237
G1 X92.652 Y54.875 E11.53764
G1 X92.739 Y54.786 E11.55258
G1 X92.809 Y54.716 E11.56446
G1 X92.833 Y54.694 E11.56836
G1 X92.917 Y54.620 E11.58180
G1 X92.995 Y54.555 E11.59398
G1 X93.092 Y54.479 E11.60877
G1 X93.127 Y54.453 E11.61400
G1 X93.231 Y54.381 E11.62918
G1 X93.262 Y54.360 E11.63367
G1 X93.372 Y54.292 E11.64919
G1 X93.428 Y54.260 E11.65693
G1 X93.509 Y54.215 E11.66805
G1 X93.579 Y54.180 E11.67744
G1 X93.685 Y54.129 E11.69156
G1 X93.772 Y54.091 E11.70295
G1 X93.811 Y54.075 E11.70801
G1 X93.941 Y54.026 E11.72468
G1 X93.994 Y54.008 E11.73140
G1 X94.084 Y53.980 E11.74271
G1 X94.168 Y53.956 E11.75319
G1 X94.245 Y53.937 E11.76271
G1 X94.344 Y53.914 E11.77490
G1 X94.437 Y53.896 E11.78627
G1 X94.536 Y53.880 E11.79830
G1 X94.596 Y53.871 E11.80559
G1 X94.687 Y53.862 E11.81656
G1 X94.684 Y53.862 E11.81692
G1 X95.998 Y53.836 E11.97463
G1 X134.326 Y53.836 E16.57399
G1 X135.069 Y53.846 E16.66316
G1 X135.198 Y53.852 E16.67865
G1 X135.242 Y53.855 E16.68395
G1 X135.377 Y53.868 E16.70022
G1 X135.444 Y53.876 E16.70832
G1 X135.523 Y53.889 E16.71793
G1 X135.631 Y53.908 E16.73108
G1 X135.685 Y53.920 E16.73772
G1 X135.808 Y53.950 E16.75292
G1 X135.866 Y53.965 E16.76010
G1 X135.964 Y53.995 E16.77240
G1 X136.019 Y54.013 E16.77935
G1 X136.142 Y54.057 E16.79502
G1 X136.225 Y54.090 E16.80574
G1 X136.271 Y54.110 E16.81176
G1 X136.386 Y54.163 E16.82696
G1 X136.459 Y54.199 E16.83672
G1 X136.518 Y54.230 E16.84472
G1 X136.634 Y54.296 E16.86074
G1 X136.696 Y54.333 E16.86940
G1 X136.738 Y54.360 E16.87539
G1 X136.830 Y54.423 E16.88877
G1 X136.913 Y54.483 E16.90106
G1 X136.985 Y54.538 E16.91194
G1 X137.037 Y54.581 E16.92003
G1 X137.128 Y54.659 E16.93441
G1 X137.161 Y54.688 E16.93969
G1 X137.250 Y54.774 E16.95454
G1 X137.316 Y54.841 E16.96582
G1 X137.342 Y54.869 E16.97041
G1 X137.416 Y54.953 E16.98384
G1 X137.481 Y55.031 E16.99603
G1 X137.557 Y55.128 E17.01081
G1 X137.570 Y55.145 E17.01338
G1 X137.655 Y55.267 E17.03122
G1 X137.672 Y55.292 E17.03485
G1 X137.744 Y55.408 E17.05124
G1 X137.849 Y55.589 E17.07635
G1 X139.069 Y57.757 E17.37487
G1 X140.525 Y60.182 E17.71429
G1 X142.049 Y62.564 E18.05363
G1 X143.640 Y64.903 E18.39309
G1 X145.297 Y67.196 E18.73257
G1 X146.896 Y69.287 E19.04845
G1 X147.555 Y70.126 E19.17647
G1 X147.575 Y70.152 E19.18041
G1 X147.655 Y70.267 E19.19722
G1 X147.673 Y70.294 E19.20112
G1 X147.744 Y70.408 E19.21723
G1 X147.772 Y70.456 E19.22390
G1 X147.821 Y70.545 E19.23609
G1 X147.856 Y70.615 E19.24548
G1 X147.907 Y70.721 E19.25960
G1 X147.945 Y70.808 E19.27099
G1 X147.961 Y70.847 E19.27605
G1 X148.010 Y70.977 E19.29272
G1 X148.028 Y71.030 E19.29944
G1 X148.056 Y71.120 E19.31075
G1 X148.078 Y71.196 E19.32024
G1 X148.099 Y71.281 E19.33075
G1 X148.119 Y71.368 E19.34146
G1 X148.137 Y71.457 E19.35236
G1 X148.156 Y71.572 E19.36635
G1 X148.165 Y71.632 E19.37363
G1 X148.174 Y71.721 E19.38436
G1 X148.200 Y73.034 E19.54195
G1 X148.200 Y81.342 E20.53891
G1 X148.190 Y82.105 E20.63048
G1 X148.184 Y82.234 E20.64598
G1 X148.182 Y82.268 E20.65006
G1 X148.168 Y82.413 E20.66754
G1 X148.160 Y82.480 E20.67564
G1 X148.147 Y82.559 E20.68525
G1 X148.128 Y82.667 E20.69841
G1 X148.120 Y82.704 E20.70295
G1 X148.089 Y82.833 E20.71887
G1 X148.071 Y82.902 E20.72743
G1 X148.041 Y83.000 E20.73973
G1 X148.022 Y83.057 E20.74694
G1 X147.979 Y83.178 E20.76235
G1 X147.946 Y83.261 E20.77306
G1 X147.926 Y83.307 E20.77908
G1 X147.873 Y83.422 E20.79428
G1 X147.837 Y83.495 E20.80405
G1 X147.806 Y83.554 E20.81204
G1 X147.740 Y83.670 E20.82806
G1 X147.703 Y83.731 E20.83662
G1 X147.675 Y83.775 E20.84288
G1 X147.615 Y83.863 E20.85566
G1 X147.553 Y83.949 E20.86838
G1 X147.104 Y84.534 E20.95688
G1 X146.224 Y85.648 E21.12723
G1 X144.534 Y87.915 E21.46655
G1 X142.909 Y90.230 E21.80596
G1 X141.350 Y92.590 E22.14537
G1 X139.858 Y94.993 E22.48479
G1 X138.435 Y97.437 E22.82416
G1 X138.367 Y97.563 E22.84134
G1 X137.740 Y98.670 E22.99401
G1 X137.703 Y98.732 E23.00267
G1 X137.675 Y98.775 E23.00883
G1 X137.613 Y98.866 E23.02204
G1 X137.562 Y98.937 E23.03253
G1 X137.499 Y99.019 E23.04494
G1 X137.455 Y99.073 E23.05330
G1 X137.365 Y99.178 E23.06990
G10
G0 F9000 X134.400 Y96.436
;TYPE:WALL-INNER
G11
G1 F900 X95.600 Y96.436 E27.72590
G1 X95.600 Y81.436 E29.52590
G1 X85.600 Y81.436 E30.72590
G1 X85.600 Y72.636 E31.78190
G1 X95.600 Y72.636 E32.98190
G1 X95.600 Y57.636 E34.78190
G1 X134.400 Y57.636 E39.43790
G1 X134.400 Y72.636 E41.23790
G1 X144.400 Y72.636 E42.43790
G1 X144.400 Y81.436 E43.49390
G1 X134.400 Y81.436 E44.69390
G1 X134.400 Y96.436 E46.49390
G0 F9000 X127.100 Y89.136
G1 F900 X127.100 Y64.936 E49.39790
G1 X102.900 Y64.936 E52.30190
G1 X102.900 Y89.136 E55.20590
G1 X127.100 Y89.136 E58.10990
G0 F9000 X126.700 Y88.736
;TYPE:WALL-OUTER
G1 F900 X126.700 Y65.336 E60.91790
G1 X103.300 Y65.336 E63.72590
G1 X103.300 Y88.736 E66.53390
G1 X126.700 Y88.736 E69.34190
G0 F9000 X134.810 Y81.736
G0 X134.800 Y81.836
G1 F900 X134.800 Y96.836 E71.14190
G1 X95.200 Y96.836 E75.89390
G1 X95.200 Y81.836 E77.69390
G1 X85.200 Y81.836 E78.89390
G1 X85.200 Y72.236 E80.04590
G1 X95.200 Y72.236 E81.24590
G1 X95.200 Y57.236 E83.04590
G1 X134.800 Y57.236 E87.79790
G1 X134.800 Y72.236 E89.59790
G1 X144.800 Y72.236 E90.79790
G1 X144.800 Y81.836 E91.94990
G1 X134.800 Y81.836 E93.14990
G0 F9000 X134.259 Y81.651
;TYPE:SKIN
G1 F900 X127.238 Y74.630 E94.34140
G0 F9000 X127.238 Y75.195
G1 F900 X134.259 Y82.216 E95.53290
G0 F9000 X134.259 Y82.782
G1 F900 X127.238 Y75.761 E96.72441
G0 F9000 X127.238 Y76.327
G1 F900 X134.259 Y83.348 E97.91591
G0 F9000 X134.259 Y83.913
G1 F900 X127.238 Y76.892 E99.10741
G0 F9000 X127.238 Y77.458
G1 F900 X134.259 Y84.479 E100.29892
G0 F9000 X134.259 Y85.045
G1 F900 X127.238 Y78.024 E101.49042
G0 F9000 X127.238 Y78.589
G1 F900 X134.259 Y85.610 E102.68192
G0 F9000 X134.259 Y86.176
G1 F900 X127.238 Y79.155 E103.87343
G0 F9000 X127.238 Y79.721
G1 F900 X134.259 Y86.742 E105.06493
G0 F9000 X134.259 Y87.307
G1 F900 X127.238 Y80.287 E106.25635
G0 F9000 X127.238 Y80.852
G1 F900 X134.259 Y87.873 E107.44785
G0 F9000 X134.259 Y88.439
G1 F900 X127.238 Y81.418 E108.63935
G0 F9000 X127.238 Y81.984
G1 F900 X134.259 Y89.004 E109.83077
G0 F9000 X134.259 Y89.570
G1 F900 X127.238 Y82.549 E111.02228
G0 F9000 X127.238 Y83.115
G1 F900 X134.259 Y90.136 E112.21378
G0 F9000 X134.259 Y90.702
G1 F900 X127.238 Y83.681 E113.40528
G0 F9000 X127.238 Y84.246
G1 F900 X134.259 Y91.267 E114.59679
G0 F9000 X134.259 Y91.833
G1 F900 X127.238 Y84.812 E115.78829
G0 F9000 X127.238 Y85.378
G1 F900 X134.259 Y92.399 E116.97979
G0 F9000 X134.259 Y92.964
G1 F900 X127.238 Y85.943 E118.17130
G0 F9000 X127.238 Y86.509
G1 F900 X134.259 Y93.530 E119.36280
G0 F9000 X134.259 Y94.096
G1 F900 X127.238 Y87.075 E120.55430
G0 F9000 X127.238 Y87.640
G1 F900 X134.259 Y94.661 E121.74580
G0 F9000 X134.259 Y95.227
G1 F900 X127.238 Y88.206 E122.93731
G0 F9000 X127.238 Y88.772
G1 F900 X134.259 Y95.793 E124.12881
G0 F9000 X134.196 Y96.295
G1 F900 X127.176 Y89.275 E125.32014
G0 F9000 X126.611 Y89.275
G1 F900 X133.630 Y96.295 E126.51139
G0 F9000 X133.064 Y96.295
G1 F900 X126.045 Y89.275 E127.70264
G0 F9000 X125.479 Y89.275
G1 F900 X132.499 Y96.295 E128.89398
G0 F9000 X131.933 Y96.295
G1 F900 X124.913 Y89.275 E130.08531
G0 F9000 X124.348 Y89.275
G1 F900 X131.367 Y96.295 E131.27656
G0 F9000 X130.802 Y96.295
G1 F900 X123.782 Y89.275 E132.46789
G0 F9000 X123.216 Y89.275
G1 F900 X130.236 Y96.295 E133.65922
G0 F9000 X129.670 Y96.295
G1 F900 X122.651 Y89.275 E134.85047
G0 F9000 X122.085 Y89.275
G1 F900 X129.104 Y96.295 E136.04172
G0 F9000 X128.539 Y96.295
G1 F900 X121.519 Y89.275 E137.23306
G0 F9000 X120.954 Y89.275
G1 F900 X127.973 Y96.295 E138.42430
G0 F9000 X127.407 Y96.295
G1 F900 X120.388 Y89.275 E139.61555
G0 F9000 X119.822 Y89.275
G1 F900 X126.842 Y96.295 E140.80689
G0 F9000 X126.276 Y96.295
G1 F900 X119.257 Y89.275 E141.99813
G0 F9000 X118.691 Y89.275
G1 F900 X125.710 Y96.295 E143.18938
G0 F9000 X125.145 Y96.295
G1 F900 X118.125 Y89.275 E144.38072
G0 F9000 X117.560 Y89.275
G1 F900 X124.579 Y96.295 E145.57197
G0 F9000 X124.013 Y96.295
G1 F900 X116.994 Y89.275 E146.76321
G0 F9000 X116.428 Y89.275
G1 F900 X123.448 Y96.295 E147.95455
G0 F9000 X122.882 Y96.295
G1 F900 X115.862 Y89.275 E149.14588
G0 F9000 X115.297 Y89.275
G1 F900 X122.316 Y96.295 E150.33713
G0 F9000 X121.751 Y96.295
G1 F900 X114.731 Y89.275 E151.52846
G0 F9000 X114.165 Y89.275
G1 F900 X121.185 Y96.295 E152.71980
G0 F9000 X120.619 Y96.295
G1 F900 X113.600 Y89.275 E153.91105
G0 F9000 X113.034 Y89.275
G1 F900 X120.054 Y96.295 E155.10238
G0 F9000 X119.488 Y96.295
G1 F900 X112.468 Y89.275 E156.29371
G0 F9000 X111.903 Y89.275
G1 F900 X118.922 Y96.295 E157.48496
G0 F9000 X118.356 Y96.295
G1 F900 X111.337 Y89.275 E158.67621
G0 F9000 X110.771 Y89.275
G1 F900 X117.791 Y96.295 E159.86754
G0 F9000 X117.225 Y96.295
G1 F900 X110.206 Y89.275 E161.05879
G0 F9000 X109.640 Y89.275
G1 F900 X116.659 Y96.295 E162.25004
G0 F9000 X116.094 Y96.295
G1 F900 X109.074 Y89.275 E163.44137
G0 F9000 X108.509 Y89.275
G1 F900 X115.528 Y96.295 E164.63262
G0 F9000 X114.962 Y96.295
G1 F900 X107.943 Y89.275 E165.82387
G0 F9000 X107.377 Y89.275
G1 F900 X114.397 Y96.295 E167.01521
G0 F9000 X113.831 Y96.295
G1 F900 X106.812 Y89.275 E168.20645
G0 F9000 X106.246 Y89.275
G1 F900 X113.265 Y96.295 E169.39770
G0 F9000 X112.700 Y96.295
G1 F900 X105.680 Y89.275 E170.58904
G0 F9000 X105.114 Y89.275
G1 F900 X112.134 Y96.295 E171.78037
G0 F9000 X111.568 Y96.295
G1 F900 X104.549 Y89.275 E172.97162
G0 F9000 X103.983 Y89.275
G1 F900 X111.003 Y96.295 E174.16295
G0 F9000 X110.437 Y96.295
G1 F900 X103.417 Y89.275 E175.35429
G0 F9000 X102.852 Y89.275
G1 F900 X109.871 Y96.295 E176.54553
G0 F9000 X109.305 Y96.295
G1 F900 X95.739 Y82.728 E178.84785
G0 F9000 X95.739 Y83.294
G1 F900 X108.740 Y96.295 E181.05419
G0 F9000 X108.174 Y96.295
G1 F900 X95.739 Y83.860 E183.16448
G0 F9000 X95.739 Y84.425
G1 F900 X107.608 Y96.295 E185.17880
G0 F9000 X107.043 Y96.295
G1 F900 X95.739 Y84.991 E187.09715
G0 F9000 X95.739 Y85.557
G1 F900 X106.477 Y96.295 E188.91945
G0 F9000 X105.911 Y96.295
G1 F900 X95.739 Y86.122 E190.64578
G0 F9000 X95.739 Y86.688
G1 F900 X105.346 Y96.295 E192.27614
G0 F9000 X104.780 Y96.295
G1 F900 X95.739 Y87.254 E193.81045
G0 F9000 X95.739 Y87.819
G1 F900 X104.214 Y96.295 E195.24879
G0 F9000 X103.649 Y96.295
G1 F900 X95.739 Y88.385 E196.59116
G0 F9000 X95.739 Y88.951
G1 F900 X103.083 Y96.295 E197.83748
G0 F9000 X102.517 Y96.295
G1 F900 X95.739 Y89.516 E198.98783
G0 F9000 X95.739 Y90.082
G1 F900 X101.952 Y96.295 E200.04221
G0 F9000 X101.386 Y96.295
G1 F900 X95.739 Y90.648 E201.00054
G0 F9000 X95.739 Y91.213
G1 F900 X100.820 Y96.295 E201.86290
G0 F9000 X100.255 Y96.295
G1 F900 X95.739 Y91.779 E202.62929
G0 F9000 X95.739 Y92.345
G1 F900 X99.689 Y96.295 E203.29963
G0 F9000 X99.123 Y96.295
G1 F900 X95.739 Y92.911 E203.87391
G0 F9000 X95.739 Y93.476
G1 F900 X98.557 Y96.295 E204.35223
G0 F9000 X97.992 Y96.295
G1 F900 X95.739 Y94.042 E204.73457
G0 F9000 X95.739 Y94.608
G1 F900 X97.426 Y96.295 E205.02087
G0 F9000 X96.860 Y96.295
G1 F900 X95.739 Y95.173 E205.21119
G0 F9000 X95.739 Y95.739
G1 F900 X96.295 Y96.295 E205.30555
G0 F9000 X102.758 Y89.182
G1 F900 X95.739 Y82.162 E206.49680
G0 F9000 X95.739 Y81.597
G1 F900 X102.758 Y88.616 E207.68796
G0 F9000 X102.758 Y88.051
G1 F900 X87.483 Y72.776 E210.28021
G0 F9000 X86.918 Y72.776
G1 F900 X95.438 Y81.296 E211.72610
G0 F9000 X94.872 Y81.296
G1 F900 X86.352 Y72.776 E213.17200
G0 F9000 X85.786 Y72.776
G1 F900 X94.306 Y81.296 E214.61789
G0 F9000 X93.741 Y81.296
G1 F900 X85.738 Y73.293 E215.97604
G0 F9000 X85.738 Y73.859
G1 F900 X93.175 Y81.296 E217.23814
G0 F9000 X92.609 Y81.296
G1 F900 X85.738 Y74.425 E218.40419
G0 F9000 X85.738 Y74.990
G1 F900 X92.044 Y81.296 E219.47435
G0 F9000 X91.478 Y81.296
G1 F900 X85.738 Y75.556 E220.44846
G0 F9000 X85.738 Y76.122
G1 F900 X90.912 Y81.296 E221.32652
G0 F9000 X90.347 Y81.296
G1 F900 X85.738 Y76.687 E222.10869
G0 F9000 X85.738 Y77.253
G1 F900 X89.781 Y81.296 E222.79481
G0 F9000 X89.215 Y81.296
G1 F900 X85.738 Y77.819 E223.38488
G0 F9000 X85.738 Y78.384
G1 F900 X88.649 Y81.296 E223.87898
G0 F9000 X88.084 Y81.296
G1 F900 X85.738 Y78.950 E224.27711
