;FLAVOR:UltiGCode
;TIME:4027
;MATERIAL:5866
;MATERIAL2:0
;Generated with Cura_SteamEngine DEV
;LAYER:0
G0 X135.708 Y94.049 Z0.300
G0 X137.014 Y93.181
;TYPE:SKIRT
G11
G1 F900 X136.910 Y93.289 E0.01799
G1 X136.840 Y93.359 E0.02987
G1 X136.816 Y93.381 E0.03378
G1 X136.732 Y93.455 E0.04721
G1 X136.654 Y93.520 E0.05940
G1 X136.565 Y93.590 E0.07298
G1 X136.524 Y93.620 E0.07908
G1 X136.418 Y93.694 E0.09459
G1 X136.391 Y93.712 E0.09849
G1 X136.285 Y93.778 E0.11347
G1 X136.221 Y93.815 E0.12234
G1 X136.143 Y93.858 E0.13303
G1 X136.070 Y93.895 E0.14285
G1 X135.964 Y93.946 E0.15697
G1 X135.877 Y93.984 E0.16836
G1 X135.838 Y94.000 E0.17342
G1 X135.708 Y94.049 E0.19009
G1 X135.655 Y94.067 E0.19681
G1 X135.565 Y94.095 E0.20812
G1 X135.481 Y94.119 E0.21860
G1 X135.404 Y94.138 E0.22812
G1 X135.305 Y94.161 E0.24031
G1 X135.212 Y94.179 E0.25168
G1 X135.113 Y94.195 E0.26371
G1 X135.053 Y94.204 E0.27100
G1 X134.962 Y94.213 E0.28197
G1 X134.965 Y94.213 E0.28233
G1 X133.651 Y94.239 E0.44004
G1 X96.025 Y94.239 E4.95516
G1 X95.282 Y94.229 E5.04433
G1 X95.153 Y94.223 E5.05982
G1 X95.109 Y94.220 E5.06512
G1 X94.974 Y94.207 E5.08139
G1 X94.907 Y94.199 E5.08949
G1 X94.828 Y94.186 E5.09910
G1 X94.717 Y94.166 E5.11263
G1 X94.666 Y94.155 E5.11889
G1 X94.543 Y94.125 E5.13408
G1 X94.485 Y94.110 E5.14127
G1 X94.387 Y94.080 E5.15357
G1 X94.330 Y94.061 E5.16078
G1 X94.209 Y94.018 E5.17619
G1 X94.124 Y93.984 E5.18718
G1 X94.080 Y93.965 E5.19293
G1 X93.965 Y93.912 E5.20812
G1 X93.892 Y93.876 E5.21789
G1 X93.833 Y93.845 E5.22589
G1 X93.715 Y93.778 E5.24217
G1 X93.652 Y93.740 E5.25100
G1 X93.612 Y93.714 E5.25673
G1 X93.521 Y93.652 E5.26994
G1 X93.438 Y93.592 E5.28223
G1 X93.366 Y93.537 E5.29310
G1 X93.314 Y93.494 E5.30120
G1 X93.219 Y93.413 E5.31618
G1 X93.190 Y93.386 E5.32093
G1 X93.101 Y93.300 E5.33579
G1 X93.031 Y93.230 E5.34767
G1 X93.009 Y93.206 E5.35157
G1 X92.926 Y93.111 E5.36671
G1 X92.870 Y93.044 E5.37719
G1 X92.781 Y92.930 E5.39454
G1 X92.770 Y92.914 E5.39687
G1 X92.696 Y92.808 E5.41239
G1 X92.678 Y92.781 E5.41628
G1 X92.605 Y92.664 E5.43283
G1 X91.862 Y91.386 E5.61022
G1 X91.855 Y91.390 E5.61119
G1 X91.421 Y90.634 E5.71580
G1 X89.944 Y88.222 E6.05519
G1 X88.399 Y85.853 E6.39459
G1 X86.788 Y83.528 E6.73402
G1 X85.112 Y81.250 E7.07339
G1 X83.372 Y79.020 E7.41282
G1 X83.097 Y78.683 E7.46501
G1 X82.794 Y78.297 E7.52390
G1 X82.770 Y78.264 E7.52879
G1 X82.690 Y78.150 E7.54551
G1 X82.678 Y78.131 E7.54820
G1 X82.607 Y78.017 E7.56432
G1 X82.572 Y77.957 E7.57265
G1 X82.525 Y77.870 E7.58452
G1 X82.495 Y77.810 E7.59257
G1 X82.444 Y77.704 E7.60669
G1 X82.406 Y77.617 E7.61808
G1 X82.390 Y77.578 E7.62314
G1 X82.341 Y77.448 E7.63981
G1 X82.323 Y77.395 E7.64653
G1 X82.293 Y77.300 E7.65848
G1 X82.271 Y77.221 E7.66832
G1 X82.252 Y77.144 E7.67784
G1 X82.229 Y77.045 E7.69003
G1 X82.211 Y76.952 E7.70140
G1 X82.195 Y76.853 E7.71344
G1 X82.186 Y76.793 E7.72072
G1 X82.177 Y76.702 E7.73169
G1 X82.151 Y75.370 E7.89156
G1 X82.151 Y67.050 E8.88996
G1 X82.161 Y66.320 E8.97757
G1 X82.167 Y66.191 E8.99306
G1 X82.170 Y66.147 E8.99836
G1 X82.183 Y66.012 E9.01463
G1 X82.191 Y65.945 E9.02273
G1 X82.205 Y65.859 E9.03318
G1 X82.223 Y65.758 E9.04550
G1 X82.235 Y65.704 E9.05213
G1 X82.265 Y65.581 E9.06733
G1 X82.280 Y65.523 E9.07452
G1 X82.314 Y65.411 E9.08856
G1 X82.329 Y65.368 E9.09403
G1 X82.372 Y65.247 E9.10944
G1 X82.405 Y65.164 E9.12015
G1 X82.425 Y65.118 E9.12617
G1 X82.478 Y65.003 E9.14137
G1 X82.514 Y64.930 E9.15114
G1 X82.545 Y64.871 E9.15913
G1 X82.611 Y64.755 E9.17515
G1 X82.648 Y64.693 E9.18381
G1 X82.676 Y64.650 E9.18997
G1 X82.738 Y64.559 E9.20318
G1 X82.798 Y64.476 E9.21547
G1 X82.859 Y64.396 E9.22755
G1 X83.073 Y64.133 E9.26823
G1 X84.825 Y61.912 E9.60770
G1 X86.513 Y59.643 E9.94706
G1 X88.136 Y57.327 E10.28643
G1 X89.693 Y54.965 E10.62591
G1 X91.183 Y52.561 E10.96530
G1 X92.452 Y50.385 E11.26758
G1 X92.606 Y50.114 E11.30499
G1 X92.648 Y50.043 E11.31489
G1 X92.676 Y50.000 E11.32104
G1 X92.750 Y49.892 E11.33675
G1 X92.798 Y49.826 E11.34655
G1 X92.853 Y49.754 E11.35742
G1 X92.896 Y49.702 E11.36552
G1 X92.974 Y49.611 E11.37990
G1 X93.003 Y49.578 E11.38517
G1 X93.090 Y49.489 E11.40011
G1 X93.160 Y49.419 E11.41199
G1 X93.184 Y49.397 E11.41589
G1 X93.268 Y49.323 E11.42933
G1 X93.346 Y49.258 E11.44151
G1 X93.443 Y49.182 E11.45630
G1 X93.478 Y49.156 E11.46153
G1 X93.582 Y49.084 E11.47671
G1 X93.613 Y49.063 E11.48120
G1 X93.723 Y48.995 E11.49672
G1 X93.779 Y48.963 E11.50446
G1 X93.860 Y48.918 E11.51558
G1 X93.930 Y48.883 E11.52497
G1 X94.036 Y48.832 E11.53909
G1 X94.123 Y48.794 E11.55048
G1 X94.162 Y48.778 E11.55554
G1 X94.292 Y48.729 E11.57221
G1 X94.345 Y48.711 E11.57893
G1 X94.435 Y48.683 E11.59024
G1 X94.519 Y48.659 E11.60072
G1 X94.596 Y48.640 E11.61024
G1 X94.695 Y48.617 E11.62243
G1 X94.788 Y48.599 E11.63380
G1 X94.887 Y48.583 E11.64583
G1 X94.947 Y48.574 E11.65312
G1 X95.038 Y48.565 E11.66409
G1 X95.035 Y48.565 E11.66445
G1 X96.349 Y48.539 E11.82216
G1 X133.975 Y48.539 E16.33728
G1 X134.718 Y48.549 E16.42645
G1 X134.847 Y48.555 E16.44194
G1 X134.891 Y48.558 E16.44724
G1 X135.026 Y48.571 E16.46351
G1 X135.093 Y48.579 E16.47161
G1 X135.172 Y48.592 E16.48122
G1 X135.280 Y48.611 E16.49437
G1 X135.334 Y48.623 E16.50101
G1 X135.457 Y48.653 E16.51621
G1 X135.515 Y48.668 E16.52339
G1 X135.613 Y48.698 E16.53569
G1 X135.668 Y48.716 E16.54264
G1 X135.791 Y48.760 E16.55831
G1 X135.874 Y48.793 E16.56903
G1 X135.920 Y48.813 E16.57505
G1 X136.035 Y48.866 E16.59025
G1 X136.108 Y48.902 E16.60001
G1 X136.167 Y48.933 E16.60801
G1 X136.283 Y48.999 E16.62403
G1 X136.345 Y49.036 E16.63269
G1 X136.387 Y49.063 E16.63868
G1 X136.479 Y49.126 E16.65206
G1 X136.562 Y49.186 E16.66435
G1 X136.634 Y49.241 E16.67523
G1 X136.686 Y49.284 E16.68332
G1 X136.777 Y49.362 E16.69770
G1 X136.810 Y49.391 E16.70298
G1 X136.899 Y49.477 E16.71783
G1 X136.965 Y49.544 E16.72911
G1 X136.991 Y49.572 E16.73370
G1 X137.065 Y49.656 E16.74713
G1 X137.130 Y49.734 E16.75932
G1 X137.206 Y49.831 E16.77410
G1 X137.219 Y49.848 E16.77667
G1 X137.304 Y49.970 E16.79451
G1 X137.322 Y49.997 E16.79841
G1 X137.393 Y50.111 E16.81453
G1 X138.138 Y51.392 E16.99235
G1 X138.145 Y51.388 E16.99332
G1 X138.579 Y52.144 E17.09793
G1 X140.056 Y54.556 E17.43732
G1 X141.601 Y56.925 E17.77671
G1 X143.212 Y59.250 E18.11615
G1 X144.888 Y61.528 E18.45552
G1 X146.628 Y63.758 E18.79494
G1 X146.875 Y64.060 E18.84176
G1 X147.206 Y64.481 E18.90602
G1 X147.224 Y64.505 E18.90962
G1 X147.304 Y64.620 E18.92644
G1 X147.322 Y64.647 E18.93033
G1 X147.393 Y64.761 E18.94645
G1 X147.421 Y64.809 E18.95311
G1 X147.470 Y64.898 E18.96531
G1 X147.505 Y64.968 E18.97470
G1 X147.556 Y65.074 E18.98881
G1 X147.594 Y65.161 E19.00020
G1 X147.610 Y65.200 E19.00526
G1 X147.659 Y65.330 E19.02193
G1 X147.677 Y65.383 E19.02865
G1 X147.705 Y65.473 E19.03996
G1 X147.728 Y65.554 E19.05007
G1 X147.748 Y65.634 E19.05996
G1 X147.768 Y65.721 E19.07067
G1 X147.786 Y65.810 E19.08157
G1 X147.805 Y65.925 E19.09556
G1 X147.814 Y65.985 E19.10284
G1 X147.823 Y66.074 E19.11357
G1 X147.849 Y67.387 E19.27116
G1 X147.849 Y75.695 E20.26812
G1 X147.839 Y76.458 E20.35969
G1 X147.833 Y76.587 E20.37519
G1 X147.831 Y76.621 E20.37928
G1 X147.817 Y76.766 E20.39676
G1 X147.809 Y76.833 E20.40485
G1 X147.796 Y76.912 E20.41446
G1 X147.777 Y77.020 E20.42762
G1 X147.769 Y77.057 E20.43216
G1 X147.738 Y77.186 E20.44808
G1 X147.720 Y77.255 E20.45664
G1 X147.690 Y77.353 E20.46894
G1 X147.671 Y77.410 E20.47615
G1 X147.628 Y77.531 E20.49156
G1 X147.595 Y77.614 E20.50228
G1 X147.575 Y77.660 E20.50830
G1 X147.522 Y77.775 E20.52349
G1 X147.486 Y77.848 E20.53326
G1 X147.455 Y77.907 E20.54126
G1 X147.389 Y78.023 E20.55727
G1 X147.352 Y78.084 E20.56583
G1 X147.324 Y78.128 E20.57209
G1 X147.264 Y78.216 E20.58487
G1 X147.202 Y78.302 E20.59759
G1 X147.143 Y78.379 E20.60924
G1 X146.927 Y78.645 E20.65035
G1 X145.175 Y80.866 E20.98981
G1 X143.487 Y83.135 E21.32918
G1 X141.864 Y85.451 E21.66855
G1 X140.307 Y87.813 E22.00803
G1 X138.817 Y90.217 E22.34742
G1 X137.548 Y92.393 E22.64970
G1 X137.394 Y92.664 E22.68711
G1 X137.352 Y92.735 E22.69701
G1 X137.324 Y92.778 E22.70316
G1 X137.262 Y92.869 E22.71638
G1 X137.211 Y92.940 E22.72687
G1 X137.148 Y93.022 E22.73928
G1 X137.104 Y93.076 E22.74764
G1 X137.014 Y93.181 E22.76423
G10
G0 F9000 X134.049 Y90.439
;TYPE:WALL-INNER
G11
G1 F900 X95.951 Y90.439 E27.33599
G1 X95.951 Y75.789 E29.09399
G1 X85.951 Y75.789 E30.29399
G1 X85.951 Y66.989 E31.34999
G1 X95.951 Y66.989 E32.54999
G1 X95.951 Y52.339 E34.30799
G1 X134.049 Y52.339 E38.87975
G1 X134.049 Y66.989 E40.63775
G1 X144.049 Y66.989 E41.83775
G1 X144.049 Y75.789 E42.89375
G1 X134.049 Y75.789 E44.09375
G1 X134.049 Y90.439 E45.85175
G0 F9000 X127.100 Y83.489
G1 F900 X127.100 Y59.289 E48.75575
G1 X102.900 Y59.289 E51.65975
G1 X102.900 Y83.489 E54.56375
G1 X127.100 Y83.489 E57.46775
G0 F9000 X126.700 Y83.089
;TYPE:WALL-OUTER
G1 F900 X126.700 Y59.689 E60.27575
G1 X103.300 Y59.689 E63.08375
G1 X103.300 Y83.089 E65.89175
G1 X126.700 Y83.089 E68.69975
G0 F9000 X134.459 Y76.089
G0 X134.449 Y76.189
G1 F900 X134.449 Y90.839 E70.45775
G1 X95.551 Y90.839 E75.12551
G1 X95.551 Y76.189 E76.88351
G1 X85.551 Y76.189 E78.08351
G1 X85.551 Y66.589 E79.23551
G1 X95.551 Y66.589 E80.43551
G1 X95.551 Y51.939 E82.19351
G1 X134.449 Y51.939 E86.86127
G1 X134.449 Y66.589 E88.61927
G1 X144.449 Y66.589 E89.81927
G1 X144.449 Y76.189 E90.97127
G1 X134.449 Y76.189 E92.17127
G0 F9000 X133.908 Y76.208
;TYPE:SKIN
G1 F900 X127.238 Y69.539 E93.30312
G0 F9000 X127.238 Y70.104
G1 F900 X133.908 Y76.774 E94.43506
G0 F9000 X133.908 Y77.339
G1 F900 X127.238 Y70.670 E95.56691
G0 F9000 X127.238 Y71.236
G1 F900 X133.908 Y77.905 E96.69876
G0 F9000 X133.908 Y78.471
G1 F900 X127.238 Y71.801 E97.83070
G0 F9000 X127.238 Y72.367
G1 F900 X133.908 Y79.036 E98.96255
G0 F9000 X133.908 Y79.602
G1 F900 X127.238 Y72.933 E100.09440
G0 F9000 X127.238 Y73.498
G1 F900 X133.908 Y80.168 E101.22634
G0 F9000 X133.908 Y80.733
G1 F900 X127.238 Y74.064 E102.35819
G0 F9000 X127.238 Y74.630
G1 F900 X133.908 Y81.299 E103.49004
G0 F9000 X133.908 Y81.865
G1 F900 X127.238 Y75.195 E104.62198
G0 F9000 X127.238 Y75.761
G1 F900 X133.908 Y82.430 E105.75383
G0 F9000 X133.908 Y82.996
G1 F900 X127.238 Y76.327 E106.88568
G0 F9000 X127.238 Y76.892
G1 F900 X133.908 Y83.562 E108.01762
G0 F9000 X133.908 Y84.128
G1 F900 X127.238 Y77.458 E109.14955
G0 F9000 X127.238 Y78.024
G1 F900 X133.908 Y84.693 E110.28141
G0 F9000 X133.908 Y85.259
G1 F900 X127.238 Y78.589 E111.41334
G0 F9000 X127.238 Y79.155
G1 F900 X133.908 Y85.825 E112.54528
G0 F9000 X133.908 Y86.390
G1 F900 X127.238 Y79.721 E113.67713
G0 F9000 X127.238 Y80.287
G1 F900 X133.908 Y86.956 E114.80898
G0 F9000 X133.908 Y87.522
G1 F900 X127.238 Y80.852 E115.94092
G0 F9000 X127.238 Y81.418
G1 F900 X133.908 Y88.087 E117.07277
G0 F9000 X133.908 Y88.653
G1 F900 X127.238 Y81.984 E118.20462
G0 F9000 X127.238 Y82.549
G1 F900 X133.908 Y89.219 E119.33656
G0 F9000 X133.908 Y89.784
G1 F900 X127.238 Y83.115 E120.46841
G0 F9000 X127.186 Y83.628
G1 F900 X133.856 Y90.298 E121.60035
G0 F9000 X133.291 Y90.298
G1 F900 X126.620 Y83.628 E122.73237
G0 F9000 X126.055 Y83.628
G1 F900 X132.725 Y90.298 E123.86431
G0 F9000 X132.159 Y90.298
G1 F900 X125.489 Y83.628 E124.99624
G0 F9000 X124.923 Y83.628
G1 F900 X131.593 Y90.298 E126.12818
G0 F9000 X131.028 Y90.298
G1 F900 X124.358 Y83.628 E127.26011
G0 F9000 X123.792 Y83.628
G1 F900 X130.462 Y90.298 E128.39205
G0 F9000 X129.896 Y90.298
G1 F900 X123.226 Y83.628 E129.52399
G0 F9000 X122.661 Y83.628
G1 F900 X129.331 Y90.298 E130.65592
G0 F9000 X128.765 Y90.298
G1 F900 X122.095 Y83.628 E131.78786
G0 F9000 X121.529 Y83.628
G1 F900 X128.199 Y90.298 E132.91980
G0 F9000 X127.634 Y90.298
G1 F900 X120.964 Y83.628 E134.05173
G0 F9000 X120.398 Y83.628
G1 F900 X127.068 Y90.298 E135.18367
G0 F9000 X126.502 Y90.298
G1 F900 X119.832 Y83.628 E136.31561
G0 F9000 X119.266 Y83.628
G1 F900 X125.937 Y90.298 E137.44763
G0 F9000 X125.371 Y90.298
G1 F900 X118.701 Y83.628 E138.57957
G0 F9000 X118.135 Y83.628
G1 F900 X124.805 Y90.298 E139.71150
G0 F9000 X124.240 Y90.298
G1 F900 X117.569 Y83.628 E140.84352
G0 F9000 X117.004 Y83.628
G1 F900 X123.674 Y90.298 E141.97546
G0 F9000 X123.108 Y90.298
G1 F900 X116.438 Y83.628 E143.10740
G0 F9000 X115.872 Y83.628
G1 F900 X122.543 Y90.298 E144.23942
G0 F9000 X121.977 Y90.298
G1 F900 X115.307 Y83.628 E145.37135
G0 F9000 X114.741 Y83.628
G1 F900 X121.411 Y90.298 E146.50329
G0 F9000 X120.845 Y90.298
G1 F900 X114.175 Y83.628 E147.63523
G0 F9000 X113.610 Y83.628
G1 F900 X120.280 Y90.298 E148.76716
G0 F9000 X119.714 Y90.298
G1 F900 X113.044 Y83.628 E149.89910
G0 F9000 X112.478 Y83.628
G1 F900 X119.148 Y90.298 E151.03104
G0 F9000 X118.583 Y90.298
G1 F900 X111.913 Y83.628 E152.16297
G0 F9000 X111.347 Y83.628
G1 F900 X118.017 Y90.298 E153.29491
G0 F9000 X117.451 Y90.298
G1 F900 X110.781 Y83.628 E154.42685
G0 F9000 X110.216 Y83.628
G1 F900 X116.886 Y90.298 E155.55878
G0 F9000 X116.320 Y90.298
G1 F900 X109.650 Y83.628 E156.69072
G0 F9000 X109.084 Y83.628
G1 F900 X115.754 Y90.298 E157.82266
G0 F9000 X115.189 Y90.298
G1 F900 X108.518 Y83.628 E158.95468
G0 F9000 X107.953 Y83.628
G1 F900 X114.623 Y90.298 E160.08661
G0 F9000 X114.057 Y90.298
G1 F900 X107.387 Y83.628 E161.21855
G0 F9000 X106.821 Y83.628
G1 F900 X113.492 Y90.298 E162.35057
G0 F9000 X112.926 Y90.298
G1 F900 X106.256 Y83.628 E163.48251
G0 F9000 X105.690 Y83.628
G1 F900 X112.360 Y90.298 E164.61444
G0 F9000 X111.794 Y90.298
G1 F900 X105.124 Y83.628 E165.74638
G0 F9000 X104.559 Y83.628
G1 F900 X111.229 Y90.298 E166.87832
G0 F9000 X110.663 Y90.298
G1 F900 X103.993 Y83.628 E168.01025
G0 F9000 X103.427 Y83.628
G1 F900 X110.097 Y90.298 E169.14219
G0 F9000 X109.532 Y90.298
G1 F900 X102.862 Y83.628 E170.27413
G0 F9000 X102.758 Y83.525
G1 F900 X96.090 Y76.856 E171.40581
G0 F9000 X96.090 Y76.291
G1 F900 X102.758 Y82.959 E172.53741
G0 F9000 X102.758 Y82.394
G1 F900 X96.090 Y75.725 E173.66909
G0 F9000 X96.013 Y75.649
G1 F900 X87.493 Y67.128 E175.11507
G0 F9000 X88.058 Y67.128
G1 F900 X102.758 Y81.828 E177.60974
G0 F9000 X102.758 Y81.262
G1 F900 X88.624 Y67.128 E180.00836
G0 F9000 X89.190 Y67.128
G1 F900 X102.758 Y80.697 E182.31101
G0 F9000 X102.758 Y80.131
G1 F900 X89.755 Y67.128 E184.51769
G0 F9000 X90.321 Y67.128
G1 F900 X102.758 Y79.565 E186.62832
G0 F9000 X102.758 Y79.000
G1 F900 X90.887 Y67.128 E188.64298
G0 F9000 X91.452 Y67.128
G1 F900 X102.758 Y78.434 E190.56167
G0 F9000 X102.758 Y77.868
G1 F900 X92.018 Y67.128 E192.38431
G0 F9000 X92.584 Y67.128
G1 F900 X102.758 Y77.303 E194.11098
G0 F9000 X102.758 Y76.737
G1 F900 X93.150 Y67.128 E195.74160
G0 F9000 X93.715 Y67.128
G1 F900 X102.758 Y76.171 E197.27624
G0 F9000 X102.758 Y75.605
G1 F900 X94.281 Y67.128 E198.71484
G0 F9000 X94.847 Y67.128
G1 F900 X102.758 Y75.040 E200.05747
G0 F9000 X102.758 Y74.474
G1 F900 X95.412 Y67.128 E201.30412
G0 F9000 X95.978 Y67.128
G1 F900 X102.758 Y73.908 E202.45473
G0 F9000 X102.758 Y73.343
G1 F900 X96.090 Y66.674 E203.58641
G0 F9000 X96.090 Y66.108
G1 F900 X102.758 Y72.777 E204.71809
G0 F9000 X102.758 Y72.211
G1 F900 X96.090 Y65.543 E205.84969
G0 F9000 X96.090 Y64.977
G1 F900 X102.758 Y71.646 E206.98137
G0 F9000 X102.758 Y71.080
G1 F900 X96.090 Y64.411 E208.11305
G0 F9000 X96.090 Y63.846
G1 F900 X102.758 Y70.514 E209.24465
G0 F9000 X102.758 Y69.949
G1 F900 X96.090 Y63.280 E210.37633
G0 F9000 X96.090 Y62.714
G1 F900 X102.758 Y69.383 E211.50801
G0 F9000 X102.758 Y68.817
G1 F900 X96.090 Y62.149 E212.63961
G0 F9000 X96.090 Y61.583
G1 F900 X102.758 Y68.252 E213.77129
G0 F9000 X102.758 Y67.686
G1 F900 X96.090 Y61.017 E214.90297
G0 F9000 X96.090 Y60.451
G1 F900 X102.758 Y67.120 E216.03466
G0 F9000 X102.758 Y66.555
G1 F900 X96.090 Y59.886 E217.16634
G0 F9000 X96.090 Y59.320
G1 F900 X102.758 Y65.989 E218.29802
G0 F9000 X102.758 Y65.423
G1 F900 X96.090 Y58.754 E219.42970
G0 F9000 X96.090 Y58.189
G1 F900 X102.758 Y64.857 E220.56130
G0 F9000 X102.758 Y64.292
G1 F900 X96.090 Y57.623 E221.69298
G0 F9000 X96.090 Y57.057
G1 F900 X102.758 Y63.726 E222.82466
G0 F9000 X102.758 Y63.160
G1 F900 X96.090 Y56.492 E223.95626
G0 F9000 X96.090 Y55.926
G1 F900 X102.758 Y62.595 E225.08794
G0 F9000 X102.758 Y62.029
