;FLAVOR:UltiGCode
;TIME:4191
;MATERIAL:6650
;MATERIAL2:0
;Generated with Cura_SteamEngine DEV
;LAYER:0
M107
G0 F9000 X92.652 Y90.340 Z0.300
G0 X94.596 Y89.336
;TYPE:SKIRT
G1 F900 X94.687 Y89.327 E0.01097
G1 X94.684 Y89.327 E0.01133
G1 X95.998 Y89.301 E0.16904
G1 X98.333 Y89.301 E0.44924
G1 X134.325 Y89.300 E4.76828
G1 X135.066 Y89.310 E4.85721
G1 X135.195 Y89.316 E4.87271
G1 X135.239 Y89.319 E4.87800
G1 X135.363 Y89.331 E4.89295
G1 X135.448 Y89.342 E4.90324
G1 X135.529 Y89.354 E4.91306
G1 X135.626 Y89.372 E4.92490
G1 X135.721 Y89.392 E4.93655
G1 X135.781 Y89.406 E4.94394
G1 X135.846 Y89.424 E4.95204
G1 X135.969 Y89.461 E4.96745
G1 X136.053 Y89.489 E4.97808
G1 X136.155 Y89.526 E4.99110
G1 X136.206 Y89.546 E4.99767
G1 X136.295 Y89.584 E5.00928
G1 X136.351 Y89.610 E5.01669
G1 X136.466 Y89.667 E5.03209
G1 X136.544 Y89.708 E5.04267
G1 X136.584 Y89.731 E5.04821
G1 X136.698 Y89.800 E5.06420
G1 X136.764 Y89.842 E5.07358
G1 X136.832 Y89.888 E5.08344
G1 X136.911 Y89.945 E5.09513
G1 X136.970 Y89.990 E5.10403
G1 X137.035 Y90.043 E5.11409
G1 X137.126 Y90.121 E5.12848
G1 X137.159 Y90.150 E5.13375
G1 X137.248 Y90.237 E5.14868
G1 X137.313 Y90.302 E5.15971
G1 X137.364 Y90.357 E5.16871
G1 X137.392 Y90.389 E5.17382
G1 X137.496 Y90.514 E5.19333
G1 X137.535 Y90.563 E5.20085
G1 X137.598 Y90.648 E5.21354
G1 X137.642 Y90.711 E5.22276
G1 X137.680 Y90.769 E5.23108
G1 X137.723 Y90.838 E5.24084
G1 X137.849 Y91.054 E5.27085
G1 X139.106 Y93.283 E5.57793
G1 X140.564 Y95.707 E5.91737
G1 X142.090 Y98.088 E6.25674
G1 X143.683 Y100.425 E6.59613
G1 X145.341 Y102.717 E6.93559
G1 X146.790 Y104.613 E7.22195
G1 X147.532 Y105.561 E7.36641
G1 X147.597 Y105.649 E7.37954
G1 X147.644 Y105.715 E7.38926
G1 X147.696 Y105.794 E7.40061
G1 X147.732 Y105.852 E7.40880
G1 X147.775 Y105.927 E7.41918
G1 X147.829 Y106.027 E7.43281
G1 X147.865 Y106.097 E7.44226
G1 X147.900 Y106.171 E7.45208
G1 X147.939 Y106.259 E7.46363
G1 X147.978 Y106.356 E7.47618
G1 X148.005 Y106.427 E7.48529
G1 X148.025 Y106.487 E7.49288
G1 X148.064 Y106.613 E7.50871
G1 X148.078 Y106.661 E7.51471
G1 X148.105 Y106.766 E7.52772
G1 X148.124 Y106.855 E7.53864
G1 X148.136 Y106.915 E7.54598
G1 X148.159 Y107.054 E7.56289
G1 X148.162 Y107.072 E7.56508
G1 X148.175 Y107.188 E7.57909
G1 X148.176 Y107.195 E7.57994
G1 X148.200 Y108.439 E7.72924
G1 X148.200 Y116.806 E8.73328
G1 X148.190 Y117.569 E8.82485
G1 X148.184 Y117.698 E8.84035
G1 X148.182 Y117.732 E8.84444
G1 X148.168 Y117.877 E8.86192
G1 X148.160 Y117.944 E8.87001
G1 X148.147 Y118.023 E8.87962
G1 X148.128 Y118.131 E8.89278
G1 X148.120 Y118.168 E8.89732
G1 X148.089 Y118.297 E8.91324
G1 X148.071 Y118.366 E8.92180
G1 X148.041 Y118.464 E8.93410
G1 X148.022 Y118.521 E8.94131
G1 X147.979 Y118.642 E8.95672
G1 X147.946 Y118.725 E8.96744
G1 X147.926 Y118.771 E8.97346
G1 X147.873 Y118.886 E8.98865
G1 X147.837 Y118.959 E8.99842
G1 X147.806 Y119.018 E9.00642
G1 X147.740 Y119.134 E9.02243
G1 X147.703 Y119.195 E9.03099
G1 X147.675 Y119.239 E9.03725
G1 X147.615 Y119.327 E9.05003
G1 X147.553 Y119.413 E9.06275
G1 X147.104 Y119.998 E9.15125
G1 X146.224 Y121.112 E9.32161
G1 X144.534 Y123.379 E9.66092
G1 X142.909 Y125.694 E10.00033
G1 X141.350 Y128.054 E10.33974
G1 X139.858 Y130.457 E10.67916
G1 X138.435 Y132.901 E11.01853
G1 X138.367 Y133.027 E11.03571
G1 X137.740 Y134.134 E11.18838
G1 X137.703 Y134.196 E11.19705
G1 X137.675 Y134.239 E11.20320
G1 X137.613 Y134.330 E11.21642
G1 X137.562 Y134.401 E11.22691
G1 X137.499 Y134.483 E11.23932
G1 X137.455 Y134.537 E11.24767
G1 X137.365 Y134.642 E11.26427
G1 X137.261 Y134.750 E11.28226
G1 X137.191 Y134.820 E11.29414
G1 X137.167 Y134.842 E11.29805
G1 X137.083 Y134.916 E11.31148
G1 X137.005 Y134.981 E11.32367
G1 X136.916 Y135.051 E11.33725
G1 X136.875 Y135.081 E11.34335
G1 X136.769 Y135.155 E11.35886
G1 X136.742 Y135.173 E11.36276
G1 X136.636 Y135.239 E11.37774
G1 X136.572 Y135.276 E11.38661
G1 X136.494 Y135.319 E11.39730
G1 X136.421 Y135.356 E11.40712
G1 X136.315 Y135.407 E11.42124
G1 X136.228 Y135.445 E11.43263
G1 X136.189 Y135.461 E11.43769
G1 X136.059 Y135.510 E11.45436
G1 X136.006 Y135.528 E11.46108
G1 X135.916 Y135.556 E11.47239
G1 X135.832 Y135.580 E11.48287
G1 X135.755 Y135.599 E11.49239
G1 X135.656 Y135.622 E11.50458
G1 X135.563 Y135.640 E11.51595
G1 X135.464 Y135.656 E11.52798
G1 X135.404 Y135.665 E11.53526
G1 X135.315 Y135.674 E11.54600
G1 X134.002 Y135.700 E11.70359
G1 X95.674 Y135.700 E16.30295
G1 X94.931 Y135.690 E16.39212
G1 X94.802 Y135.684 E16.40761
G1 X94.758 Y135.681 E16.41291
G1 X94.623 Y135.668 E16.42918
G1 X94.556 Y135.660 E16.43728
G1 X94.477 Y135.647 E16.44689
G1 X94.366 Y135.627 E16.46042
G1 X94.315 Y135.616 E16.46668
G1 X94.192 Y135.586 E16.48187
G1 X94.134 Y135.571 E16.48906
G1 X94.036 Y135.541 E16.50136
G1 X93.979 Y135.522 E16.50857
G1 X93.858 Y135.479 E16.52398
G1 X93.773 Y135.445 E16.53497
G1 X93.729 Y135.426 E16.54072
G1 X93.614 Y135.373 E16.55591
G1 X93.541 Y135.337 E16.56568
G1 X93.482 Y135.306 E16.57368
G1 X93.364 Y135.239 E16.58996
G1 X93.301 Y135.201 E16.59879
G1 X93.261 Y135.175 E16.60452
G1 X93.170 Y135.113 E16.61773
G1 X93.087 Y135.053 E16.63002
G1 X93.015 Y134.998 E16.64089
G1 X92.963 Y134.955 E16.64899
G1 X92.868 Y134.874 E16.66397
G1 X92.839 Y134.847 E16.66873
G1 X92.750 Y134.761 E16.68358
G1 X92.680 Y134.691 E16.69546
G1 X92.652 Y134.660 E16.70047
G1 X92.575 Y134.572 E16.71450
G1 X92.519 Y134.505 E16.72498
G1 X92.430 Y134.391 E16.74233
G1 X92.419 Y134.375 E16.74466
G1 X92.345 Y134.269 E16.76018
G1 X92.327 Y134.242 E16.76407
G1 X92.254 Y134.125 E16.78062
G1 X92.151 Y133.946 E16.80540
G1 X90.931 Y131.779 E17.10382
G1 X89.475 Y129.354 E17.44324
G1 X87.951 Y126.972 E17.78258
G1 X86.360 Y124.633 E18.12204
G1 X84.703 Y122.340 E18.46152
G1 X83.104 Y120.249 E18.77740
G1 X82.445 Y119.410 E18.90543
G1 X82.419 Y119.375 E18.91066
G1 X82.339 Y119.261 E18.92737
G1 X82.327 Y119.242 E18.93007
G1 X82.256 Y119.128 E18.94618
G1 X82.221 Y119.068 E18.95452
G1 X82.174 Y118.981 E18.96638
G1 X82.144 Y118.921 E18.97443
G1 X82.093 Y118.815 E18.98855
G1 X82.055 Y118.728 E18.99994
G1 X82.039 Y118.689 E19.00500
G1 X81.990 Y118.559 E19.02167
G1 X81.972 Y118.506 E19.02839
G1 X81.944 Y118.416 E19.03970
G1 X81.918 Y118.324 E19.05117
G1 X81.901 Y118.255 E19.05970
G1 X81.878 Y118.156 E19.07190
G1 X81.860 Y118.063 E19.08326
G1 X81.844 Y117.964 E19.09530
G1 X81.835 Y117.904 E19.10258
G1 X81.826 Y117.813 E19.11355
G1 X81.800 Y116.481 E19.27342
G1 X81.800 Y108.162 E20.27170
G1 X81.810 Y107.432 E20.35931
G1 X81.816 Y107.303 E20.37481
G1 X81.819 Y107.259 E20.38010
G1 X81.832 Y107.124 E20.39637
G1 X81.841 Y107.054 E20.40484
G1 X81.853 Y106.974 E20.41455
G1 X81.872 Y106.870 E20.42724
G1 X81.884 Y106.816 E20.43388
G1 X81.914 Y106.693 E20.44907
G1 X81.929 Y106.635 E20.45626
G1 X81.959 Y106.537 E20.46856
G1 X81.978 Y106.480 E20.47577
G1 X82.021 Y106.359 E20.49118
G1 X82.054 Y106.276 E20.50189
G1 X82.074 Y106.230 E20.50791
G1 X82.130 Y106.109 E20.52391
G1 X82.163 Y106.042 E20.53287
G1 X82.194 Y105.983 E20.54087
G1 X82.260 Y105.867 E20.55689
G1 X82.297 Y105.805 E20.56555
G1 X82.325 Y105.762 E20.57171
G1 X82.387 Y105.671 E20.58492
G1 X82.447 Y105.588 E20.59721
G1 X82.923 Y104.968 E20.69101
G1 X83.776 Y103.889 E20.85606
G1 X85.466 Y101.622 E21.19538
G1 X87.091 Y99.307 E21.53479
G1 X88.650 Y96.947 E21.87420
G1 X90.142 Y94.544 E22.21362
G1 X91.565 Y92.100 E22.55299
G1 X91.639 Y91.963 E22.57168
G1 X92.260 Y90.867 E22.72284
G1 X92.297 Y90.805 E22.73150
G1 X92.325 Y90.762 E22.73766
G1 X92.387 Y90.671 E22.75088
G1 X92.447 Y90.588 E22.76317
G1 X92.502 Y90.516 E22.77404
G1 X92.545 Y90.464 E22.78213
G1 X92.637 Y90.357 E22.79907
G1 X92.652 Y90.340 E22.80179
G1 X92.739 Y90.251 E22.81672
G1 X92.809 Y90.181 E22.82860
G1 X92.833 Y90.159 E22.83251
G1 X92.917 Y90.085 E22.84594
G1 X92.995 Y90.020 E22.85813
G1 X93.092 Y89.944 E22.87292
G1 X93.125 Y89.920 E22.87781
G1 X93.231 Y89.846 E22.89332
G1 X93.262 Y89.825 E22.89782
G1 X93.372 Y89.757 E22.91334
G1 X93.428 Y89.725 E22.92108
G1 X93.509 Y89.680 E22.93220
G1 X93.579 Y89.645 E22.94159
G1 X93.688 Y89.593 E22.95608
G1 X93.772 Y89.556 E22.96709
G1 X93.811 Y89.540 E22.97215
G1 X93.941 Y89.491 E22.98882
G1 X93.994 Y89.473 E22.99554
G1 X94.084 Y89.445 E23.00685
G1 X94.168 Y89.421 E23.01733
G1 X94.245 Y89.402 E23.02685
G1 X94.344 Y89.379 E23.03905
G1 X94.437 Y89.361 E23.05042
G1 X94.536 Y89.345 E23.06245
G1 X94.596 Y89.336 E23.06973
G10
G0 F9000 X95.600 Y93.101
;TYPE:WALL-INNER
G11
G1 F900 X134.400 Y93.100 E27.72573
G1 X134.400 Y108.101 E29.52585
G1 X144.400 Y108.101 E30.72585
G1 X144.400 Y116.900 E31.78173
G1 X134.400 Y116.900 E32.98173
G1 X134.400 Y131.900 E34.78173
G1 X95.600 Y131.900 E39.43773
G1 X95.600 Y116.900 E41.23773
G1 X85.600 Y116.900 E42.43773
G1 X85.600 Y108.101 E43.49361
G1 X95.600 Y108.100 E44.69361
G1 X95.600 Y93.101 E46.49349
G0 F9000 X102.900 Y100.400
G1 F900 X102.900 Y124.600 E49.39749
G1 X127.100 Y124.600 E52.30149
G1 X127.100 Y100.401 E55.20537
G1 X102.900 Y100.400 E58.10937
G0 F9000 X103.300 Y100.800
;TYPE:WALL-OUTER
G1 F900 X103.300 Y124.200 E60.91737
G1 X126.700 Y124.200 E63.72537
G1 X126.700 Y100.801 E66.53325
G1 X103.300 Y100.800 E69.34125
G0 F9000 X95.300 Y107.690
G0 X95.200 Y107.700
G1 F900 X95.200 Y92.701 E71.14113
G1 X134.800 Y92.700 E75.89313
G1 X134.800 Y107.701 E77.69325
G1 X144.800 Y107.701 E78.89325
G1 X144.800 Y117.300 E80.04513
G1 X134.800 Y117.300 E81.24513
G1 X134.800 Y132.300 E83.04513
G1 X95.200 Y132.300 E87.79713
G1 X95.200 Y117.300 E89.59713
G1 X85.200 Y117.300 E90.79713
G1 X85.200 Y107.701 E91.94901
G1 X95.200 Y107.700 E93.14901
G0 F9000 X95.228 Y108.239
;TYPE:SKIN
G1 F900 X102.759 Y115.770 E94.42706
G0 F9000 X102.759 Y115.204
G1 F900 X95.739 Y108.184 E95.61840
G0 F9000 X95.739 Y107.618
G1 F900 X102.759 Y114.638 E96.80973
G0 F9000 X102.759 Y114.073
G1 F900 X95.739 Y107.053 E98.00106
G0 F9000 X95.739 Y106.487
G1 F900 X102.759 Y113.507 E99.19240
G0 F9000 X102.759 Y112.941
G1 F900 X95.739 Y105.921 E100.38373
G0 F9000 X95.739 Y105.356
G1 F900 X102.759 Y112.376 E101.57506
G0 F9000 X102.759 Y111.810
G1 F900 X95.739 Y104.790 E102.76640
G0 F9000 X95.739 Y104.224
G1 F900 X102.759 Y111.244 E103.95773
G0 F9000 X102.759 Y110.679
G1 F900 X95.739 Y103.659 E105.14906
G0 F9000 X95.739 Y103.093
G1 F900 X102.759 Y110.113 E106.34040
G0 F9000 X102.759 Y109.547
G1 F900 X95.739 Y102.527 E107.53173
G0 F9000 X95.739 Y101.961
G1 F900 X102.759 Y108.982 E108.72315
G0 F9000 X102.759 Y108.416
G1 F900 X95.739 Y101.396 E109.91448
G0 F9000 X95.739 Y100.830
G1 F900 X102.759 Y107.850 E111.10582
G0 F9000 X102.759 Y107.285
G1 F900 X95.739 Y100.264 E112.29724
G0 F9000 X95.739 Y99.699
G1 F900 X102.759 Y106.719 E113.48857
G0 F9000 X102.759 Y106.153
G1 F900 X95.739 Y99.133 E114.67990
G0 F9000 X95.739 Y98.567
G1 F900 X102.759 Y105.588 E115.87132
G0 F9000 X102.759 Y105.022
G1 F900 X95.739 Y98.002 E117.06265
G0 F9000 X95.739 Y97.436
G1 F900 X102.759 Y104.456 E118.25399
G0 F9000 X102.759 Y103.890
G1 F900 X95.739 Y96.870 E119.44532
G0 F9000 X95.739 Y96.305
G1 F900 X102.759 Y103.325 E120.63665
G0 F9000 X102.759 Y102.759
G1 F900 X95.739 Y95.739 E121.82799
G0 F9000 X95.739 Y95.173
G1 F900 X102.759 Y102.193 E123.01932
G0 F9000 X102.759 Y101.628
G1 F900 X95.739 Y94.608 E124.21066
G0 F9000 X95.739 Y94.042
G1 F900 X102.759 Y101.062 E125.40199
G0 F9000 X102.759 Y100.496
G1 F900 X95.739 Y93.476 E126.59332
G0 F9000 X96.068 Y93.240
G1 F900 X103.088 Y100.259 E127.78457
G0 F9000 X103.654 Y100.259
G1 F900 X96.634 Y93.240 E128.97582
G0 F9000 X97.200 Y93.240
G1 F900 X104.219 Y100.259 E130.16698
G0 F9000 X104.785 Y100.259
G1 F900 X97.765 Y93.240 E131.35823
G0 F9000 X98.331 Y93.240
G1 F900 X105.351 Y100.259 E132.54948
G0 F9000 X105.916 Y100.259
G1 F900 X98.897 Y93.240 E133.74064
G0 F9000 X99.463 Y93.240
G1 F900 X106.482 Y100.259 E134.93181
G0 F9000 X107.048 Y100.259
G1 F900 X100.028 Y93.240 E136.12306
G0 F9000 X100.594 Y93.240
G1 F900 X107.613 Y100.259 E137.31422
G0 F9000 X108.179 Y100.259
G1 F900 X101.160 Y93.240 E138.50538
G0 F9000 X101.725 Y93.240
G1 F900 X108.745 Y100.259 E139.69663
G0 F9000 X109.310 Y100.259
G1 F900 X102.291 Y93.240 E140.88780
G0 F9000 X102.857 Y93.240
G1 F900 X109.876 Y100.259 E142.07896
G0 F9000 X110.442 Y100.259
G1 F900 X103.422 Y93.240 E143.27021
G0 F9000 X103.988 Y93.240
G1 F900 X111.007 Y100.259 E144.46137
G0 F9000 X111.573 Y100.259
G1 F900 X104.554 Y93.240 E145.65254
G0 F9000 X105.119 Y93.240
G1 F900 X112.139 Y100.259 E146.84379
G0 F9000 X112.705 Y100.259
G1 F900 X105.685 Y93.240 E148.03503
G0 F9000 X106.251 Y93.240
G1 F900 X113.270 Y100.259 E149.22620
G0 F9000 X113.836 Y100.259
G1 F900 X106.816 Y93.240 E150.41745
G0 F9000 X107.382 Y93.240
G1 F900 X114.402 Y100.259 E151.60870
G0 F9000 X114.967 Y100.259
G1 F900 X107.948 Y93.240 E152.79986
G0 F9000 X108.514 Y93.240
G1 F900 X115.533 Y100.259 E153.99102
G0 F9000 X116.099 Y100.259
G1 F900 X109.079 Y93.240 E155.18227
G0 F9000 X109.645 Y93.240
G1 F900 X116.664 Y100.259 E156.37344
G0 F9000 X117.230 Y100.259
G1 F900 X110.211 Y93.240 E157.56460
G0 F9000 X110.776 Y93.240
G1 F900 X117.796 Y100.259 E158.75585
G0 F9000 X118.361 Y100.259
G1 F900 X111.342 Y93.240 E159.94701
G0 F9000 X111.908 Y93.240
G1 F900 X118.927 Y100.259 E161.13818
G0 F9000 X119.493 Y100.259
G1 F900 X112.473 Y93.240 E162.32942
G0 F9000 X113.039 Y93.240
G1 F900 X120.058 Y100.259 E163.52059
G0 F9000 X120.624 Y100.259
G1 F900 X113.605 Y93.240 E164.71175
G0 F9000 X114.170 Y93.240
G1 F900 X121.190 Y100.259 E165.90300
G0 F9000 X121.756 Y100.259
G1 F900 X114.736 Y93.240 E167.09425
G0 F9000 X115.302 Y93.240
G1 F900 X122.321 Y100.259 E168.28541
G0 F9000 X122.887 Y100.259
G1 F900 X115.867 Y93.240 E169.47666
G0 F9000 X116.433 Y93.240
G1 F900 X123.453 Y100.259 E170.66791
G0 F9000 X124.018 Y100.259
G1 F900 X116.999 Y93.240 E171.85907
G0 F9000 X117.564 Y93.240
G1 F900 X124.584 Y100.259 E173.05032
G0 F9000 X125.150 Y100.259
G1 F900 X118.130 Y93.240 E174.24157
G0 F9000 X118.696 Y93.240
G1 F900 X125.715 Y100.259 E175.43274
G0 F9000 X126.281 Y100.259
G1 F900 X119.262 Y93.240 E176.62390
G0 F9000 X119.827 Y93.240
G1 F900 X126.847 Y100.259 E177.81515
G0 F9000 X127.238 Y100.651
G1 F900 X134.259 Y107.672 E179.00665
G0 F9000 X134.259 Y108.238
G1 F900 X127.238 Y101.217 E180.19815
G0 F9000 X127.238 Y101.783
G1 F900 X142.215 Y116.759 E182.73975
G0 F9000 X142.781 Y116.759
G1 F900 X134.262 Y108.241 E184.18539
G0 F9000 X134.828 Y108.241
G1 F900 X143.346 Y116.759 E185.63094
G0 F9000 X143.912 Y116.759
G1 F900 X135.393 Y108.241 E187.07658
G0 F9000 X135.959 Y108.241
G1 F900 X144.259 Y116.541 E188.48513
G0 F9000 X144.259 Y115.975
G1 F900 X136.525 Y108.241 E189.79764
G0 F9000 X137.091 Y108.241
G1 F900 X144.259 Y115.409 E191.01409
G0 F9000 X144.259 Y114.844
G1 F900 X137.656 Y108.241 E192.13465
G0 F9000 X138.222 Y108.241
G1 F900 X144.259 Y114.278 E193.15917
G0 F9000 X144.259 Y113.712
G1 F900 X138.788 Y108.241 E194.08763
G0 F9000 X139.353 Y108.241
G1 F900 X144.259 Y113.146 E194.92012
G0 F9000 X144.259 Y112.581
G1 F900 X139.919 Y108.241 E195.65664
G0 F9000 X140.485 Y108.241
G1 F900 X144.259 Y112.015 E196.29711
G0 F9000 X144.259 Y111.449
G1 F900 X141.050 Y108.241 E196.84161
G0 F9000 X141.616 Y108.241
G1 F900 X144.259 Y110.884 E197.29014
G0 F9000 X144.259 Y110.318
G1 F900 X142.182 Y108.241 E197.64262
G0 F9000 X142.747 Y108.241
G1 F900 X144.259 Y109.752 E197.89913
G0 F9000 X144.259 Y109.187
G1 F900 X143.313 Y108.241 E198.05967
G0 F9000 X143.879 Y108.241
G1 F900 X144.259 Y108.621 E198.12416
G0 F9000 X141.649 Y116.759
G1 F900 X127.238 Y102.348 E200.56979
G0 F9000 X127.238 Y102.914
G1 F900 X141.084 Y116.759 E202.91945
G0 F9000 X140.518 Y116.759
G1 F900 X127.238 Y103.480 E205.17305
G0 F9000 X127.238 Y104.045
G1 F900 X139.952 Y116.759 E207.33069
G0 F9000 X139.387 Y116.759
G1 F900 X127.238 Y104.611 E209.39236
G0 F9000 X127.238 Y105.177
G1 F900 X138.821 Y116.759 E211.35797
G0 F9000 X138.255 Y116.759
G1 F900 X127.238 Y105.742 E213.22762
G0 F9000 X127.238 Y106.308
G1 F900 X137.689 Y116.759 E215.00121
G0 F9000 X137.124 Y116.759
G1 F900 X127.238 Y106.874 E216.67884
G0 F9000 X127.238 Y107.439
G1 F900 X136.558 Y116.759 E218.26050
G0 F9000 X135.992 Y116.759
G1 F900 X127.238 Y108.005 E219.74610
G0 F9000 X127.238 Y108.571
