;FLAVOR:UltiGCode
;TIME:3986
;MATERIAL:5793
;MATERIAL2:0
;Generated with Cura_SteamEngine DEV
;LAYER:0
G0 X143.212 Y56.852 Z0.300
;TYPE:SKIRT
G11
G1 F900 X144.888 Y59.130 E0.33937
G1 X146.628 Y61.360 E0.67880
G1 X146.875 Y61.662 E0.72561
G1 X147.206 Y62.083 E0.78988
G1 X147.224 Y62.107 E0.79348
G1 X147.304 Y62.222 E0.81029
G1 X147.322 Y62.249 E0.81418
G1 X147.393 Y62.363 E0.83030
G1 X147.421 Y62.411 E0.83697
G1 X147.470 Y62.500 E0.84916
G1 X147.505 Y62.570 E0.85855
G1 X147.556 Y62.676 E0.87267
G1 X147.594 Y62.763 E0.88406
G1 X147.610 Y62.802 E0.88912
G1 X147.659 Y62.932 E0.90579
G1 X147.677 Y62.985 E0.91251
G1 X147.705 Y63.075 E0.92382
G1 X147.728 Y63.156 E0.93392
G1 X147.748 Y63.236 E0.94382
G1 X147.768 Y63.323 E0.95453
G1 X147.786 Y63.412 E0.96542
G1 X147.805 Y63.527 E0.97941
G1 X147.814 Y63.587 E0.98669
G1 X147.823 Y63.676 E0.99743
G1 X147.849 Y64.989 E1.15502
G1 X147.849 Y73.297 E2.15198
G1 X147.839 Y74.060 E2.24355
G1 X147.833 Y74.189 E2.25904
G1 X147.831 Y74.223 E2.26313
G1 X147.817 Y74.368 E2.28061
G1 X147.809 Y74.435 E2.28871
G1 X147.796 Y74.514 E2.29831
G1 X147.777 Y74.622 E2.31147
G1 X147.769 Y74.659 E2.31602
G1 X147.738 Y74.788 E2.33194
G1 X147.720 Y74.857 E2.34049
G1 X147.690 Y74.955 E2.35279
G1 X147.671 Y75.012 E2.36000
G1 X147.628 Y75.133 E2.37541
G1 X147.595 Y75.216 E2.38613
G1 X147.575 Y75.262 E2.39215
G1 X147.522 Y75.377 E2.40734
G1 X147.486 Y75.450 E2.41711
G1 X147.455 Y75.509 E2.42511
G1 X147.389 Y75.625 E2.44113
G1 X147.352 Y75.686 E2.44969
G1 X147.324 Y75.730 E2.45595
G1 X147.264 Y75.818 E2.46873
G1 X147.202 Y75.904 E2.48145
G1 X147.143 Y75.981 E2.49309
G1 X146.927 Y76.247 E2.53421
G1 X145.175 Y78.468 E2.87367
G1 X143.487 Y80.737 E3.21303
G1 X141.864 Y83.053 E3.55240
G1 X140.307 Y85.415 E3.89188
G1 X138.817 Y87.819 E4.23128
G1 X137.548 Y89.995 E4.53356
G1 X137.394 Y90.266 E4.57096
G1 X137.352 Y90.337 E4.58086
G1 X137.324 Y90.380 E4.58702
G1 X137.262 Y90.471 E4.60023
G1 X137.211 Y90.542 E4.61072
G1 X137.148 Y90.624 E4.62313
G1 X137.104 Y90.678 E4.63149
G1 X137.014 Y90.783 E4.64808
G1 X136.910 Y90.891 E4.66608
G1 X136.840 Y90.961 E4.67796
G1 X136.816 Y90.983 E4.68186
G1 X136.732 Y91.057 E4.69530
G1 X136.654 Y91.122 E4.70748
G1 X136.565 Y91.192 E4.72107
G1 X136.524 Y91.222 E4.72716
G1 X136.418 Y91.296 E4.74268
G1 X136.391 Y91.314 E4.74657
G1 X136.285 Y91.380 E4.76156
G1 X136.221 Y91.417 E4.77043
G1 X136.143 Y91.460 E4.78111
G1 X136.070 Y91.497 E4.79094
G1 X135.964 Y91.548 E4.80505
G1 X135.877 Y91.586 E4.81644
G1 X135.838 Y91.602 E4.82150
G1 X135.708 Y91.651 E4.83817
G1 X135.655 Y91.669 E4.84489
G1 X135.565 Y91.697 E4.85620
G1 X135.481 Y91.721 E4.86668
G1 X135.404 Y91.740 E4.87620
G1 X135.305 Y91.763 E4.88840
G1 X135.212 Y91.781 E4.89976
G1 X135.113 Y91.797 E4.91180
G1 X135.053 Y91.806 E4.91908
G1 X134.962 Y91.815 E4.93005
G1 X134.965 Y91.815 E4.93041
G1 X133.651 Y91.841 E5.08812
G1 X96.025 Y91.841 E9.60324
G1 X95.282 Y91.831 E9.69241
G1 X95.153 Y91.825 E9.70791
G1 X95.109 Y91.822 E9.71320
G1 X94.974 Y91.809 E9.72948
G1 X94.907 Y91.801 E9.73757
G1 X94.828 Y91.788 E9.74718
G1 X94.717 Y91.768 E9.76071
G1 X94.666 Y91.757 E9.76698
G1 X94.543 Y91.727 E9.78217
G1 X94.485 Y91.712 E9.78936
G1 X94.387 Y91.682 E9.80166
G1 X94.330 Y91.663 E9.80887
G1 X94.209 Y91.620 E9.82428
G1 X94.124 Y91.586 E9.83526
G1 X94.080 Y91.567 E9.84101
G1 X93.965 Y91.514 E9.85621
G1 X93.892 Y91.478 E9.86597
G1 X93.833 Y91.447 E9.87397
G1 X93.715 Y91.380 E9.89026
G1 X93.652 Y91.342 E9.89908
G1 X93.612 Y91.316 E9.90481
G1 X93.521 Y91.254 E9.91802
G1 X93.438 Y91.194 E9.93031
G1 X93.366 Y91.139 E9.94119
G1 X93.314 Y91.096 E9.94928
G1 X93.219 Y91.015 E9.96426
G1 X93.190 Y90.988 E9.96902
G1 X93.101 Y90.902 E9.98387
G1 X93.031 Y90.832 E9.99575
G1 X93.009 Y90.808 E9.99966
G1 X92.926 Y90.713 E10.01479
G1 X92.870 Y90.646 E10.02527
G1 X92.781 Y90.532 E10.04263
G1 X92.770 Y90.516 E10.04496
G1 X92.696 Y90.410 E10.06047
G1 X92.678 Y90.383 E10.06437
G1 X92.605 Y90.266 E10.08091
G1 X91.862 Y88.988 E10.25831
G1 X91.855 Y88.992 E10.25928
G1 X91.421 Y88.236 E10.36388
G1 X89.944 Y85.824 E10.70328
G1 X88.399 Y83.455 E11.04267
G1 X86.788 Y81.130 E11.38210
G1 X85.112 Y78.852 E11.72148
G1 X83.372 Y76.622 E12.06090
G1 X83.097 Y76.285 E12.11309
G1 X82.794 Y75.899 E12.17198
G1 X82.770 Y75.866 E12.17688
G1 X82.690 Y75.752 E12.19359
G1 X82.678 Y75.733 E12.19629
G1 X82.607 Y75.619 E12.21240
G1 X82.572 Y75.559 E12.22074
G1 X82.525 Y75.472 E12.23260
G1 X82.495 Y75.412 E12.24065
G1 X82.444 Y75.306 E12.25477
G1 X82.406 Y75.219 E12.26616
G1 X82.390 Y75.180 E12.27122
G1 X82.341 Y75.050 E12.28789
G1 X82.323 Y74.997 E12.29461
G1 X82.293 Y74.902 E12.30656
G1 X82.271 Y74.823 E12.31640
G1 X82.252 Y74.746 E12.32592
G1 X82.229 Y74.647 E12.33812
G1 X82.211 Y74.554 E12.34949
G1 X82.195 Y74.455 E12.36152
G1 X82.186 Y74.395 E12.36880
G1 X82.177 Y74.304 E12.37977
G1 X82.151 Y72.972 E12.53964
G1 X82.151 Y64.652 E13.53804
G1 X82.161 Y63.922 E13.62565
G1 X82.167 Y63.793 E13.64115
G1 X82.170 Y63.749 E13.64644
G1 X82.183 Y63.614 E13.66272
G1 X82.191 Y63.547 E13.67081
G1 X82.205 Y63.461 E13.68127
G1 X82.223 Y63.360 E13.69358
G1 X82.235 Y63.306 E13.70022
G1 X82.265 Y63.183 E13.71541
G1 X82.280 Y63.125 E13.72260
G1 X82.314 Y63.013 E13.73665
G1 X82.329 Y62.970 E13.74211
G1 X82.372 Y62.849 E13.75752
G1 X82.405 Y62.766 E13.76824
G1 X82.425 Y62.720 E13.77426
G1 X82.478 Y62.605 E13.78945
G1 X82.514 Y62.532 E13.79922
G1 X82.545 Y62.473 E13.80722
G1 X82.611 Y62.357 E13.82323
G1 X82.648 Y62.295 E13.83190
G1 X82.676 Y62.252 E13.83805
G1 X82.738 Y62.161 E13.85127
G1 X82.798 Y62.078 E13.86356
G1 X82.859 Y61.998 E13.87563
G1 X83.073 Y61.735 E13.91632
G1 X84.825 Y59.514 E14.25578
G1 X86.513 Y57.245 E14.59514
G1 X88.136 Y54.929 E14.93451
G1 X89.693 Y52.567 E15.27399
G1 X91.183 Y50.163 E15.61339
G1 X92.452 Y47.987 E15.91567
G1 X92.606 Y47.716 E15.95307
G1 X92.648 Y47.645 E15.96297
G1 X92.676 Y47.602 E15.96913
G1 X92.750 Y47.494 E15.98484
G1 X92.798 Y47.428 E15.99463
G1 X92.853 Y47.356 E16.00550
G1 X92.896 Y47.304 E16.01360
G1 X92.974 Y47.213 E16.02798
G1 X93.003 Y47.180 E16.03326
G1 X93.090 Y47.091 E16.04819
G1 X93.160 Y47.021 E16.06007
G1 X93.184 Y46.999 E16.06398
G1 X93.268 Y46.925 E16.07741
G1 X93.346 Y46.860 E16.08959
G1 X93.443 Y46.784 E16.10438
G1 X93.478 Y46.758 E16.10961
G1 X93.582 Y46.686 E16.12479
G1 X93.613 Y46.665 E16.12929
G1 X93.723 Y46.597 E16.14480
G1 X93.779 Y46.565 E16.15254
G1 X93.860 Y46.520 E16.16366
G1 X93.930 Y46.485 E16.17306
G1 X94.036 Y46.434 E16.18717
G1 X94.123 Y46.396 E16.19856
G1 X94.162 Y46.380 E16.20362
G1 X94.292 Y46.331 E16.22029
G1 X94.345 Y46.313 E16.22701
G1 X94.435 Y46.285 E16.23832
G1 X94.519 Y46.261 E16.24880
G1 X94.596 Y46.242 E16.25832
G1 X94.695 Y46.219 E16.27052
G1 X94.788 Y46.201 E16.28188
G1 X94.887 Y46.185 E16.29392
G1 X94.947 Y46.176 E16.30120
G1 X95.038 Y46.167 E16.31217
G1 X95.035 Y46.167 E16.31253
G1 X96.349 Y46.141 E16.47024
G1 X133.975 Y46.141 E20.98536
G1 X134.718 Y46.151 E21.07453
G1 X134.847 Y46.157 E21.09003
G1 X134.891 Y46.160 E21.09532
G1 X135.026 Y46.173 E21.11160
G1 X135.093 Y46.181 E21.11969
G1 X135.172 Y46.194 E21.12930
G1 X135.280 Y46.213 E21.14246
G1 X135.334 Y46.225 E21.14910
G1 X135.457 Y46.255 E21.16429
G1 X135.515 Y46.270 E21.17148
G1 X135.613 Y46.300 E21.18378
G1 X135.668 Y46.318 E21.19072
G1 X135.791 Y46.362 E21.20640
G1 X135.874 Y46.395 E21.21712
G1 X135.920 Y46.415 E21.22314
G1 X136.035 Y46.468 E21.23833
G1 X136.108 Y46.504 E21.24810
G1 X136.167 Y46.535 E21.25610
G1 X136.283 Y46.601 E21.27211
G1 X136.345 Y46.638 E21.28077
G1 X136.387 Y46.665 E21.28677
G1 X136.479 Y46.728 E21.30015
G1 X136.562 Y46.788 E21.31244
G1 X136.634 Y46.843 E21.32331
G1 X136.686 Y46.886 E21.33141
G1 X136.777 Y46.964 E21.34579
G1 X136.810 Y46.993 E21.35106
G1 X136.899 Y47.079 E21.36591
G1 X136.965 Y47.146 E21.37720
G1 X136.991 Y47.174 E21.38178
G1 X137.065 Y47.258 E21.39522
G1 X137.130 Y47.336 E21.40740
G1 X137.206 Y47.433 E21.42219
G1 X137.219 Y47.450 E21.42476
G1 X137.304 Y47.572 E21.44260
G1 X137.322 Y47.599 E21.44649
G1 X137.393 Y47.713 E21.46261
G1 X138.138 Y48.994 E21.64044
G1 X138.145 Y48.990 E21.64140
G1 X138.579 Y49.746 E21.74601
G1 X140.056 Y52.158 E22.08540
G1 X141.601 Y54.527 E22.42480
G1 X143.212 Y56.852 E22.76423
G10
G0 F9000 X144.049 Y64.591
;TYPE:WALL-INNER
G11
G1 F900 X144.049 Y73.391 E23.82023
G1 X134.049 Y73.391 E25.02023
G1 X134.049 Y88.041 E26.77823
G1 X95.951 Y88.041 E31.34999
G1 X95.951 Y73.391 E33.10799
G1 X85.951 Y73.391 E34.30799
G1 X85.951 Y64.591 E35.36399
G1 X95.951 Y64.591 E36.56399
G1 X95.951 Y49.941 E38.32199
G1 X134.049 Y49.941 E42.89375
G1 X134.049 Y64.591 E44.65175
G1 X144.049 Y64.591 E45.85175
G0 F9000 X134.308 Y64.332
G0 X127.100 Y56.891
G1 F900 X102.900 Y56.891 E48.75575
G1 X102.900 Y81.091 E51.65975
G1 X127.100 Y81.091 E54.56375
G1 X127.100 Y56.891 E57.46775
G0 F9000 X126.700 Y57.291
;TYPE:WALL-OUTER
G1 F900 X103.300 Y57.291 E60.27575
G1 X103.300 Y80.691 E63.08375
G1 X126.700 Y80.691 E65.89175
G1 X126.700 Y57.291 E68.69975
G0 F9000 X134.349 Y64.181
G0 X134.449 Y64.191
G1 F900 X144.449 Y64.191 E69.89975
G1 X144.449 Y73.791 E71.05175
G1 X134.449 Y73.791 E72.25175
G1 X134.449 Y88.441 E74.00975
G1 X95.551 Y88.441 E78.67751
G1 X95.551 Y73.791 E80.43551
G1 X85.551 Y73.791 E81.63551
G1 X85.551 Y64.191 E82.78751
G1 X95.551 Y64.191 E83.98751
G1 X95.551 Y49.541 E85.74551
G1 X134.449 Y49.541 E90.41327
G1 X134.449 Y64.191 E92.17127
G0 F9000 X134.309 Y64.730
;TYPE:SKIN
G1 F900 X142.830 Y73.251 E93.61733
G0 F9000 X143.396 Y73.251
G1 F900 X134.875 Y64.730 E95.06339
G0 F9000 X135.441 Y64.730
G1 F900 X143.908 Y73.197 E96.50029
G0 F9000 X143.908 Y72.631
G1 F900 X136.007 Y64.730 E97.84114
G0 F9000 X136.572 Y64.730
G1 F900 X143.908 Y72.066 E99.08610
G0 F9000 X143.908 Y71.500
G1 F900 X137.138 Y64.730 E100.23500
G0 F9000 X137.704 Y64.730
G1 F900 X143.908 Y70.934 E101.28786
G0 F9000 X143.908 Y70.369
G1 F900 X138.269 Y64.730 E102.24483
G0 F9000 X138.835 Y64.730
G1 F900 X143.908 Y69.803 E103.10574
G0 F9000 X143.908 Y69.237
G1 F900 X139.401 Y64.730 E103.87061
G0 F9000 X139.966 Y64.730
G1 F900 X143.908 Y68.672 E104.53959
G0 F9000 X143.908 Y68.106
G1 F900 X140.532 Y64.730 E105.11251
G0 F9000 X141.098 Y64.730
G1 F900 X143.908 Y67.540 E105.58939
G0 F9000 X143.908 Y66.975
G1 F900 X141.663 Y64.730 E105.97037
G0 F9000 X142.229 Y64.730
G1 F900 X143.908 Y66.409 E106.25531
G0 F9000 X143.908 Y65.843
G1 F900 X142.795 Y64.730 E106.44419
G0 F9000 X143.360 Y64.730
G1 F900 X143.908 Y65.277 E106.53711
G0 F9000 X142.264 Y73.251
G1 F900 X127.239 Y58.226 E109.08693
G0 F9000 X127.239 Y58.791
G1 F900 X141.699 Y73.251 E111.54088
G0 F9000 X141.133 Y73.251
G1 F900 X127.239 Y59.357 E113.89877
G0 F9000 X127.239 Y59.923
G1 F900 X140.567 Y73.251 E116.16060
G0 F9000 X140.002 Y73.251
G1 F900 X127.239 Y60.488 E118.32656
G0 F9000 X127.239 Y61.054
G1 F900 X139.436 Y73.251 E120.39646
G0 F9000 X138.870 Y73.251
G1 F900 X127.239 Y61.620 E122.37030
G0 F9000 X127.239 Y62.185
G1 F900 X138.305 Y73.251 E124.24826
G0 F9000 X137.739 Y73.251
G1 F900 X127.239 Y62.751 E126.03017
G0 F9000 X127.239 Y63.317
G1 F900 X137.173 Y73.251 E127.71603
G0 F9000 X136.608 Y73.251
G1 F900 X127.239 Y63.882 E129.30600
G0 F9000 X127.239 Y64.448
G1 F900 X136.042 Y73.251 E130.79992
G0 F9000 X135.476 Y73.251
G1 F900 X127.239 Y65.014 E132.19778
G0 F9000 X127.239 Y65.579
G1 F900 X134.911 Y73.251 E133.49977
G0 F9000 X134.345 Y73.251
G1 F900 X127.239 Y66.145 E134.70569
G0 F9000 X127.239 Y66.711
G1 F900 X133.908 Y73.380 E135.83746
G0 F9000 X133.908 Y73.945
G1 F900 X127.239 Y67.276 E136.96923
G0 F9000 X127.239 Y67.842
G1 F900 X133.908 Y74.511 E138.10100
G0 F9000 X133.908 Y75.077
G1 F900 X127.239 Y68.408 E139.23276
G0 F9000 X127.239 Y68.974
G1 F900 X133.908 Y75.642 E140.36444
G0 F9000 X133.908 Y76.208
G1 F900 X127.239 Y69.539 E141.49621
G0 F9000 X127.239 Y70.105
G1 F900 X133.908 Y76.774 E142.62798
G0 F9000 X133.908 Y77.339
G1 F900 X127.239 Y70.671 E143.75966
G0 F9000 X127.239 Y71.236
G1 F900 X133.908 Y77.905 E144.89143
G0 F9000 X133.908 Y78.471
G1 F900 X127.239 Y71.802 E146.02319
G0 F9000 X127.239 Y72.368
G1 F900 X133.908 Y79.036 E147.15488
G0 F9000 X133.908 Y79.602
G1 F900 X127.239 Y72.933 E148.28664
G0 F9000 X127.239 Y73.499
G1 F900 X133.908 Y80.168 E149.41841
G0 F9000 X133.908 Y80.733
G1 F900 X127.239 Y74.065 E150.55009
G0 F9000 X127.239 Y74.630
G1 F900 X133.908 Y81.299 E151.68186
G0 F9000 X133.908 Y81.865
G1 F900 X127.239 Y75.196 E152.81362
G0 F9000 X127.239 Y75.762
G1 F900 X133.908 Y82.430 E153.94531
G0 F9000 X133.908 Y82.996
G1 F900 X127.239 Y76.327 E155.07707
G0 F9000 X127.239 Y76.893
G1 F900 X133.908 Y83.562 E156.20884
G0 F9000 X133.908 Y84.128
G1 F900 X127.239 Y77.459 E157.34061
G0 F9000 X127.239 Y78.024
G1 F900 X133.908 Y84.693 E158.47237
G0 F9000 X133.908 Y85.259
G1 F900 X127.239 Y78.590 E159.60414
G0 F9000 X127.239 Y79.156
G1 F900 X133.908 Y85.825 E160.73591
G0 F9000 X133.908 Y86.390
G1 F900 X127.239 Y79.722 E161.86759
G0 F9000 X127.239 Y80.287
G1 F900 X133.908 Y86.956 E162.99936
G0 F9000 X133.908 Y87.522
G1 F900 X127.239 Y80.853 E164.13112
G0 F9000 X127.051 Y81.231
G1 F900 X133.720 Y87.900 E165.26289
G0 F9000 X133.155 Y87.900
G1 F900 X126.485 Y81.231 E166.39474
G0 F9000 X125.920 Y81.231
G1 F900 X132.589 Y87.900 E167.52651
G0 F9000 X132.023 Y87.900
G1 F900 X125.354 Y81.231 E168.65828
G0 F9000 X124.788 Y81.231
G1 F900 X131.458 Y87.900 E169.79013
G0 F9000 X130.892 Y87.900
G1 F900 X124.223 Y81.231 E170.92189
G0 F9000 X123.657 Y81.231
G1 F900 X130.326 Y87.900 E172.05366
G0 F9000 X129.761 Y87.900
G1 F900 X123.091 Y81.231 E173.18551
G0 F9000 X122.526 Y81.231
G1 F900 X129.195 Y87.900 E174.31728
G0 F9000 X128.629 Y87.900
G1 F900 X121.960 Y81.231 E175.44905
G0 F9000 X121.394 Y81.231
G1 F900 X128.064 Y87.900 E176.58090
G0 F9000 X127.498 Y87.900
G1 F900 X120.828 Y81.231 E177.71275
G0 F9000 X120.263 Y81.231
G1 F900 X126.932 Y87.900 E178.84452
G0 F9000 X126.367 Y87.900
G1 F900 X119.697 Y81.231 E179.97637
G0 F9000 X119.131 Y81.231
G1 F900 X125.801 Y87.900 E181.10822
G0 F9000 X125.235 Y87.900
G1 F900 X118.566 Y81.231 E182.23999
G0 F9000 X118.000 Y81.231
G1 F900 X124.669 Y87.900 E183.37175
G0 F9000 X124.104 Y87.900
G1 F900 X117.434 Y81.231 E184.50361
G0 F9000 X116.869 Y81.231
G1 F900 X123.538 Y87.900 E185.63537
G0 F9000 X122.972 Y87.900
G1 F900 X116.303 Y81.231 E186.76714
G0 F9000 X115.737 Y81.231
G1 F900 X122.407 Y87.900 E187.89899
G0 F9000 X121.841 Y87.900
G1 F900 X115.172 Y81.231 E189.03076
G0 F9000 X114.606 Y81.231
G1 F900 X121.275 Y87.900 E190.16252
G0 F9000 X120.710 Y87.900
G1 F900 X114.040 Y81.231 E191.29438
G0 F9000 X113.475 Y81.231
G1 F900 X120.144 Y87.900 E192.42614
G0 F9000 X119.578 Y87.900
G1 F900 X112.909 Y81.231 E193.55791
G0 F9000 X112.343 Y81.231
G1 F900 X119.013 Y87.900 E194.68976
G0 F9000 X118.447 Y87.900
G1 F900 X111.778 Y81.231 E195.82153
G0 F9000 X111.212 Y81.231
G1 F900 X117.881 Y87.900 E196.95329
G0 F9000 X117.316 Y87.900
G1 F900 X110.646 Y81.231 E198.08515
G0 F9000 X110.080 Y81.231
G1 F900 X116.750 Y87.900 E199.21700
G0 F9000 X116.184 Y87.900
G1 F900 X109.515 Y81.231 E200.34876
G0 F9000 X108.949 Y81.231
G1 F900 X115.619 Y87.900 E201.48062
G0 F9000 X115.053 Y87.900
G1 F900 X108.383 Y81.231 E202.61247
G0 F9000 X107.818 Y81.231
G1 F900 X114.487 Y87.900 E203.74424
G0 F9000 X113.921 Y87.900
G1 F900 X107.252 Y81.231 E204.87600
G0 F9000 X106.686 Y81.231
G1 F900 X113.356 Y87.900 E206.00785
G0 F9000 X112.790 Y87.900
G1 F900 X106.121 Y81.231 E207.13962
G0 F9000 X105.555 Y81.231
G1 F900 X112.224 Y87.900 E208.27139
G0 F9000 X111.659 Y87.900
G1 F900 X104.989 Y81.231 E209.40324
G0 F9000 X104.424 Y81.231
G1 F900 X111.093 Y87.900 E210.53501
G0 F9000 X110.527 Y87.900
G1 F900 X103.858 Y81.231 E211.66677
G0 F9000 X103.292 Y81.231
G1 F900 X109.962 Y87.900 E212.79862
G0 F9000 X109.396 Y87.900
G1 F900 X96.090 Y74.594 E215.05673
G0 F9000 X96.090 Y75.159
G1 F900 X108.830 Y87.900 E217.21886
G0 F9000 X108.265 Y87.900
G1 F900 X96.090 Y75.725 E219.28503
G0 F9000 X96.090 Y76.291
G1 F900 X107.699 Y87.900 E221.25514
G0 F9000 X107.133 Y87.900
G1 F900 X96.090 Y76.856 E223.12928
G0 F9000 X96.090 Y77.422
G1 F900 X106.568 Y87.900 E224.90746
G0 F9000 X106.002 Y87.900
G1 F900 X96.090 Y77.988 E226.58958
