;FLAVOR:UltiGCode
;TIME:4021
;MATERIAL:5866
;MATERIAL2:0
;Generated with Cura_SteamEngine DEV
;LAYER:0
G0 X136.143 Y102.196 Z0.300
G0 X137.014 Y101.519
;TYPE:SKIRT
G11
G1 F900 X136.910 Y101.627 E0.01799
G1 X136.840 Y101.697 E0.02987
G1 X136.816 Y101.719 E0.03378
G1 X136.732 Y101.793 E0.04721
G1 X136.654 Y101.858 E0.05940
G1 X136.565 Y101.928 E0.07298
G1 X136.524 Y101.958 E0.07908
G1 X136.418 Y102.032 E0.09459
G1 X136.391 Y102.050 E0.09849
G1 X136.285 Y102.116 E0.11347
G1 X136.221 Y102.153 E0.12234
G1 X136.143 Y102.196 E0.13303
G1 X136.070 Y102.233 E0.14285
G1 X135.964 Y102.284 E0.15697
G1 X135.877 Y102.322 E0.16836
G1 X135.838 Y102.338 E0.17342
G1 X135.708 Y102.387 E0.19009
G1 X135.655 Y102.405 E0.19681
G1 X135.565 Y102.433 E0.20812
G1 X135.481 Y102.457 E0.21860
G1 X135.404 Y102.476 E0.22812
G1 X135.305 Y102.499 E0.24031
G1 X135.212 Y102.517 E0.25168
G1 X135.113 Y102.533 E0.26371
G1 X135.053 Y102.542 E0.27100
G1 X134.962 Y102.551 E0.28197
G1 X134.965 Y102.551 E0.28233
G1 X133.651 Y102.577 E0.44004
G1 X96.025 Y102.577 E4.95516
G1 X95.282 Y102.567 E5.04433
G1 X95.153 Y102.561 E5.05982
G1 X95.109 Y102.558 E5.06512
G1 X94.974 Y102.545 E5.08139
G1 X94.907 Y102.537 E5.08949
G1 X94.828 Y102.524 E5.09910
G1 X94.717 Y102.504 E5.11263
G1 X94.666 Y102.493 E5.11889
G1 X94.543 Y102.463 E5.13408
G1 X94.485 Y102.448 E5.14127
G1 X94.387 Y102.418 E5.15357
G1 X94.330 Y102.399 E5.16078
G1 X94.209 Y102.356 E5.17619
G1 X94.124 Y102.322 E5.18718
G1 X94.080 Y102.303 E5.19293
G1 X93.965 Y102.250 E5.20812
G1 X93.892 Y102.214 E5.21789
G1 X93.833 Y102.183 E5.22589
G1 X93.715 Y102.116 E5.24217
G1 X93.652 Y102.078 E5.25100
G1 X93.612 Y102.052 E5.25673
G1 X93.521 Y101.990 E5.26994
G1 X93.438 Y101.930 E5.28223
G1 X93.366 Y101.875 E5.29310
G1 X93.314 Y101.832 E5.30120
G1 X93.219 Y101.751 E5.31618
G1 X93.190 Y101.724 E5.32093
G1 X93.101 Y101.638 E5.33579
G1 X93.031 Y101.568 E5.34767
G1 X93.009 Y101.544 E5.35157
G1 X92.926 Y101.449 E5.36671
G1 X92.870 Y101.382 E5.37719
G1 X92.781 Y101.268 E5.39454
G1 X92.770 Y101.252 E5.39687
G1 X92.696 Y101.146 E5.41239
G1 X92.678 Y101.119 E5.41628
G1 X92.605 Y101.002 E5.43283
G1 X91.862 Y99.724 E5.61022
G1 X91.855 Y99.728 E5.61119
G1 X91.421 Y98.972 E5.71580
G1 X89.944 Y96.560 E6.05519
G1 X88.399 Y94.191 E6.39459
G1 X86.788 Y91.866 E6.73402
G1 X85.112 Y89.588 E7.07339
G1 X83.372 Y87.358 E7.41282
G1 X83.097 Y87.021 E7.46501
G1 X82.794 Y86.635 E7.52390
G1 X82.770 Y86.602 E7.52879
G1 X82.690 Y86.488 E7.54551
G1 X82.678 Y86.469 E7.54820
G1 X82.607 Y86.355 E7.56432
G1 X82.572 Y86.295 E7.57265
G1 X82.525 Y86.208 E7.58452
G1 X82.495 Y86.148 E7.59257
G1 X82.444 Y86.042 E7.60669
G1 X82.406 Y85.955 E7.61808
G1 X82.390 Y85.916 E7.62314
G1 X82.341 Y85.786 E7.63981
G1 X82.323 Y85.733 E7.64653
G1 X82.293 Y85.638 E7.65848
G1 X82.271 Y85.559 E7.66832
G1 X82.252 Y85.482 E7.67784
G1 X82.229 Y85.383 E7.69003
G1 X82.211 Y85.290 E7.70140
G1 X82.195 Y85.191 E7.71344
G1 X82.186 Y85.131 E7.72072
G1 X82.177 Y85.040 E7.73169
G1 X82.151 Y83.708 E7.89156
G1 X82.151 Y75.388 E8.88996
G1 X82.161 Y74.658 E8.97757
G1 X82.167 Y74.529 E8.99306
G1 X82.170 Y74.485 E8.99836
G1 X82.183 Y74.350 E9.01463
G1 X82.191 Y74.283 E9.02273
G1 X82.205 Y74.197 E9.03318
G1 X82.223 Y74.096 E9.04550
G1 X82.235 Y74.042 E9.05213
G1 X82.265 Y73.919 E9.06733
G1 X82.280 Y73.861 E9.07452
G1 X82.314 Y73.749 E9.08856
G1 X82.329 Y73.706 E9.09403
G1 X82.372 Y73.585 E9.10944
G1 X82.405 Y73.502 E9.12015
G1 X82.425 Y73.456 E9.12617
G1 X82.478 Y73.341 E9.14137
G1 X82.514 Y73.268 E9.15114
G1 X82.545 Y73.209 E9.15913
G1 X82.611 Y73.093 E9.17515
G1 X82.648 Y73.031 E9.18381
G1 X82.676 Y72.988 E9.18997
G1 X82.738 Y72.897 E9.20318
G1 X82.798 Y72.814 E9.21547
G1 X82.859 Y72.734 E9.22755
G1 X83.073 Y72.471 E9.26823
G1 X84.825 Y70.250 E9.60770
G1 X86.513 Y67.981 E9.94706
G1 X88.136 Y65.665 E10.28643
G1 X89.693 Y63.303 E10.62591
G1 X91.183 Y60.899 E10.96530
G1 X92.452 Y58.723 E11.26758
G1 X92.606 Y58.452 E11.30499
G1 X92.648 Y58.381 E11.31489
G1 X92.676 Y58.338 E11.32104
G1 X92.750 Y58.230 E11.33675
G1 X92.798 Y58.164 E11.34655
G1 X92.853 Y58.092 E11.35742
G1 X92.896 Y58.040 E11.36552
G1 X92.974 Y57.949 E11.37990
G1 X93.003 Y57.916 E11.38517
G1 X93.090 Y57.827 E11.40011
G1 X93.160 Y57.757 E11.41199
G1 X93.184 Y57.735 E11.41589
G1 X93.268 Y57.661 E11.42933
G1 X93.346 Y57.596 E11.44151
G1 X93.443 Y57.520 E11.45630
G1 X93.478 Y57.494 E11.46153
G1 X93.582 Y57.422 E11.47671
G1 X93.613 Y57.401 E11.48120
G1 X93.723 Y57.333 E11.49672
G1 X93.779 Y57.301 E11.50446
G1 X93.860 Y57.256 E11.51558
G1 X93.930 Y57.221 E11.52497
G1 X94.036 Y57.170 E11.53909
G1 X94.123 Y57.132 E11.55048
G1 X94.162 Y57.116 E11.55554
G1 X94.292 Y57.067 E11.57221
G1 X94.345 Y57.049 E11.57893
G1 X94.435 Y57.021 E11.59024
G1 X94.519 Y56.997 E11.60072
G1 X94.596 Y56.978 E11.61024
G1 X94.695 Y56.955 E11.62243
G1 X94.788 Y56.937 E11.63380
G1 X94.887 Y56.921 E11.64583
G1 X94.947 Y56.912 E11.65312
G1 X95.038 Y56.903 E11.66409
G1 X95.035 Y56.903 E11.66445
G1 X96.349 Y56.877 E11.82216
G1 X133.975 Y56.877 E16.33728
G1 X134.718 Y56.887 E16.42645
G1 X134.847 Y56.893 E16.44194
G1 X134.891 Y56.896 E16.44724
G1 X135.026 Y56.909 E16.46351
G1 X135.093 Y56.917 E16.47161
G1 X135.172 Y56.930 E16.48122
G1 X135.280 Y56.949 E16.49437
G1 X135.334 Y56.961 E16.50101
G1 X135.457 Y56.991 E16.51621
G1 X135.515 Y57.006 E16.52339
G1 X135.613 Y57.036 E16.53569
G1 X135.668 Y57.054 E16.54264
G1 X135.791 Y57.098 E16.55831
G1 X135.874 Y57.131 E16.56903
G1 X135.920 Y57.151 E16.57505
G1 X136.035 Y57.204 E16.59025
G1 X136.108 Y57.240 E16.60001
G1 X136.167 Y57.271 E16.60801
G1 X136.283 Y57.337 E16.62403
G1 X136.345 Y57.374 E16.63269
G1 X136.387 Y57.401 E16.63868
G1 X136.479 Y57.464 E16.65206
G1 X136.562 Y57.524 E16.66435
G1 X136.634 Y57.579 E16.67523
G1 X136.686 Y57.622 E16.68332
G1 X136.777 Y57.700 E16.69770
G1 X136.810 Y57.729 E16.70298
G1 X136.899 Y57.815 E16.71783
G1 X136.965 Y57.882 E16.72911
G1 X136.991 Y57.910 E16.73370
G1 X137.065 Y57.994 E16.74713
G1 X137.130 Y58.072 E16.75932
G1 X137.206 Y58.169 E16.77410
G1 X137.219 Y58.186 E16.77667
G1 X137.304 Y58.308 E16.79451
G1 X137.322 Y58.335 E16.79841
G1 X137.393 Y58.449 E16.81453
G1 X138.138 Y59.730 E16.99235
G1 X138.145 Y59.726 E16.99332
G1 X138.579 Y60.482 E17.09793
G1 X140.056 Y62.894 E17.43732
G1 X141.601 Y65.263 E17.77671
G1 X143.212 Y67.588 E18.11615
G1 X144.888 Y69.866 E18.45552
G1 X146.628 Y72.096 E18.79494
G1 X146.875 Y72.398 E18.84176
G1 X147.206 Y72.819 E18.90602
G1 X147.224 Y72.843 E18.90962
G1 X147.304 Y72.958 E18.92644
G1 X147.322 Y72.985 E18.93033
G1 X147.393 Y73.099 E18.94645
G1 X147.421 Y73.147 E18.95311
G1 X147.470 Y73.236 E18.96531
G1 X147.505 Y73.306 E18.97470
G1 X147.556 Y73.412 E18.98881
G1 X147.594 Y73.499 E19.00020
G1 X147.610 Y73.538 E19.00526
G1 X147.659 Y73.668 E19.02193
G1 X147.677 Y73.721 E19.02865
G1 X147.705 Y73.811 E19.03996
G1 X147.728 Y73.892 E19.05007
G1 X147.748 Y73.972 E19.05996
G1 X147.768 Y74.059 E19.07067
G1 X147.786 Y74.148 E19.08157
G1 X147.805 Y74.263 E19.09556
G1 X147.814 Y74.323 E19.10284
G1 X147.823 Y74.412 E19.11357
G1 X147.849 Y75.725 E19.27116
G1 X147.849 Y84.033 E20.26812
G1 X147.839 Y84.796 E20.35969
G1 X147.833 Y84.925 E20.37519
G1 X147.831 Y84.959 E20.37928
G1 X147.817 Y85.104 E20.39676
G1 X147.809 Y85.171 E20.40485
G1 X147.796 Y85.250 E20.41446
G1 X147.777 Y85.358 E20.42762
G1 X147.769 Y85.395 E20.43216
G1 X147.738 Y85.524 E20.44808
G1 X147.720 Y85.593 E20.45664
G1 X147.690 Y85.691 E20.46894
G1 X147.671 Y85.748 E20.47615
G1 X147.628 Y85.869 E20.49156
G1 X147.595 Y85.952 E20.50228
G1 X147.575 Y85.998 E20.50830
G1 X147.522 Y86.113 E20.52349
G1 X147.486 Y86.186 E20.53326
G1 X147.455 Y86.245 E20.54126
G1 X147.389 Y86.361 E20.55727
G1 X147.352 Y86.422 E20.56583
G1 X147.324 Y86.466 E20.57209
G1 X147.264 Y86.554 E20.58487
G1 X147.202 Y86.640 E20.59759
G1 X147.143 Y86.717 E20.60924
G1 X146.927 Y86.983 E20.65035
G1 X145.175 Y89.204 E20.98981
G1 X143.487 Y91.473 E21.32918
G1 X141.864 Y93.789 E21.66855
G1 X140.307 Y96.151 E22.00803
G1 X138.817 Y98.555 E22.34742
G1 X137.548 Y100.731 E22.64970
G1 X137.394 Y101.002 E22.68711
G1 X137.352 Y101.073 E22.69701
G1 X137.324 Y101.116 E22.70316
G1 X137.262 Y101.207 E22.71638
G1 X137.211 Y101.278 E22.72687
G1 X137.148 Y101.360 E22.73928
G1 X137.104 Y101.414 E22.74764
G1 X137.014 Y101.519 E22.76423
G10
G0 F9000 X134.049 Y98.777
;TYPE:WALL-INNER
G11
G1 F900 X95.951 Y98.777 E27.33599
G1 X95.951 Y84.127 E29.09399
G1 X85.951 Y84.127 E30.29399
G1 X85.951 Y75.327 E31.34999
G1 X95.951 Y75.327 E32.54999
G1 X95.951 Y60.677 E34.30799
G1 X134.049 Y60.677 E38.87975
G1 X134.049 Y75.327 E40.63775
G1 X144.049 Y75.327 E41.83775
G1 X144.049 Y84.127 E42.89375
G1 X134.049 Y84.127 E44.09375
G1 X134.049 Y98.777 E45.85175
G0 F9000 X127.100 Y91.827
G1 F900 X127.100 Y67.627 E48.75575
G1 X102.900 Y67.627 E51.65975
G1 X102.900 Y91.827 E54.56375
G1 X127.100 Y91.827 E57.46775
G0 F9000 X126.700 Y91.427
;TYPE:WALL-OUTER
G1 F900 X126.700 Y68.027 E60.27575
G1 X103.300 Y68.027 E63.08375
G1 X103.300 Y91.427 E65.89175
G1 X126.700 Y91.427 E68.69975
G0 F9000 X134.459 Y84.427
G0 X134.449 Y84.527
G1 F900 X134.449 Y99.177 E70.45775
G1 X95.551 Y99.177 E75.12551
G1 X95.551 Y84.527 E76.88351
G1 X85.551 Y84.527 E78.08351
G1 X85.551 Y74.927 E79.23551
G1 X95.551 Y74.927 E80.43551
G1 X95.551 Y60.277 E82.19351
G1 X134.449 Y60.277 E86.86127
G1 X134.449 Y74.927 E88.61927
G1 X144.449 Y74.927 E89.81927
G1 X144.449 Y84.527 E90.97127
G1 X134.449 Y84.527 E92.17127
G0 F9000 X134.332 Y83.986
;TYPE:SKIN
G1 F900 X127.238 Y76.892 E93.37516
G0 F9000 X127.238 Y76.327
G1 F900 X134.898 Y83.986 E94.67502
G0 F9000 X135.463 Y83.986
G1 F900 X127.238 Y75.761 E96.07085
G0 F9000 X127.238 Y75.195
G1 F900 X136.029 Y83.986 E97.56273
G0 F9000 X136.595 Y83.986
G1 F900 X127.238 Y74.630 E99.15058
G0 F9000 X127.238 Y74.064
G1 F900 X137.161 Y83.986 E100.83449
G0 F9000 X137.726 Y83.986
G1 F900 X127.238 Y73.498 E102.61436
G0 F9000 X127.238 Y72.933
G1 F900 X138.292 Y83.986 E104.49020
G0 F9000 X138.858 Y83.986
G1 F900 X127.238 Y72.367 E106.46210
G0 F9000 X127.238 Y71.801
G1 F900 X139.423 Y83.986 E108.52996
G0 F9000 X139.989 Y83.986
G1 F900 X127.238 Y71.236 E110.69379
G0 F9000 X127.238 Y70.670
G1 F900 X140.555 Y83.986 E112.95368
G0 F9000 X141.120 Y83.986
G1 F900 X127.238 Y70.104 E115.30953
G0 F9000 X127.238 Y69.539
G1 F900 X141.686 Y83.986 E117.76135
G0 F9000 X142.252 Y83.986
G1 F900 X127.238 Y68.973 E120.30923
G0 F9000 X127.238 Y68.407
G1 F900 X133.908 Y75.077 E121.44116
G0 F9000 X134.298 Y75.467
G1 F900 X142.817 Y83.986 E122.88689
G0 F9000 X143.383 Y83.986
G1 F900 X134.864 Y75.467 E124.33261
G0 F9000 X135.430 Y75.467
G1 F900 X143.908 Y83.945 E125.77137
G0 F9000 X143.908 Y83.379
G1 F900 X135.995 Y75.467 E127.11417
G0 F9000 X136.561 Y75.467
G1 F900 X143.908 Y82.814 E128.36100
G0 F9000 X143.908 Y82.248
G1 F900 X137.127 Y75.467 E129.51177
G0 F9000 X137.692 Y75.467
G1 F900 X143.908 Y81.682 E130.56657
G0 F9000 X143.908 Y81.117
G1 F900 X138.258 Y75.467 E131.52541
G0 F9000 X138.824 Y75.467
G1 F900 X143.908 Y80.551 E132.38819
G0 F9000 X143.908 Y79.985
G1 F900 X139.389 Y75.467 E133.15501
G0 F9000 X139.955 Y75.467
G1 F900 X143.908 Y79.420 E133.82586
G0 F9000 X143.908 Y78.854
G1 F900 X140.521 Y75.467 E134.40065
G0 F9000 X141.086 Y75.467
G1 F900 X143.908 Y78.288 E134.87947
G0 F9000 X143.908 Y77.723
G1 F900 X141.652 Y75.467 E135.26233
G0 F9000 X142.218 Y75.467
G1 F900 X143.908 Y77.157 E135.54913
G0 F9000 X143.908 Y76.591
G1 F900 X142.783 Y75.467 E135.73997
G0 F9000 X143.349 Y75.467
G1 F900 X143.908 Y76.025 E135.83475
G0 F9000 X134.308 Y75.068
G0 X133.908 Y74.511
G1 F900 X127.238 Y67.841 E136.96668
G0 F9000 X126.883 Y67.486
G1 F900 X120.214 Y60.817 E138.09845
G0 F9000 X119.648 Y60.817
G1 F900 X126.318 Y67.486 E139.23030
G0 F9000 X125.752 Y67.486
G1 F900 X119.083 Y60.817 E140.36207
G0 F9000 X118.517 Y60.817
G1 F900 X125.186 Y67.486 E141.49384
G0 F9000 X124.621 Y67.486
G1 F900 X117.951 Y60.817 E142.62569
G0 F9000 X117.386 Y60.817
G1 F900 X124.055 Y67.486 E143.75745
G0 F9000 X123.489 Y67.486
G1 F900 X116.820 Y60.817 E144.88922
G0 F9000 X116.254 Y60.817
G1 F900 X122.924 Y67.486 E146.02107
G0 F9000 X122.358 Y67.486
G1 F900 X115.689 Y60.817 E147.15284
G0 F9000 X115.123 Y60.817
G1 F900 X121.792 Y67.486 E148.28461
G0 F9000 X121.227 Y67.486
G1 F900 X114.557 Y60.817 E149.41646
G0 F9000 X113.991 Y60.817
G1 F900 X120.661 Y67.486 E150.54831
G0 F9000 X120.095 Y67.486
G1 F900 X113.426 Y60.817 E151.68008
G0 F9000 X112.860 Y60.817
G1 F900 X119.530 Y67.486 E152.81193
G0 F9000 X118.964 Y67.486
G1 F900 X112.294 Y60.817 E153.94378
G0 F9000 X111.729 Y60.817
G1 F900 X118.398 Y67.486 E155.07555
G0 F9000 X117.832 Y67.486
G1 F900 X111.163 Y60.817 E156.20731
G0 F9000 X110.597 Y60.817
G1 F900 X117.267 Y67.486 E157.33916
G0 F9000 X116.701 Y67.486
G1 F900 X110.032 Y60.817 E158.47093
G0 F9000 X109.466 Y60.817
G1 F900 X116.135 Y67.486 E159.60270
G0 F9000 X115.570 Y67.486
G1 F900 X108.900 Y60.817 E160.73455
G0 F9000 X108.335 Y60.817
G1 F900 X115.004 Y67.486 E161.86632
G0 F9000 X114.438 Y67.486
G1 F900 X107.769 Y60.817 E162.99808
G0 F9000 X107.203 Y60.817
G1 F900 X113.873 Y67.486 E164.12994
G0 F9000 X113.307 Y67.486
G1 F900 X106.638 Y60.817 E165.26170
G0 F9000 X106.072 Y60.817
G1 F900 X112.741 Y67.486 E166.39347
G0 F9000 X112.176 Y67.486
G1 F900 X105.506 Y60.817 E167.52532
G0 F9000 X104.941 Y60.817
G1 F900 X111.610 Y67.486 E168.65709
G0 F9000 X111.044 Y67.486
G1 F900 X104.375 Y60.817 E169.78885
G0 F9000 X103.809 Y60.817
G1 F900 X110.479 Y67.486 E170.92071
G0 F9000 X109.913 Y67.486
G1 F900 X103.243 Y60.817 E172.05256
G0 F9000 X102.678 Y60.817
G1 F900 X109.347 Y67.486 E173.18432
G0 F9000 X108.782 Y67.486
G1 F900 X102.112 Y60.817 E174.31618
G0 F9000 X101.546 Y60.817
G1 F900 X108.216 Y67.486 E175.44803
G0 F9000 X107.650 Y67.486
G1 F900 X100.981 Y60.817 E176.57979
G0 F9000 X100.415 Y60.817
G1 F900 X107.084 Y67.486 E177.71156
G0 F9000 X106.519 Y67.486
G1 F900 X99.849 Y60.817 E178.84341
G0 F9000 X99.284 Y60.817
G1 F900 X105.953 Y67.486 E179.97518
G0 F9000 X105.387 Y67.486
G1 F900 X98.718 Y60.817 E181.10695
G0 F9000 X98.152 Y60.817
G1 F900 X104.822 Y67.486 E182.23880
G0 F9000 X104.256 Y67.486
G1 F900 X97.587 Y60.817 E183.37057
G0 F9000 X97.021 Y60.817
G1 F900 X103.690 Y67.486 E184.50233
G0 F9000 X103.125 Y67.486
G1 F900 X96.455 Y60.817 E185.63418
G0 F9000 X96.090 Y61.017
G1 F900 X102.758 Y67.686 E186.76587
G0 F9000 X102.758 Y68.252
G1 F900 X96.090 Y61.583 E187.89755
G0 F9000 X96.090 Y62.149
G1 F900 X102.758 Y68.817 E189.02915
G0 F9000 X102.758 Y69.383
G1 F900 X96.090 Y62.714 E190.16083
G0 F9000 X96.090 Y63.280
G1 F900 X102.758 Y69.949 E191.29251
G0 F9000 X102.758 Y70.514
G1 F900 X96.090 Y63.846 E192.42411
G0 F9000 X96.090 Y64.411
G1 F900 X102.758 Y71.080 E193.55579
G0 F9000 X102.758 Y71.646
G1 F900 X96.090 Y64.977 E194.68747
G0 F9000 X96.090 Y65.543
G1 F900 X102.758 Y72.211 E195.81907
G0 F9000 X102.758 Y72.777
G1 F900 X96.090 Y66.108 E196.95075
G0 F9000 X96.090 Y66.674
G1 F900 X102.758 Y73.343 E198.08243
G0 F9000 X102.758 Y73.908
G1 F900 X96.090 Y67.240 E199.21403
G0 F9000 X96.090 Y67.805
G1 F900 X102.758 Y74.474 E200.34571
G0 F9000 X102.758 Y75.040
G1 F900 X96.090 Y68.371 E201.47739
G0 F9000 X96.090 Y68.937
G1 F900 X102.758 Y75.605 E202.60899
G0 F9000 X102.758 Y76.171
G1 F900 X96.090 Y69.502 E203.74067
G0 F9000 X96.090 Y70.068
G1 F900 X102.758 Y76.737 E204.87235
G0 F9000 X102.758 Y77.303
G1 F900 X96.090 Y70.634 E206.00404
G0 F9000 X96.090 Y71.199
G1 F900 X102.758 Y77.868 E207.13572
G0 F9000 X102.758 Y78.434
G1 F900 X96.090 Y71.765 E208.26740
G0 F9000 X96.090 Y72.331
G1 F900 X102.758 Y79.000 E209.39908
G0 F9000 X102.758 Y79.565
G1 F900 X96.090 Y72.897 E210.53068
G0 F9000 X96.090 Y73.462
G1 F900 X102.758 Y80.131 E211.66236
G0 F9000 X102.758 Y80.697
G1 F900 X96.090 Y74.028 E212.79404
G0 F9000 X96.090 Y74.594
G1 F900 X102.758 Y81.262 E213.92564
G0 F9000 X102.758 Y81.828
G1 F900 X96.090 Y75.159 E215.05732
G0 F9000 X95.831 Y75.466
G1 F900 X102.758 Y82.394 E216.23296
G0 F9000 X102.758 Y82.959
G1 F900 X95.265 Y75.466 E217.50456
G0 F9000 X94.699 Y75.466
G1 F900 X102.758 Y83.525 E218.87222
G0 F9000 X102.758 Y84.091
G1 F900 X94.134 Y75.466 E220.33585
