;FLAVOR:UltiGCode
;TIME:10261
;MATERIAL:14818
;MATERIAL2:0
;Generated with Cura_SteamEngine DEV
;LAYER:0
G0 X134.002 Y135.700 Z0.300
;TYPE:SKIRT
G11
G1 F900 X127.500 Y135.700 E0.78024
G1 X127.500 Y135.704 E0.78072
G1 X126.600 Y135.707 E0.88872
G1 X126.600 Y135.700 E0.88956
G1 X103.400 Y135.700 E3.67356
G1 X103.400 Y135.704 E3.67404
G1 X102.500 Y135.707 E3.78204
G1 X102.500 Y135.700 E3.78288
G1 X95.674 Y135.700 E4.60200
G1 X94.931 Y135.690 E4.69117
G1 X94.802 Y135.684 E4.70667
G1 X94.758 Y135.681 E4.71196
G1 X94.623 Y135.668 E4.72823
G1 X94.556 Y135.660 E4.73633
G1 X94.477 Y135.647 E4.74594
G1 X94.366 Y135.627 E4.75947
G1 X94.315 Y135.616 E4.76573
G1 X94.192 Y135.586 E4.78093
G1 X94.134 Y135.571 E4.78811
G1 X94.036 Y135.541 E4.80041
G1 X93.979 Y135.522 E4.80762
G1 X93.858 Y135.479 E4.82303
G1 X93.773 Y135.445 E4.83402
G1 X93.729 Y135.426 E4.83977
G1 X93.614 Y135.373 E4.85497
G1 X93.541 Y135.337 E4.86473
G1 X93.477 Y135.303 E4.87343
G1 X93.364 Y135.239 E4.88901
G1 X93.301 Y135.201 E4.89784
G1 X93.258 Y135.173 E4.90400
G1 X93.170 Y135.113 E4.91678
G1 X93.087 Y135.053 E4.92907
G1 X93.015 Y134.998 E4.93994
G1 X92.958 Y134.951 E4.94881
G1 X92.868 Y134.874 E4.96302
G1 X92.837 Y134.845 E4.96811
G1 X92.746 Y134.758 E4.98322
G1 X92.667 Y134.677 E4.99680
G1 X92.658 Y134.667 E4.99841
G1 X92.575 Y134.572 E5.01355
G1 X92.519 Y134.505 E5.02403
G1 X92.430 Y134.391 E5.04139
G1 X92.419 Y134.375 E5.04372
G1 X92.339 Y134.261 E5.06043
G1 X92.327 Y134.242 E5.06313
G1 X92.254 Y134.125 E5.07967
G1 X92.221 Y134.067 E5.08768
G1 X92.174 Y133.981 E5.09944
G1 X92.144 Y133.921 E5.10749
G1 X92.090 Y133.807 E5.12263
G1 X92.055 Y133.728 E5.13300
G1 X92.039 Y133.689 E5.13806
G1 X91.990 Y133.559 E5.15473
G1 X91.972 Y133.506 E5.16144
G1 X91.944 Y133.416 E5.17276
G1 X91.920 Y133.332 E5.18324
G1 X91.901 Y133.255 E5.19276
G1 X91.878 Y133.156 E5.20495
G1 X91.860 Y133.063 E5.21632
G1 X91.844 Y132.964 E5.22835
G1 X91.835 Y132.904 E5.23563
G1 X91.826 Y132.813 E5.24661
G1 X91.800 Y131.481 E5.40648
G1 X91.800 Y125.000 E6.18420
G1 X91.796 Y125.000 E6.18468
G1 X91.793 Y124.100 E6.29268
G1 X91.800 Y124.100 E6.29352
G1 X91.800 Y100.900 E9.07752
G1 X91.796 Y100.900 E9.07800
G1 X91.793 Y100.000 E9.18600
G1 X91.800 Y100.000 E9.18684
G1 X91.800 Y93.161 E10.00752
G1 X91.810 Y92.431 E10.09513
G1 X91.816 Y92.302 E10.11062
G1 X91.819 Y92.258 E10.11592
G1 X91.832 Y92.123 E10.13219
G1 X91.840 Y92.056 E10.14029
G1 X91.854 Y91.970 E10.15074
G1 X91.872 Y91.869 E10.16306
G1 X91.884 Y91.815 E10.16969
G1 X91.914 Y91.692 E10.18489
G1 X91.929 Y91.634 E10.19207
G1 X91.966 Y91.513 E10.20726
G1 X91.980 Y91.473 E10.21234
G1 X92.021 Y91.358 E10.22699
G1 X92.054 Y91.275 E10.23771
G1 X92.079 Y91.217 E10.24529
G1 X92.127 Y91.114 E10.25893
G1 X92.163 Y91.041 E10.26870
G1 X92.194 Y90.982 E10.27669
G1 X92.260 Y90.866 E10.29271
G1 X92.297 Y90.804 E10.30137
G1 X92.325 Y90.761 E10.30753
G1 X92.399 Y90.653 E10.32324
G1 X92.447 Y90.587 E10.33303
G1 X92.506 Y90.510 E10.34467
G1 X92.545 Y90.463 E10.35200
G1 X92.626 Y90.368 E10.36698
G1 X92.652 Y90.339 E10.37166
G1 X92.746 Y90.242 E10.38787
G1 X92.819 Y90.171 E10.40009
G1 X92.833 Y90.158 E10.40238
G1 X92.917 Y90.084 E10.41581
G1 X92.995 Y90.019 E10.42800
G1 X93.100 Y89.937 E10.44398
G1 X93.127 Y89.917 E10.44802
G1 X93.231 Y89.845 E10.46320
G1 X93.262 Y89.824 E10.46769
G1 X93.372 Y89.756 E10.48321
G1 X93.428 Y89.724 E10.49095
G1 X93.509 Y89.679 E10.50207
G1 X93.579 Y89.644 E10.51146
G1 X93.685 Y89.593 E10.52557
G1 X93.772 Y89.555 E10.53697
G1 X93.811 Y89.539 E10.54202
G1 X93.941 Y89.490 E10.55870
G1 X93.994 Y89.472 E10.56541
G1 X94.084 Y89.444 E10.57672
G1 X94.168 Y89.420 E10.58721
G1 X94.245 Y89.401 E10.59672
G1 X94.344 Y89.378 E10.60892
G1 X94.437 Y89.360 E10.62029
G1 X94.536 Y89.344 E10.63232
G1 X94.596 Y89.335 E10.63960
G1 X94.687 Y89.326 E10.65058
G1 X94.684 Y89.326 E10.65094
G1 X95.998 Y89.300 E10.80865
G1 X102.500 Y89.300 E11.58889
G1 X102.500 Y89.296 E11.58937
G1 X103.400 Y89.293 E11.69737
G1 X103.400 Y89.300 E11.69821
G1 X126.600 Y89.300 E14.48221
G1 X126.600 Y89.296 E14.48269
G1 X127.500 Y89.293 E14.59069
G1 X127.500 Y89.300 E14.59153
G1 X134.326 Y89.300 E15.41065
G1 X135.069 Y89.310 E15.49982
G1 X135.198 Y89.316 E15.51531
G1 X135.242 Y89.319 E15.52060
G1 X135.377 Y89.332 E15.53688
G1 X135.444 Y89.340 E15.54498
G1 X135.523 Y89.353 E15.55458
G1 X135.631 Y89.372 E15.56774
G1 X135.685 Y89.384 E15.57438
G1 X135.808 Y89.414 E15.58957
G1 X135.866 Y89.429 E15.59676
G1 X135.964 Y89.459 E15.60906
G1 X136.019 Y89.477 E15.61601
G1 X136.142 Y89.521 E15.63168
G1 X136.225 Y89.554 E15.64240
G1 X136.271 Y89.574 E15.64842
G1 X136.386 Y89.627 E15.66361
G1 X136.459 Y89.663 E15.67338
G1 X136.518 Y89.694 E15.68138
G1 X136.634 Y89.760 E15.69739
G1 X136.696 Y89.797 E15.70606
G1 X136.738 Y89.824 E15.71205
G1 X136.830 Y89.887 E15.72543
G1 X136.912 Y89.946 E15.73755
G1 X136.985 Y90.002 E15.74859
G1 X137.037 Y90.045 E15.75669
G1 X137.128 Y90.123 E15.77107
G1 X137.161 Y90.152 E15.77635
G1 X137.250 Y90.238 E15.79120
G1 X137.316 Y90.305 E15.80248
G1 X137.333 Y90.323 E15.80545
G1 X137.411 Y90.411 E15.81956
G1 X137.470 Y90.482 E15.83064
G1 X137.557 Y90.592 E15.84747
G1 X137.570 Y90.609 E15.85004
G1 X137.655 Y90.731 E15.86788
G1 X137.673 Y90.758 E15.87178
G1 X137.744 Y90.872 E15.88789
G1 X137.772 Y90.920 E15.89456
G1 X137.821 Y91.009 E15.90675
G1 X137.856 Y91.079 E15.91614
G1 X137.907 Y91.185 E15.93026
G1 X137.945 Y91.272 E15.94165
G1 X137.958 Y91.304 E15.94580
G1 X138.010 Y91.441 E15.96338
G1 X138.021 Y91.473 E15.96744
G1 X138.056 Y91.584 E15.98141
G1 X138.079 Y91.665 E15.99151
G1 X138.099 Y91.745 E16.00141
G1 X138.119 Y91.832 E16.01212
G1 X138.137 Y91.921 E16.02302
G1 X138.156 Y92.036 E16.03700
G1 X138.165 Y92.096 E16.04429
G1 X138.174 Y92.185 E16.05502
G1 X138.200 Y93.498 E16.21261
G1 X138.200 Y100.000 E16.99285
G1 X138.204 Y100.000 E16.99333
G1 X138.207 Y100.900 E17.10133
G1 X138.200 Y100.900 E17.10217
G1 X138.200 Y124.100 E19.88617
G1 X138.204 Y124.100 E19.88665
G1 X138.207 Y125.000 E19.99465
G1 X138.200 Y125.000 E19.99549
G1 X138.200 Y131.806 E20.81221
G1 X138.190 Y132.569 E20.90378
G1 X138.184 Y132.698 E20.91928
G1 X138.182 Y132.732 E20.92336
G1 X138.168 Y132.877 E20.94084
G1 X138.160 Y132.944 E20.94894
G1 X138.147 Y133.023 E20.95855
G1 X138.128 Y133.131 E20.97171
G1 X138.120 Y133.168 E20.97625
G1 X138.089 Y133.297 E20.99217
G1 X138.071 Y133.366 E21.00073
G1 X138.041 Y133.464 E21.01303
G1 X138.022 Y133.521 E21.02024
G1 X137.980 Y133.638 E21.03515
G1 X137.946 Y133.725 E21.04636
G1 X137.926 Y133.771 E21.05238
G1 X137.873 Y133.886 E21.06758
G1 X137.843 Y133.947 E21.07573
G1 X137.806 Y134.018 E21.08534
G1 X137.740 Y134.134 E21.10136
G1 X137.703 Y134.195 E21.10992
G1 X137.675 Y134.239 E21.11618
G1 X137.615 Y134.327 E21.12896
G1 X137.562 Y134.401 E21.13988
G1 X137.499 Y134.483 E21.15229
G1 X137.455 Y134.537 E21.16065
G1 X137.365 Y134.642 E21.17724
G1 X137.261 Y134.750 E21.19524
G1 X137.191 Y134.820 E21.20712
G1 X137.167 Y134.842 E21.21102
G1 X137.083 Y134.916 E21.22446
G1 X137.005 Y134.981 E21.23664
G1 X136.916 Y135.051 E21.25023
G1 X136.875 Y135.081 E21.25632
G1 X136.769 Y135.155 E21.27184
G1 X136.742 Y135.173 E21.27573
G1 X136.636 Y135.239 E21.29071
G1 X136.572 Y135.276 E21.29959
G1 X136.494 Y135.319 E21.31027
G1 X136.421 Y135.356 E21.32009
G1 X136.315 Y135.407 E21.33421
G1 X136.228 Y135.445 E21.34560
G1 X136.189 Y135.461 E21.35066
G1 X136.059 Y135.510 E21.36733
G1 X136.006 Y135.528 E21.37405
G1 X135.916 Y135.556 E21.38536
G1 X135.832 Y135.580 E21.39584
G1 X135.755 Y135.599 E21.40536
G1 X135.656 Y135.622 E21.41756
G1 X135.563 Y135.640 E21.42892
G1 X135.464 Y135.656 E21.44096
G1 X135.404 Y135.665 E21.44824
G1 X135.315 Y135.674 E21.45897
G1 X134.002 Y135.700 E21.61656
G10
G0 F9000 X97.400 Y99.400
;TYPE:WALL-INNER
G11
G1 F900 X95.600 Y99.400 E21.83256
G1 X95.600 Y93.100 E22.58856
G1 X101.900 Y93.100 E23.34456
G1 X101.900 Y94.900 E23.56056
G1 X97.400 Y94.900 E24.10056
G1 X97.400 Y99.400 E24.64056
G0 F9000 X97.800 Y99.800
;TYPE:WALL-OUTER
G1 F900 X95.200 Y99.800 E24.95256
G1 X95.200 Y92.700 E25.80456
G1 X102.300 Y92.700 E26.65656
G1 X102.300 Y95.300 E26.96856
G1 X97.800 Y95.300 E27.50856
G1 X97.800 Y99.800 E28.04856
G0 F9000 X96.996 Y99.259
;TYPE:SKIN
G1 F900 X95.739 Y98.002 E28.26188
G0 F9000 X95.739 Y98.567
G1 F900 X96.430 Y99.259 E28.37924
G0 F9000 X95.865 Y99.259
G1 F900 X95.739 Y99.133 E28.40062
G0 F9000 X97.259 Y98.956
G1 F900 X95.739 Y97.436 E28.65857
G0 F9000 X95.739 Y96.870
G1 F900 X97.259 Y98.391 E28.91661
G0 F9000 X97.259 Y97.825
G1 F900 X95.739 Y96.305 E29.17456
G0 F9000 X95.739 Y95.739
G1 F900 X97.259 Y97.259 E29.43251
G0 F9000 X97.259 Y96.694
G1 F900 X95.739 Y95.173 E29.69055
G0 F9000 X95.739 Y94.608
G1 F900 X97.259 Y96.128 E29.94850
G0 F9000 X97.259 Y95.562
G1 F900 X95.739 Y94.042 E30.20646
G0 F9000 X95.739 Y93.476
G1 F900 X97.259 Y94.996 E30.46441
G0 F9000 X97.588 Y94.760
G1 F900 X96.068 Y93.240 E30.72236
G0 F9000 X96.634 Y93.240
G1 F900 X98.154 Y94.760 E30.98031
G0 F9000 X98.719 Y94.760
G1 F900 X97.200 Y93.240 E31.23818
G0 F9000 X97.765 Y93.240
G1 F900 X99.285 Y94.760 E31.49613
G0 F9000 X99.851 Y94.760
G1 F900 X98.331 Y93.240 E31.75409
G0 F9000 X98.897 Y93.240
G1 F900 X100.416 Y94.760 E32.01195
G0 F9000 X100.982 Y94.760
G1 F900 X99.463 Y93.240 E32.26982
G0 F9000 X100.028 Y93.240
G1 F900 X101.548 Y94.760 E32.52777
G0 F9000 X101.759 Y94.405
G1 F900 X100.594 Y93.240 E32.72548
G0 F9000 X101.160 Y93.240
G1 F900 X101.759 Y93.839 E32.82714
G10
G0 F9000 X97.400 Y125.600
;TYPE:WALL-INNER
G11
G1 F900 X97.400 Y130.100 E33.36714
G1 X101.900 Y130.100 E33.90714
G1 X101.900 Y131.900 E34.12314
G1 X95.600 Y131.900 E34.87914
G1 X95.600 Y125.600 E35.63514
G1 X97.400 Y125.600 E35.85114
G0 F9000 X97.800 Y125.200
;TYPE:WALL-OUTER
G1 F900 X97.800 Y129.700 E36.39114
G1 X102.300 Y129.700 E36.93114
G1 X102.300 Y132.300 E37.24314
G1 X95.200 Y132.300 E38.09514
G1 X95.200 Y125.200 E38.94714
G1 X97.800 Y125.200 E39.25914
G0 F9000 X97.259 Y126.109
;TYPE:SKIN
G1 F900 X96.889 Y125.739 E39.32193
G0 F9000 X96.324 Y125.739
G1 F900 X97.259 Y126.675 E39.48069
G0 F9000 X97.259 Y127.241
G1 F900 X95.758 Y125.739 E39.73550
G0 F9000 X95.740 Y126.287
G1 F900 X97.259 Y127.806 E39.99328
G0 F9000 X97.259 Y128.372
G1 F900 X95.740 Y126.852 E40.25115
G0 F9000 X95.740 Y127.418
G1 F900 X97.259 Y128.938 E40.50902
G0 F9000 X97.259 Y129.503
G1 F900 X95.740 Y127.984 E40.76680
G0 F9000 X95.740 Y128.549
G1 F900 X97.259 Y130.069 E41.02467
G0 F9000 X97.429 Y130.239
G1 F900 X98.948 Y131.758 E41.28245
G0 F9000 X98.383 Y131.758
G1 F900 X95.740 Y129.115 E41.73098
G0 F9000 X95.740 Y129.681
G1 F900 X97.817 Y131.758 E42.08346
G0 F9000 X97.251 Y131.758
G1 F900 X95.740 Y130.246 E42.33997
G0 F9000 X95.740 Y130.812
G1 F900 X96.686 Y131.758 E42.50051
G0 F9000 X96.120 Y131.758
G1 F900 X95.740 Y131.378 E42.56500
G0 F9000 X97.995 Y130.239
G1 F900 X99.514 Y131.758 E42.82278
G0 F9000 X100.080 Y131.758
G1 F900 X98.560 Y130.239 E43.08065
G0 F9000 X99.126 Y130.239
G1 F900 X100.646 Y131.758 E43.33852
G0 F9000 X101.211 Y131.758
G1 F900 X99.692 Y130.239 E43.59630
G0 F9000 X100.257 Y130.239
G1 F900 X101.759 Y131.741 E43.85120
G0 F9000 X101.759 Y131.175
G1 F900 X100.823 Y130.239 E44.01004
G0 F9000 X101.389 Y130.239
G1 F900 X101.759 Y130.609 E44.07284
G10
G0 F9000 X128.100 Y131.900
;TYPE:WALL-INNER
G11
G1 F900 X128.100 Y130.100 E44.28884
G1 X132.600 Y130.100 E44.82884
G1 X132.600 Y125.600 E45.36884
G1 X134.400 Y125.600 E45.58484
G1 X134.400 Y131.900 E46.34084
G1 X128.100 Y131.900 E47.09684
G0 F9000 X127.700 Y132.300
;TYPE:WALL-OUTER
G1 F900 X127.700 Y129.700 E47.40884
G1 X132.200 Y129.700 E47.94884
G1 X132.200 Y125.200 E48.48884
G1 X134.800 Y125.200 E48.80084
G1 X134.800 Y132.300 E49.65284
G1 X127.700 Y132.300 E50.50484
G0 F9000 X128.365 Y131.759
;TYPE:SKIN
G1 F900 X128.239 Y131.633 E50.52622
G0 F9000 X128.239 Y131.067
G1 F900 X128.931 Y131.759 E50.64365
G0 F9000 X129.496 Y131.759
G1 F900 X128.239 Y130.502 E50.85697
G0 F9000 X128.542 Y130.239
G1 F900 X130.062 Y131.759 E51.11493
G0 F9000 X130.628 Y131.759
G1 F900 X129.108 Y130.239 E51.37288
G0 F9000 X129.674 Y130.239
G1 F900 X131.193 Y131.759 E51.63075
G0 F9000 X131.759 Y131.759
G1 F900 X130.239 Y130.239 E51.88870
G0 F9000 X130.805 Y130.239
G1 F900 X132.325 Y131.759 E52.14665
G0 F9000 X132.890 Y131.759
G1 F900 X131.371 Y130.239 E52.40452
G0 F9000 X131.936 Y130.239
G1 F900 X133.456 Y131.759 E52.66247
G0 F9000 X134.022 Y131.759
G1 F900 X132.502 Y130.239 E52.92043
G0 F9000 X132.738 Y129.910
G1 F900 X134.259 Y131.430 E53.17846
G0 F9000 X134.259 Y130.864
G1 F900 X132.738 Y129.344 E53.43650
G0 F9000 X132.738 Y128.778
G1 F900 X134.259 Y130.299 E53.69462
G0 F9000 X134.259 Y129.733
G1 F900 X132.738 Y128.213 E53.95266
G0 F9000 X132.738 Y127.647
G1 F900 X134.259 Y129.167 E54.21070
G0 F9000 X134.259 Y128.602
G1 F900 X132.738 Y127.081 E54.46882
G0 F9000 X132.738 Y126.516
G1 F900 X134.259 Y128.036 E54.72686
G0 F9000 X134.259 Y127.470
G1 F900 X132.738 Y125.950 E54.98489
G0 F9000 X133.093 Y125.739
G1 F900 X134.259 Y126.905 E55.18277
G0 F9000 X134.259 Y126.339
G1 F900 X133.659 Y125.739 E55.28459
G10
G0 F9000 X134.400 Y99.400
;TYPE:WALL-INNER
G11
G1 F900 X132.600 Y99.400 E55.50059
G1 X132.600 Y94.900 E56.04059
G1 X128.100 Y94.900 E56.58059
G1 X128.100 Y93.100 E56.79659
G1 X134.400 Y93.100 E57.55259
G1 X134.400 Y99.400 E58.30859
G0 F9000 X134.800 Y99.800
;TYPE:WALL-OUTER
G1 F900 X132.200 Y99.800 E58.62059
G1 X132.200 Y95.300 E59.16059
G1 X127.700 Y95.300 E59.70059
G1 X127.700 Y92.700 E60.01259
G1 X134.800 Y92.700 E60.86459
G1 X134.800 Y99.800 E61.71659
G0 F9000 X134.259 Y99.186
;TYPE:SKIN
G1 F900 X132.738 Y97.666 E61.97463
G0 F9000 X132.738 Y98.231
G1 F900 X133.766 Y99.260 E62.14917
G0 F9000 X133.201 Y99.260
G1 F900 X132.738 Y98.797 E62.22775
G0 F9000 X134.259 Y98.620
G1 F900 X132.738 Y97.100 E62.48579
G0 F9000 X132.738 Y96.534
G1 F900 X134.259 Y98.055 E62.74391
G0 F9000 X134.259 Y97.489
G1 F900 X132.738 Y95.969 E63.00195
G0 F9000 X132.738 Y95.403
G1 F900 X134.259 Y96.923 E63.25998
G0 F9000 X134.259 Y96.358
G1 F900 X132.738 Y94.837 E63.51810
G0 F9000 X132.661 Y94.760
G1 F900 X131.141 Y93.240 E63.77606
G0 F9000 X131.707 Y93.240
G1 F900 X134.259 Y95.792 E64.20915
G0 F9000 X134.259 Y95.226
G1 F900 X132.272 Y93.240 E64.54627
G0 F9000 X132.838 Y93.240
G1 F900 X134.259 Y94.661 E64.78742
G0 F9000 X134.259 Y94.095
G1 F900 X133.404 Y93.240 E64.93252
G0 F9000 X133.969 Y93.240
G1 F900 X134.259 Y93.529 E64.98165
G0 F9000 X132.095 Y94.760
G1 F900 X130.575 Y93.240 E65.23960
G0 F9000 X130.010 Y93.240
G1 F900 X131.529 Y94.760 E65.49747
G0 F9000 X130.963 Y94.760
G1 F900 X129.444 Y93.240 E65.75533
G0 F9000 X128.878 Y93.240
G1 F900 X130.398 Y94.760 E66.01329
G0 F9000 X129.832 Y94.760
G1 F900 X128.313 Y93.240 E66.27115
G0 F9000 X128.238 Y93.731
G1 F900 X129.266 Y94.760 E66.44570
G0 F9000 X128.701 Y94.760
G1 F900 X128.238 Y94.297 E66.52427
G10
G0 F9000 X126.600 Y129.500
;TYPE:SUPPORT
G11
G1 F900 X126.600 Y132.500 E66.88427
G1 X103.400 Y132.500 E69.66827
G1 X103.400 Y129.500 E70.02827
G1 X126.600 Y129.500 E72.81227
G0 F9000 X126.500 Y129.510
G0 X122.636 Y129.600
G0 X122.636 Y129.440
G1 F900 X122.636 Y132.560 E73.18667
G0 F9000 X122.636 Y132.400
G0 X117.304 Y132.400
G0 X117.304 Y132.560
G1 F900 X117.304 Y129.440 E73.56107
G0 F9000 X117.304 Y129.600
G0 X111.972 Y129.600
G0 X111.972 Y129.440
G1 F900 X111.972 Y132.560 E73.93547
G0 F9000 X111.972 Y132.400
G0 X106.640 Y132.400
G0 X106.640 Y132.560
G1 F900 X106.640 Y129.440 E74.30987
G10
G0 F9000 X132.000 Y124.100
G11
G1 F900 X132.000 Y100.900 E77.09387
G1 X135.000 Y100.900 E77.45387
G1 X135.000 Y124.100 E80.23787
G1 X132.000 Y124.100 E80.59787
G0 F9000 X133.300 Y124.160
G1 F900 X133.300 Y100.840 E83.39627
G0 F9000 X131.940 Y101.308
G1 F900 X135.060 Y101.308 E83.77067
G0 F9000 X134.900 Y101.308
G0 X134.900 Y106.640
G0 X135.060 Y106.640
G1 F900 X131.940 Y106.640 E84.14507
G0 F9000 X132.100 Y106.640
G0 X132.100 Y111.972
G0 X131.940 Y111.972
G1 F900 X135.060 Y111.972 E84.51947
G0 F9000 X134.900 Y111.972
G0 X134.900 Y117.304
G0 X135.060 Y117.304
G1 F900 X131.940 Y117.304 E84.89387
G0 F9000 X132.100 Y117.304
G0 X132.100 Y122.636
G0 X131.940 Y122.636
