;FLAVOR:UltiGCode
;TIME:8978
;MATERIAL:13663
;MATERIAL2:0
;Generated with Cura_SteamEngine DEV
;LAYER:0
M107
G0 F9000 X92.746 Y90.242 Z0.300
G0 X94.685 Y89.326
;TYPE:SKIRT
G1 F900 X95.998 Y89.300 E0.15759
G1 X102.451 Y89.300 E0.93195
G1 X103.194 Y89.310 E1.02112
G1 X103.323 Y89.316 E1.03662
G1 X103.367 Y89.319 E1.04191
G1 X104.531 Y89.432 E1.18224
G1 X105.327 Y89.521 E1.27836
G1 X108.145 Y89.755 E1.61768
G1 X110.970 Y89.909 E1.95719
G1 X113.797 Y89.984 E2.29655
G1 X116.625 Y89.978 E2.63591
G1 X119.452 Y89.892 E2.97530
G1 X122.276 Y89.727 E3.31476
G1 X125.692 Y89.419 E3.72634
G1 X126.571 Y89.325 E3.83243
G1 X126.595 Y89.323 E3.83532
G1 X127.799 Y89.300 E3.97982
G1 X134.326 Y89.300 E4.76306
G1 X135.069 Y89.310 E4.85223
G1 X135.198 Y89.316 E4.86773
G1 X135.242 Y89.319 E4.87302
G1 X135.377 Y89.332 E4.88929
G1 X135.444 Y89.340 E4.89739
G1 X135.523 Y89.353 E4.90700
G1 X135.631 Y89.372 E4.92016
G1 X135.685 Y89.384 E4.92680
G1 X135.808 Y89.414 E4.94199
G1 X135.866 Y89.429 E4.94918
G1 X135.964 Y89.459 E4.96148
G1 X136.019 Y89.477 E4.96842
G1 X136.142 Y89.521 E4.98410
G1 X136.225 Y89.554 E4.99482
G1 X136.271 Y89.574 E5.00083
G1 X136.386 Y89.627 E5.01603
G1 X136.459 Y89.663 E5.02580
G1 X136.518 Y89.694 E5.03379
G1 X136.634 Y89.760 E5.04981
G1 X136.696 Y89.797 E5.05847
G1 X136.738 Y89.824 E5.06447
G1 X136.830 Y89.887 E5.07785
G1 X136.912 Y89.946 E5.08997
G1 X136.985 Y90.002 E5.10101
G1 X137.037 Y90.045 E5.10911
G1 X137.128 Y90.123 E5.12349
G1 X137.161 Y90.152 E5.12876
G1 X137.250 Y90.238 E5.14361
G1 X137.316 Y90.305 E5.15490
G1 X137.333 Y90.323 E5.15787
G1 X137.411 Y90.411 E5.17198
G1 X137.470 Y90.482 E5.18306
G1 X137.557 Y90.592 E5.19989
G1 X137.570 Y90.609 E5.20246
G1 X137.655 Y90.731 E5.22030
G1 X137.673 Y90.758 E5.22419
G1 X137.744 Y90.872 E5.24031
G1 X137.772 Y90.920 E5.24698
G1 X137.821 Y91.009 E5.25917
G1 X137.856 Y91.079 E5.26856
G1 X137.907 Y91.185 E5.28268
G1 X137.945 Y91.272 E5.29407
G1 X137.958 Y91.304 E5.29821
G1 X138.010 Y91.441 E5.31580
G1 X138.021 Y91.473 E5.31986
G1 X138.056 Y91.584 E5.33382
G1 X138.079 Y91.665 E5.34393
G1 X138.099 Y91.745 E5.35382
G1 X138.119 Y91.832 E5.36454
G1 X138.137 Y91.921 E5.37543
G1 X138.156 Y92.036 E5.38942
G1 X138.165 Y92.096 E5.39670
G1 X138.174 Y92.185 E5.40743
G1 X138.200 Y93.498 E5.56503
G1 X138.200 Y99.951 E6.33939
G1 X138.190 Y100.694 E6.42855
G1 X138.184 Y100.823 E6.44405
G1 X138.181 Y100.867 E6.44934
G1 X138.078 Y101.927 E6.57714
G1 X137.989 Y102.714 E6.67218
G1 X137.752 Y105.533 E7.01166
G1 X137.594 Y108.356 E7.35095
G1 X137.517 Y111.184 E7.69043
G1 X137.519 Y114.012 E8.02979
G1 X137.602 Y116.839 E8.36918
G1 X137.764 Y119.663 E8.70862
G1 X138.094 Y123.325 E9.14984
G1 X138.176 Y124.081 E9.24109
G1 X138.200 Y125.315 E9.38920
G1 X138.200 Y131.806 E10.16812
G1 X138.190 Y132.569 E10.25969
G1 X138.184 Y132.698 E10.27518
G1 X138.182 Y132.732 E10.27927
G1 X138.168 Y132.877 E10.29675
G1 X138.160 Y132.944 E10.30485
G1 X138.147 Y133.023 E10.31445
G1 X138.128 Y133.131 E10.32761
G1 X138.120 Y133.168 E10.33216
G1 X138.089 Y133.297 E10.34808
G1 X138.071 Y133.366 E10.35663
G1 X138.041 Y133.464 E10.36893
G1 X138.022 Y133.521 E10.37614
G1 X137.980 Y133.638 E10.39106
G1 X137.946 Y133.725 E10.40227
G1 X137.926 Y133.771 E10.40829
G1 X137.873 Y133.886 E10.42348
G1 X137.843 Y133.947 E10.43164
G1 X137.806 Y134.018 E10.44125
G1 X137.740 Y134.134 E10.45726
G1 X137.703 Y134.195 E10.46582
G1 X137.675 Y134.239 E10.47208
G1 X137.615 Y134.327 E10.48486
G1 X137.562 Y134.401 E10.49579
G1 X137.499 Y134.483 E10.50820
G1 X137.455 Y134.537 E10.51655
G1 X137.365 Y134.642 E10.53315
G1 X137.261 Y134.750 E10.55114
G1 X137.191 Y134.820 E10.56302
G1 X137.167 Y134.842 E10.56693
G1 X137.083 Y134.916 E10.58036
G1 X137.005 Y134.981 E10.59255
G1 X136.916 Y135.051 E10.60613
G1 X136.875 Y135.081 E10.61223
G1 X136.769 Y135.155 E10.62774
G1 X136.742 Y135.173 E10.63164
G1 X136.636 Y135.239 E10.64662
G1 X136.572 Y135.276 E10.65549
G1 X136.494 Y135.319 E10.66618
G1 X136.421 Y135.356 E10.67600
G1 X136.315 Y135.407 E10.69012
G1 X136.228 Y135.445 E10.70151
G1 X136.189 Y135.461 E10.70657
G1 X136.059 Y135.510 E10.72324
G1 X136.006 Y135.528 E10.72996
G1 X135.916 Y135.556 E10.74127
G1 X135.832 Y135.580 E10.75175
G1 X135.755 Y135.599 E10.76127
G1 X135.656 Y135.622 E10.77346
G1 X135.563 Y135.640 E10.78483
G1 X135.464 Y135.656 E10.79686
G1 X135.404 Y135.665 E10.80414
G1 X135.315 Y135.674 E10.81488
G1 X134.002 Y135.700 E10.97247
G1 X127.548 Y135.700 E11.74695
G1 X126.805 Y135.690 E11.83612
G1 X126.676 Y135.684 E11.85161
G1 X126.632 Y135.681 E11.85691
G1 X125.397 Y135.561 E12.00580
G1 X124.550 Y135.467 E12.10807
G1 X121.731 Y135.237 E12.44747
G1 X118.907 Y135.086 E12.78684
G1 X116.079 Y135.015 E13.12630
G1 X113.251 Y135.024 E13.46567
G1 X110.424 Y135.113 E13.80507
G1 X107.601 Y135.282 E14.14444
G1 X104.215 Y135.591 E14.55245
G1 X103.442 Y135.675 E14.64575
G1 X103.425 Y135.676 E14.64780
G1 X102.185 Y135.700 E14.79663
G1 X95.674 Y135.700 E15.57795
G1 X94.931 Y135.690 E15.66711
G1 X94.802 Y135.684 E15.68261
G1 X94.758 Y135.681 E15.68790
G1 X94.623 Y135.668 E15.70418
G1 X94.556 Y135.660 E15.71228
G1 X94.477 Y135.647 E15.72188
G1 X94.366 Y135.627 E15.73542
G1 X94.315 Y135.616 E15.74168
G1 X94.192 Y135.586 E15.75687
G1 X94.134 Y135.571 E15.76406
G1 X94.036 Y135.541 E15.77636
G1 X93.979 Y135.522 E15.78357
G1 X93.858 Y135.479 E15.79898
G1 X93.773 Y135.445 E15.80996
G1 X93.729 Y135.426 E15.81572
G1 X93.614 Y135.373 E15.83091
G1 X93.541 Y135.337 E15.84068
G1 X93.477 Y135.303 E15.84937
G1 X93.361 Y135.237 E15.86539
G1 X93.301 Y135.201 E15.87379
G1 X93.258 Y135.173 E15.87994
G1 X93.170 Y135.113 E15.89272
G1 X93.087 Y135.053 E15.90501
G1 X93.015 Y134.998 E15.91589
G1 X92.958 Y134.951 E15.92475
G1 X92.868 Y134.874 E15.93897
G1 X92.837 Y134.845 E15.94406
G1 X92.746 Y134.758 E15.95917
G1 X92.667 Y134.677 E15.97274
G1 X92.658 Y134.667 E15.97436
G1 X92.575 Y134.572 E15.98950
G1 X92.519 Y134.505 E15.99998
G1 X92.430 Y134.391 E16.01733
G1 X92.419 Y134.375 E16.01966
G1 X92.339 Y134.261 E16.03637
G1 X92.327 Y134.242 E16.03907
G1 X92.254 Y134.125 E16.05562
G1 X92.221 Y134.067 E16.06363
G1 X92.174 Y133.981 E16.07539
G1 X92.144 Y133.921 E16.08344
G1 X92.090 Y133.807 E16.09857
G1 X92.055 Y133.728 E16.10894
G1 X92.039 Y133.689 E16.11400
G1 X91.990 Y133.559 E16.13067
G1 X91.972 Y133.506 E16.13739
G1 X91.944 Y133.416 E16.14870
G1 X91.920 Y133.332 E16.15918
G1 X91.901 Y133.255 E16.16870
G1 X91.878 Y133.156 E16.18090
G1 X91.860 Y133.063 E16.19226
G1 X91.844 Y132.964 E16.20430
G1 X91.835 Y132.904 E16.21158
G1 X91.826 Y132.813 E16.22255
G1 X91.800 Y131.481 E16.38242
G1 X91.800 Y125.049 E17.15426
G1 X91.810 Y124.306 E17.24343
G1 X91.816 Y124.177 E17.25893
G1 X91.819 Y124.133 E17.26422
G1 X91.922 Y123.073 E17.39202
G1 X92.011 Y122.286 E17.48706
G1 X92.248 Y119.467 E17.82653
G1 X92.406 Y116.644 E18.16582
G1 X92.483 Y113.816 E18.50531
G1 X92.481 Y110.988 E18.84467
G1 X92.398 Y108.161 E19.18406
G1 X92.236 Y105.337 E19.52349
G1 X91.906 Y101.675 E19.96471
G1 X91.824 Y100.919 E20.05597
G1 X91.800 Y99.685 E20.20407
G1 X91.800 Y93.161 E20.98695
G1 X91.810 Y92.431 E21.07456
G1 X91.816 Y92.302 E21.09006
G1 X91.819 Y92.258 E21.09535
G1 X91.832 Y92.123 E21.11163
G1 X91.840 Y92.056 E21.11972
G1 X91.854 Y91.970 E21.13018
G1 X91.872 Y91.869 E21.14249
G1 X91.884 Y91.815 E21.14913
G1 X91.914 Y91.692 E21.16432
G1 X91.929 Y91.634 E21.17151
G1 X91.966 Y91.513 E21.18669
G1 X91.980 Y91.473 E21.19178
G1 X92.021 Y91.358 E21.20643
G1 X92.054 Y91.275 E21.21715
G1 X92.079 Y91.217 E21.22473
G1 X92.127 Y91.114 E21.23836
G1 X92.163 Y91.041 E21.24813
G1 X92.194 Y90.982 E21.25613
G1 X92.260 Y90.866 E21.27214
G1 X92.297 Y90.804 E21.28081
G1 X92.325 Y90.761 E21.28697
G1 X92.399 Y90.653 E21.30268
G1 X92.447 Y90.587 E21.31247
G1 X92.506 Y90.510 E21.32411
G1 X92.545 Y90.463 E21.33144
G1 X92.626 Y90.368 E21.34642
G1 X92.652 Y90.339 E21.35109
G1 X92.746 Y90.242 E21.36730
G1 X92.819 Y90.171 E21.37952
G1 X92.833 Y90.158 E21.38181
G1 X92.917 Y90.084 E21.39525
G1 X92.995 Y90.019 E21.40743
G1 X93.100 Y89.937 E21.42342
G1 X93.127 Y89.917 E21.42745
G1 X93.231 Y89.845 E21.44263
G1 X93.262 Y89.824 E21.44712
G1 X93.374 Y89.755 E21.46291
G1 X93.428 Y89.724 E21.47038
G1 X93.509 Y89.679 E21.48150
G1 X93.579 Y89.644 E21.49089
G1 X93.685 Y89.593 E21.50501
G1 X93.772 Y89.555 E21.51640
G1 X93.811 Y89.539 E21.52146
G1 X93.941 Y89.490 E21.53813
G1 X93.994 Y89.472 E21.54485
G1 X94.084 Y89.444 E21.55616
G1 X94.172 Y89.419 E21.56714
G1 X94.245 Y89.401 E21.57616
G1 X94.344 Y89.378 E21.58835
G1 X94.437 Y89.360 E21.59972
G1 X94.536 Y89.344 E21.61176
G1 X94.596 Y89.335 E21.61904
G1 X94.685 Y89.326 E21.62977
G10
G0 F9000 X95.600 Y93.100
;TYPE:WALL-INNER
G11
G1 F900 X102.525 Y93.100 E22.46077
G1 X102.526 Y94.900 E22.67677
G1 X97.400 Y94.900 E23.29189
G1 X97.400 Y100.025 E23.90689
G1 X95.600 Y100.026 E24.12289
G1 X95.600 Y93.100 E24.95401
G0 F9000 X95.200 Y92.700
;TYPE:WALL-OUTER
G1 F900 X102.925 Y92.700 E25.88101
G1 X102.926 Y95.300 E26.19301
G1 X97.800 Y95.300 E26.80813
G1 X97.800 Y100.425 E27.42313
G1 X95.200 Y100.426 E27.73513
G1 X95.200 Y92.700 E28.66225
G0 F9000 X95.739 Y93.476
;TYPE:SKIN
G1 F900 X97.259 Y94.996 E28.92020
G0 F9000 X97.588 Y94.760
G1 F900 X96.068 Y93.240 E29.17816
G0 F9000 X96.634 Y93.240
G1 F900 X98.154 Y94.760 E29.43611
G0 F9000 X98.719 Y94.760
G1 F900 X97.200 Y93.240 E29.69398
G0 F9000 X97.765 Y93.240
G1 F900 X99.285 Y94.760 E29.95193
G0 F9000 X99.851 Y94.760
G1 F900 X98.331 Y93.240 E30.20988
G0 F9000 X98.897 Y93.240
G1 F900 X100.416 Y94.760 E30.46775
G0 F9000 X100.982 Y94.760
G1 F900 X99.463 Y93.240 E30.72562
G0 F9000 X100.028 Y93.240
G1 F900 X101.548 Y94.760 E30.98357
G0 F9000 X102.113 Y94.760
G1 F900 X100.594 Y93.240 E31.24144
G0 F9000 X101.160 Y93.240
G1 F900 X102.385 Y94.465 E31.44933
G0 F9000 X102.384 Y93.899
G1 F900 X101.725 Y93.240 E31.56116
G0 F9000 X102.291 Y93.240
G1 F900 X102.384 Y93.333 E31.57694
G0 F9000 X97.659 Y95.159
G0 X97.259 Y95.562
G1 F900 X95.739 Y94.042 E31.83490
G0 F9000 X95.739 Y94.608
G1 F900 X97.259 Y96.128 E32.09285
G0 F9000 X97.259 Y96.694
G1 F900 X95.739 Y95.173 E32.35089
G0 F9000 X95.739 Y95.739
G1 F900 X97.259 Y97.259 E32.60884
G0 F9000 X97.259 Y97.825
G1 F900 X95.739 Y96.305 E32.86679
G0 F9000 X95.739 Y96.870
G1 F900 X97.259 Y98.391 E33.12483
G0 F9000 X97.259 Y98.956
G1 F900 X95.739 Y97.436 E33.38278
G0 F9000 X95.739 Y98.002
G1 F900 X97.259 Y99.522 E33.64073
G0 F9000 X97.056 Y99.884
G1 F900 X95.739 Y98.567 E33.86424
G0 F9000 X95.739 Y99.133
G1 F900 X96.490 Y99.884 E33.99169
G0 F9000 X95.924 Y99.884
G1 F900 X95.739 Y99.699 E34.02308
G10
G0 F9000 X95.600 Y124.975
;TYPE:WALL-INNER
G11
G1 F900 X97.400 Y124.974 E34.23908
G1 X97.400 Y130.100 E34.85420
G1 X102.525 Y130.100 E35.46920
G1 X102.526 Y131.900 E35.68520
G1 X95.600 Y131.900 E36.51632
G1 X95.600 Y124.975 E37.34732
G0 F9000 X95.200 Y124.575
;TYPE:WALL-OUTER
G1 F900 X97.800 Y124.574 E37.65932
G1 X97.800 Y129.700 E38.27444
G1 X102.925 Y129.700 E38.88944
G1 X102.926 Y132.300 E39.20144
G1 X95.200 Y132.300 E40.12856
G1 X95.200 Y124.575 E41.05556
G0 F9000 X95.740 Y125.155
;TYPE:SKIN
G1 F900 X97.260 Y126.676 E41.31360
G0 F9000 X97.260 Y127.241
G1 F900 X95.740 Y125.721 E41.57155
G0 F9000 X95.740 Y126.287
G1 F900 X97.260 Y127.807 E41.82950
G0 F9000 X97.260 Y128.373
G1 F900 X95.740 Y126.852 E42.08754
G0 F9000 X95.740 Y127.418
G1 F900 X97.260 Y128.938 E42.34549
G0 F9000 X97.260 Y129.504
G1 F900 X95.740 Y127.984 E42.60345
G0 F9000 X95.740 Y128.549
G1 F900 X97.260 Y130.070 E42.86148
G0 F9000 X97.429 Y130.239
G1 F900 X98.948 Y131.758 E43.11927
G0 F9000 X98.383 Y131.758
G1 F900 X95.740 Y129.115 E43.56780
G0 F9000 X95.740 Y129.681
G1 F900 X97.817 Y131.758 E43.92028
G0 F9000 X97.251 Y131.758
G1 F900 X95.740 Y130.246 E44.17679
G0 F9000 X95.740 Y130.812
G1 F900 X96.686 Y131.758 E44.33733
G0 F9000 X96.120 Y131.758
G1 F900 X95.740 Y131.378 E44.40182
G0 F9000 X97.995 Y130.239
G1 F900 X99.514 Y131.758 E44.65960
G0 F9000 X100.080 Y131.758
G1 F900 X98.560 Y130.239 E44.91747
G0 F9000 X99.126 Y130.239
G1 F900 X100.646 Y131.758 E45.17534
G0 F9000 X101.211 Y131.758
G1 F900 X99.692 Y130.239 E45.43312
G0 F9000 X100.257 Y130.239
G1 F900 X101.777 Y131.758 E45.69099
G0 F9000 X102.343 Y131.758
G1 F900 X100.823 Y130.239 E45.94885
G0 F9000 X101.389 Y130.239
G1 F900 X102.386 Y131.236 E46.11805
G0 F9000 X102.385 Y130.669
G1 F900 X101.954 Y130.239 E46.19111
G0 F9000 X97.659 Y129.841
G0 X97.260 Y126.110
G1 F900 X96.264 Y125.114 E46.36014
G0 F9000 X96.829 Y125.114
G1 F900 X97.260 Y125.544 E46.43319
G10
G0 F9000 X127.474 Y130.100
;TYPE:WALL-INNER
G11
G1 F900 X132.600 Y130.100 E47.04831
G1 X132.600 Y124.975 E47.66331
G1 X134.400 Y124.974 E47.87931
G1 X134.400 Y131.900 E48.71043
G1 X127.475 Y131.900 E49.54143
G1 X127.474 Y130.100 E49.75743
G0 F9000 X127.074 Y129.700
;TYPE:WALL-OUTER
G1 F900 X132.200 Y129.700 E50.37255
G1 X132.200 Y124.575 E50.98755
G1 X134.800 Y124.574 E51.29955
G1 X134.800 Y132.300 E52.22667
G1 X127.075 Y132.300 E53.15367
G1 X127.074 Y129.700 E53.46567
G0 F9000 X127.614 Y130.442
;TYPE:SKIN
G1 F900 X128.930 Y131.758 E53.68901
G0 F9000 X128.364 Y131.758
G1 F900 X127.614 Y131.008 E53.81629
G0 F9000 X127.614 Y131.574
G1 F900 X127.798 Y131.758 E53.84751
G0 F9000 X127.977 Y130.239
G1 F900 X129.496 Y131.758 E54.10529
G0 F9000 X130.061 Y131.758
G1 F900 X128.542 Y130.239 E54.36308
G0 F9000 X129.108 Y130.239
G1 F900 X130.627 Y131.758 E54.62086
G0 F9000 X131.193 Y131.759
G1 F900 X129.674 Y130.239 E54.87873
G0 F9000 X130.239 Y130.239
G1 F900 X131.759 Y131.759 E55.13668
G0 F9000 X132.325 Y131.759
G1 F900 X130.805 Y130.239 E55.39463
G0 F9000 X131.371 Y130.239
G1 F900 X132.890 Y131.759 E55.65250
G0 F9000 X133.456 Y131.759
G1 F900 X131.936 Y130.239 E55.91045
G0 F9000 X132.502 Y130.239
G1 F900 X134.022 Y131.759 E56.16841
G0 F9000 X134.259 Y131.431
G1 F900 X132.738 Y129.910 E56.42653
G0 F9000 X132.738 Y129.344
G1 F900 X134.259 Y130.865 E56.68465
G0 F9000 X134.259 Y130.299
G1 F900 X132.738 Y128.778 E56.94277
G0 F9000 X132.738 Y128.213
G1 F900 X134.259 Y129.734 E57.20089
G0 F9000 X134.259 Y129.168
G1 F900 X132.738 Y127.647 E57.45902
G0 F9000 X132.738 Y127.081
G1 F900 X134.259 Y128.602 E57.71714
G0 F9000 X134.259 Y128.037
G1 F900 X132.738 Y126.516 E57.97526
G0 F9000 X132.738 Y125.950
G1 F900 X134.259 Y127.471 E58.23338
G0 F9000 X134.259 Y126.905
G1 F900 X132.738 Y125.384 E58.49151
G0 F9000 X133.035 Y125.115
G1 F900 X134.259 Y126.340 E58.69931
G0 F9000 X134.259 Y125.774
G1 F900 X133.600 Y125.114 E58.81123
G0 F9000 X134.165 Y125.114
G1 F900 X134.259 Y125.208 E58.82718
G10
G0 F9000 X134.400 Y100.025
;TYPE:WALL-INNER
G11
G1 F900 X132.600 Y100.026 E59.04318
G1 X132.600 Y94.900 E59.65830
G1 X127.474 Y94.900 E60.27342
G1 X127.475 Y93.100 E60.48942
G1 X134.400 Y93.100 E61.32042
G1 X134.400 Y100.025 E62.15142
G0 F9000 X134.800 Y100.425
;TYPE:WALL-OUTER
G1 F900 X132.200 Y100.426 E62.46342
G1 X132.200 Y95.300 E63.07854
G1 X127.074 Y95.300 E63.69366
G1 X127.075 Y92.700 E64.00566
G1 X134.800 Y92.700 E64.93266
G1 X134.800 Y100.425 E65.85966
G0 F9000 X134.259 Y99.752
;TYPE:SKIN
G1 F900 X132.738 Y98.231 E66.11779
G0 F9000 X132.738 Y97.666
G1 F900 X134.259 Y99.186 E66.37582
G0 F9000 X134.259 Y98.620
G1 F900 X132.738 Y97.100 E66.63386
G0 F9000 X132.738 Y96.534
G1 F900 X134.259 Y98.055 E66.89198
G0 F9000 X134.259 Y97.489
G1 F900 X132.738 Y95.969 E67.15002
G0 F9000 X132.738 Y95.403
G1 F900 X134.259 Y96.923 E67.40806
G0 F9000 X134.259 Y96.358
G1 F900 X132.738 Y94.837 E67.66618
G0 F9000 X132.661 Y94.760
G1 F900 X131.141 Y93.240 E67.92413
G0 F9000 X131.707 Y93.240
G1 F900 X134.259 Y95.792 E68.35722
G0 F9000 X134.259 Y95.226
G1 F900 X132.272 Y93.240 E68.69434
G0 F9000 X132.838 Y93.240
G1 F900 X134.259 Y94.661 E68.93549
G0 F9000 X134.259 Y94.095
G1 F900 X133.404 Y93.240 E69.08059
G0 F9000 X133.969 Y93.240
G1 F900 X134.259 Y93.529 E69.12972
G0 F9000 X132.095 Y94.760
G1 F900 X130.575 Y93.240 E69.38767
G0 F9000 X130.010 Y93.240
G1 F900 X131.529 Y94.760 E69.64554
G0 F9000 X130.963 Y94.760
G1 F900 X129.444 Y93.240 E69.90341
G0 F9000 X128.878 Y93.240
G1 F900 X130.398 Y94.760 E70.16136
G0 F9000 X129.832 Y94.760
G1 F900 X128.313 Y93.240 E70.41923
G0 F9000 X127.747 Y93.240
