;FLAVOR:UltiGCode
;TIME:9515
;MATERIAL:14602
;MATERIAL2:0
;Generated with Cura_SteamEngine DEV
;LAYER:0
M107
G0 F9000 X92.746 Y90.242 Z0.300
G0 X94.596 Y89.335
;TYPE:SKIRT
G1 F900 X94.687 Y89.326 E0.01097
G1 X94.684 Y89.326 E0.01133
G1 X95.998 Y89.300 E0.16904
G1 X102.500 Y89.300 E0.94928
G1 X102.500 Y89.296 E0.94976
G1 X103.400 Y89.293 E1.05776
G1 X103.400 Y89.300 E1.05860
G1 X126.600 Y89.300 E3.84260
G1 X126.600 Y89.296 E3.84308
G1 X127.500 Y89.293 E3.95109
G1 X127.500 Y89.300 E3.95193
G1 X134.326 Y89.300 E4.77105
G1 X135.069 Y89.310 E4.86021
G1 X135.198 Y89.316 E4.87571
G1 X135.242 Y89.319 E4.88100
G1 X135.377 Y89.332 E4.89728
G1 X135.444 Y89.340 E4.90537
G1 X135.523 Y89.353 E4.91498
G1 X135.631 Y89.372 E4.92814
G1 X135.685 Y89.384 E4.93478
G1 X135.808 Y89.414 E4.94997
G1 X135.866 Y89.429 E4.95716
G1 X135.964 Y89.459 E4.96946
G1 X136.019 Y89.477 E4.97640
G1 X136.142 Y89.521 E4.99208
G1 X136.225 Y89.554 E5.00280
G1 X136.271 Y89.574 E5.00882
G1 X136.386 Y89.627 E5.02401
G1 X136.459 Y89.663 E5.03378
G1 X136.518 Y89.694 E5.04178
G1 X136.634 Y89.760 E5.05779
G1 X136.696 Y89.797 E5.06646
G1 X136.738 Y89.824 E5.07245
G1 X136.830 Y89.887 E5.08583
G1 X136.912 Y89.946 E5.09795
G1 X136.985 Y90.002 E5.10899
G1 X137.037 Y90.045 E5.11709
G1 X137.128 Y90.123 E5.13147
G1 X137.161 Y90.152 E5.13674
G1 X137.250 Y90.238 E5.15159
G1 X137.316 Y90.305 E5.16288
G1 X137.333 Y90.323 E5.16585
G1 X137.411 Y90.411 E5.17996
G1 X137.470 Y90.482 E5.19104
G1 X137.557 Y90.592 E5.20787
G1 X137.570 Y90.609 E5.21044
G1 X137.655 Y90.731 E5.22828
G1 X137.673 Y90.758 E5.23218
G1 X137.744 Y90.872 E5.24829
G1 X137.772 Y90.920 E5.25496
G1 X137.821 Y91.009 E5.26715
G1 X137.856 Y91.079 E5.27654
G1 X137.907 Y91.185 E5.29066
G1 X137.945 Y91.272 E5.30205
G1 X137.958 Y91.304 E5.30620
G1 X138.010 Y91.441 E5.32378
G1 X138.021 Y91.473 E5.32784
G1 X138.056 Y91.584 E5.34181
G1 X138.079 Y91.665 E5.35191
G1 X138.099 Y91.745 E5.36181
G1 X138.119 Y91.832 E5.37252
G1 X138.137 Y91.921 E5.38342
G1 X138.156 Y92.036 E5.39740
G1 X138.165 Y92.096 E5.40468
G1 X138.174 Y92.185 E5.41542
G1 X138.200 Y93.498 E5.57301
G1 X138.200 Y100.000 E6.35325
G1 X138.204 Y100.000 E6.35373
G1 X138.207 Y100.900 E6.46173
G1 X138.200 Y100.900 E6.46257
G1 X138.200 Y124.100 E9.24657
G1 X138.204 Y124.100 E9.24705
G1 X138.207 Y125.000 E9.35505
G1 X138.200 Y125.000 E9.35589
G1 X138.200 Y131.806 E10.17261
G1 X138.190 Y132.569 E10.26418
G1 X138.184 Y132.698 E10.27967
G1 X138.182 Y132.732 E10.28376
G1 X138.168 Y132.877 E10.30124
G1 X138.160 Y132.944 E10.30934
G1 X138.147 Y133.023 E10.31895
G1 X138.128 Y133.131 E10.33211
G1 X138.120 Y133.168 E10.33665
G1 X138.089 Y133.297 E10.35257
G1 X138.071 Y133.366 E10.36113
G1 X138.041 Y133.464 E10.37342
G1 X138.022 Y133.521 E10.38063
G1 X137.980 Y133.638 E10.39555
G1 X137.946 Y133.725 E10.40676
G1 X137.926 Y133.771 E10.41278
G1 X137.873 Y133.886 E10.42798
G1 X137.843 Y133.947 E10.43613
G1 X137.806 Y134.018 E10.44574
G1 X137.740 Y134.134 E10.46176
G1 X137.703 Y134.195 E10.47032
G1 X137.675 Y134.239 E10.47658
G1 X137.615 Y134.327 E10.48936
G1 X137.562 Y134.401 E10.50028
G1 X137.499 Y134.483 E10.51269
G1 X137.455 Y134.537 E10.52105
G1 X137.365 Y134.642 E10.53764
G1 X137.261 Y134.750 E10.55563
G1 X137.191 Y134.820 E10.56751
G1 X137.167 Y134.842 E10.57142
G1 X137.083 Y134.916 E10.58485
G1 X137.005 Y134.981 E10.59704
G1 X136.916 Y135.051 E10.61063
G1 X136.875 Y135.081 E10.61672
G1 X136.769 Y135.155 E10.63223
G1 X136.742 Y135.173 E10.63613
G1 X136.636 Y135.239 E10.65111
G1 X136.572 Y135.276 E10.65998
G1 X136.494 Y135.319 E10.67067
G1 X136.421 Y135.356 E10.68049
G1 X136.315 Y135.407 E10.69461
G1 X136.228 Y135.445 E10.70600
G1 X136.189 Y135.461 E10.71106
G1 X136.059 Y135.510 E10.72773
G1 X136.006 Y135.528 E10.73445
G1 X135.916 Y135.556 E10.74576
G1 X135.832 Y135.580 E10.75624
G1 X135.755 Y135.599 E10.76576
G1 X135.656 Y135.622 E10.77796
G1 X135.563 Y135.640 E10.78932
G1 X135.464 Y135.656 E10.80136
G1 X135.404 Y135.665 E10.80864
G1 X135.315 Y135.674 E10.81937
G1 X134.002 Y135.700 E10.97696
G1 X127.500 Y135.700 E11.75720
G1 X127.500 Y135.704 E11.75768
G1 X126.600 Y135.707 E11.86568
G1 X126.600 Y135.700 E11.86652
G1 X103.400 Y135.700 E14.65052
G1 X103.400 Y135.704 E14.65100
G1 X102.500 Y135.707 E14.75900
G1 X102.500 Y135.700 E14.75984
G1 X95.674 Y135.700 E15.57896
G1 X94.931 Y135.690 E15.66813
G1 X94.802 Y135.684 E15.68363
G1 X94.758 Y135.681 E15.68892
G1 X94.623 Y135.668 E15.70520
G1 X94.556 Y135.660 E15.71329
G1 X94.477 Y135.647 E15.72290
G1 X94.366 Y135.627 E15.73643
G1 X94.315 Y135.616 E15.74270
G1 X94.192 Y135.586 E15.75789
G1 X94.134 Y135.571 E15.76508
G1 X94.036 Y135.541 E15.77738
G1 X93.979 Y135.522 E15.78459
G1 X93.858 Y135.479 E15.80000
G1 X93.773 Y135.445 E15.81098
G1 X93.729 Y135.426 E15.81673
G1 X93.614 Y135.373 E15.83193
G1 X93.541 Y135.337 E15.84169
G1 X93.477 Y135.303 E15.85039
G1 X93.364 Y135.239 E15.86597
G1 X93.301 Y135.201 E15.87480
G1 X93.258 Y135.173 E15.88096
G1 X93.170 Y135.113 E15.89374
G1 X93.087 Y135.053 E15.90603
G1 X93.015 Y134.998 E15.91690
G1 X92.958 Y134.951 E15.92577
G1 X92.868 Y134.874 E15.93998
G1 X92.837 Y134.845 E15.94508
G1 X92.746 Y134.758 E15.96018
G1 X92.667 Y134.677 E15.97376
G1 X92.658 Y134.667 E15.97538
G1 X92.575 Y134.572 E15.99051
G1 X92.519 Y134.505 E16.00099
G1 X92.430 Y134.391 E16.01835
G1 X92.419 Y134.375 E16.02068
G1 X92.339 Y134.261 E16.03739
G1 X92.327 Y134.242 E16.04009
G1 X92.254 Y134.125 E16.05664
G1 X92.221 Y134.067 E16.06464
G1 X92.174 Y133.981 E16.07640
G1 X92.144 Y133.921 E16.08445
G1 X92.090 Y133.807 E16.09959
G1 X92.055 Y133.728 E16.10996
G1 X92.039 Y133.689 E16.11502
G1 X91.990 Y133.559 E16.13169
G1 X91.972 Y133.506 E16.13841
G1 X91.944 Y133.416 E16.14972
G1 X91.920 Y133.332 E16.16020
G1 X91.901 Y133.255 E16.16972
G1 X91.878 Y133.156 E16.18191
G1 X91.860 Y133.063 E16.19328
G1 X91.844 Y132.964 E16.20532
G1 X91.835 Y132.904 E16.21260
G1 X91.826 Y132.813 E16.22357
G1 X91.800 Y131.481 E16.38344
G1 X91.800 Y125.000 E17.16116
G1 X91.796 Y125.000 E17.16164
G1 X91.793 Y124.100 E17.26964
G1 X91.800 Y124.100 E17.27048
G1 X91.800 Y100.900 E20.05448
G1 X91.796 Y100.900 E20.05496
G1 X91.793 Y100.000 E20.16296
G1 X91.800 Y100.000 E20.16380
G1 X91.800 Y93.161 E20.98448
G1 X91.810 Y92.431 E21.07209
G1 X91.816 Y92.302 E21.08759
G1 X91.819 Y92.258 E21.09288
G1 X91.832 Y92.123 E21.10915
G1 X91.840 Y92.056 E21.11725
G1 X91.854 Y91.970 E21.12771
G1 X91.872 Y91.869 E21.14002
G1 X91.884 Y91.815 E21.14666
G1 X91.914 Y91.692 E21.16185
G1 X91.929 Y91.634 E21.16904
G1 X91.966 Y91.513 E21.18422
G1 X91.980 Y91.473 E21.18931
G1 X92.021 Y91.358 E21.20396
G1 X92.054 Y91.275 E21.21468
G1 X92.079 Y91.217 E21.22225
G1 X92.127 Y91.114 E21.23589
G1 X92.163 Y91.041 E21.24566
G1 X92.194 Y90.982 E21.25366
G1 X92.260 Y90.866 E21.26967
G1 X92.297 Y90.804 E21.27834
G1 X92.325 Y90.761 E21.28449
G1 X92.399 Y90.653 E21.30020
G1 X92.447 Y90.587 E21.31000
G1 X92.506 Y90.510 E21.32164
G1 X92.545 Y90.463 E21.32897
G1 X92.626 Y90.368 E21.34395
G1 X92.652 Y90.339 E21.34862
G1 X92.746 Y90.242 E21.36483
G1 X92.819 Y90.171 E21.37705
G1 X92.833 Y90.158 E21.37934
G1 X92.917 Y90.084 E21.39278
G1 X92.995 Y90.019 E21.40496
G1 X93.100 Y89.937 E21.42095
G1 X93.127 Y89.917 E21.42498
G1 X93.231 Y89.845 E21.44016
G1 X93.262 Y89.824 E21.44465
G1 X93.372 Y89.756 E21.46017
G1 X93.428 Y89.724 E21.46791
G1 X93.509 Y89.679 E21.47903
G1 X93.579 Y89.644 E21.48842
G1 X93.685 Y89.593 E21.50254
G1 X93.772 Y89.555 E21.51393
G1 X93.811 Y89.539 E21.51899
G1 X93.941 Y89.490 E21.53566
G1 X93.994 Y89.472 E21.54238
G1 X94.084 Y89.444 E21.55369
G1 X94.168 Y89.420 E21.56417
G1 X94.245 Y89.401 E21.57369
G1 X94.344 Y89.378 E21.58588
G1 X94.437 Y89.360 E21.59725
G1 X94.536 Y89.344 E21.60928
G1 X94.596 Y89.335 E21.61656
G10
G0 F9000 X95.600 Y93.100
;TYPE:WALL-INNER
G11
G1 F900 X101.900 Y93.100 E22.37256
G1 X101.900 Y94.900 E22.58856
G1 X97.400 Y94.900 E23.12856
G1 X97.400 Y99.400 E23.66856
G1 X95.600 Y99.400 E23.88456
G1 X95.600 Y93.100 E24.64056
G0 F9000 X95.200 Y92.700
;TYPE:WALL-OUTER
G1 F900 X102.300 Y92.700 E25.49256
G1 X102.300 Y95.300 E25.80456
G1 X97.800 Y95.300 E26.34456
G1 X97.800 Y99.800 E26.88456
G1 X95.200 Y99.800 E27.19656
G1 X95.200 Y92.700 E28.04856
G0 F9000 X95.739 Y93.476
;TYPE:SKIN
G1 F900 X97.259 Y94.996 E28.30652
G0 F9000 X97.588 Y94.760
G1 F900 X96.068 Y93.240 E28.56447
G0 F9000 X96.634 Y93.240
G1 F900 X98.154 Y94.760 E28.82242
G0 F9000 X98.719 Y94.760
G1 F900 X97.200 Y93.240 E29.08029
G0 F9000 X97.765 Y93.240
G1 F900 X99.285 Y94.760 E29.33824
G0 F9000 X99.851 Y94.760
G1 F900 X98.331 Y93.240 E29.59619
G0 F9000 X98.897 Y93.240
G1 F900 X100.416 Y94.760 E29.85406
G0 F9000 X100.982 Y94.760
G1 F900 X99.463 Y93.240 E30.11193
G0 F9000 X100.028 Y93.240
G1 F900 X101.548 Y94.760 E30.36988
G0 F9000 X101.759 Y94.405
G1 F900 X100.594 Y93.240 E30.56759
G0 F9000 X101.160 Y93.240
G1 F900 X101.759 Y93.839 E30.66924
G0 F9000 X97.659 Y95.159
G0 X97.259 Y95.562
G1 F900 X95.739 Y94.042 E30.92720
G0 F9000 X95.739 Y94.608
G1 F900 X97.259 Y96.128 E31.18515
G0 F9000 X97.259 Y96.694
G1 F900 X95.739 Y95.173 E31.44319
G0 F9000 X95.739 Y95.739
G1 F900 X97.259 Y97.259 E31.70114
G0 F9000 X97.259 Y97.825
G1 F900 X95.739 Y96.305 E31.95909
G0 F9000 X95.739 Y96.870
G1 F900 X97.259 Y98.391 E32.21713
G0 F9000 X97.259 Y98.956
G1 F900 X95.739 Y97.436 E32.47508
G0 F9000 X95.739 Y98.002
G1 F900 X96.996 Y99.259 E32.68840
G0 F9000 X96.430 Y99.259
G1 F900 X95.739 Y98.567 E32.80575
G0 F9000 X95.739 Y99.133
G1 F900 X95.865 Y99.259 E32.82714
G10
G0 F9000 X95.600 Y125.600
;TYPE:WALL-INNER
G11
G1 F900 X97.400 Y125.600 E33.04314
G1 X97.400 Y130.100 E33.58314
G1 X101.900 Y130.100 E34.12314
G1 X101.900 Y131.900 E34.33914
G1 X95.600 Y131.900 E35.09514
G1 X95.600 Y125.600 E35.85114
G0 F9000 X95.200 Y125.200
;TYPE:WALL-OUTER
G1 F900 X97.800 Y125.200 E36.16314
G1 X97.800 Y129.700 E36.70314
G1 X102.300 Y129.700 E37.24314
G1 X102.300 Y132.300 E37.55514
G1 X95.200 Y132.300 E38.40714
G1 X95.200 Y125.200 E39.25914
G0 F9000 X95.758 Y125.739
;TYPE:SKIN
G1 F900 X97.259 Y127.241 E39.51395
G0 F9000 X97.259 Y127.806
G1 F900 X95.740 Y126.287 E39.77173
G0 F9000 X95.740 Y126.852
G1 F900 X97.259 Y128.372 E40.02960
G0 F9000 X97.259 Y128.938
G1 F900 X95.740 Y127.418 E40.28747
G0 F9000 X95.740 Y127.984
G1 F900 X97.259 Y129.503 E40.54525
G0 F9000 X97.259 Y130.069
G1 F900 X95.740 Y128.549 E40.80312
G0 F9000 X95.740 Y129.115
G1 F900 X98.383 Y131.758 E41.25165
G0 F9000 X98.948 Y131.758
G1 F900 X97.429 Y130.239 E41.50943
G0 F9000 X97.995 Y130.239
G1 F900 X99.514 Y131.758 E41.76721
G0 F9000 X100.080 Y131.758
G1 F900 X98.560 Y130.239 E42.02508
G0 F9000 X99.126 Y130.239
G1 F900 X100.646 Y131.758 E42.28295
G0 F9000 X101.211 Y131.758
G1 F900 X99.692 Y130.239 E42.54073
G0 F9000 X100.257 Y130.239
G1 F900 X101.759 Y131.741 E42.79563
G0 F9000 X101.759 Y131.175
G1 F900 X100.823 Y130.239 E42.95448
G0 F9000 X101.389 Y130.239
G1 F900 X101.759 Y130.609 E43.01727
G0 F9000 X97.817 Y131.758
G1 F900 X95.740 Y129.681 E43.36975
G0 F9000 X95.740 Y130.246
G1 F900 X97.251 Y131.758 E43.62626
G0 F9000 X96.686 Y131.758
G1 F900 X95.740 Y130.812 E43.78680
G0 F9000 X95.740 Y131.378
G1 F900 X96.120 Y131.758 E43.85128
G0 F9000 X97.259 Y126.675
G1 F900 X96.324 Y125.739 E44.01004
G0 F9000 X96.889 Y125.739
G1 F900 X97.259 Y126.109 E44.07284
G10
G0 F9000 X128.100 Y130.100
;TYPE:WALL-INNER
G11
G1 F900 X132.600 Y130.100 E44.61284
G1 X132.600 Y125.600 E45.15284
G1 X134.400 Y125.600 E45.36884
G1 X134.400 Y131.900 E46.12484
G1 X128.100 Y131.900 E46.88084
G1 X128.100 Y130.100 E47.09684
G0 F9000 X127.700 Y129.700
;TYPE:WALL-OUTER
G1 F900 X132.200 Y129.700 E47.63684
G1 X132.200 Y125.200 E48.17684
G1 X134.800 Y125.200 E48.48884
G1 X134.800 Y132.300 E49.34084
G1 X127.700 Y132.300 E50.19284
G1 X127.700 Y129.700 E50.50484
G0 F9000 X128.239 Y130.502
;TYPE:SKIN
G1 F900 X129.496 Y131.759 E50.71816
G0 F9000 X128.931 Y131.759
G1 F900 X128.239 Y131.067 E50.83559
G0 F9000 X128.239 Y131.633
G1 F900 X128.365 Y131.759 E50.85697
G0 F9000 X128.542 Y130.239
G1 F900 X130.062 Y131.759 E51.11493
G0 F9000 X130.628 Y131.759
G1 F900 X129.108 Y130.239 E51.37288
G0 F9000 X129.674 Y130.239
G1 F900 X131.193 Y131.759 E51.63075
G0 F9000 X131.759 Y131.759
G1 F900 X130.239 Y130.239 E51.88870
G0 F9000 X130.805 Y130.239
G1 F900 X132.325 Y131.759 E52.14665
G0 F9000 X132.890 Y131.759
G1 F900 X131.371 Y130.239 E52.40452
G0 F9000 X131.936 Y130.239
G1 F900 X133.456 Y131.759 E52.66247
G0 F9000 X134.022 Y131.759
G1 F900 X132.502 Y130.239 E52.92043
G0 F9000 X132.738 Y129.910
G1 F900 X134.259 Y131.430 E53.17846
G0 F9000 X134.259 Y130.864
G1 F900 X132.738 Y129.344 E53.43650
G0 F9000 X132.738 Y128.778
G1 F900 X134.259 Y130.299 E53.69462
G0 F9000 X134.259 Y129.733
G1 F900 X132.738 Y128.213 E53.95266
G0 F9000 X132.738 Y127.647
G1 F900 X134.259 Y129.167 E54.21070
G0 F9000 X134.259 Y128.602
G1 F900 X132.738 Y127.081 E54.46882
G0 F9000 X132.738 Y126.516
G1 F900 X134.259 Y128.036 E54.72686
G0 F9000 X134.259 Y127.470
G1 F900 X132.738 Y125.950 E54.98489
G0 F9000 X133.093 Y125.739
G1 F900 X134.259 Y126.905 E55.18277
G0 F9000 X134.259 Y126.339
G1 F900 X133.659 Y125.739 E55.28459
G10
G0 F9000 X134.400 Y99.400
;TYPE:WALL-INNER
G11
G1 F900 X132.600 Y99.400 E55.50059
G1 X132.600 Y94.900 E56.04059
G1 X128.100 Y94.900 E56.58059
G1 X128.100 Y93.100 E56.79659
G1 X134.400 Y93.100 E57.55259
G1 X134.400 Y99.400 E58.30859
G0 F9000 X134.800 Y99.800
;TYPE:WALL-OUTER
G1 F900 X132.200 Y99.800 E58.62059
G1 X132.200 Y95.300 E59.16059
G1 X127.700 Y95.300 E59.70059
G1 X127.700 Y92.700 E60.01259
G1 X134.800 Y92.700 E60.86459
G1 X134.800 Y99.800 E61.71659
G0 F9000 X134.259 Y99.186
;TYPE:SKIN
G1 F900 X132.738 Y97.666 E61.97463
G0 F9000 X132.738 Y98.231
G1 F900 X133.766 Y99.260 E62.14917
G0 F9000 X133.201 Y99.260
G1 F900 X132.738 Y98.797 E62.22775
G0 F9000 X134.259 Y98.620
G1 F900 X132.738 Y97.100 E62.48579
G0 F9000 X132.738 Y96.534
G1 F900 X134.259 Y98.055 E62.74391
G0 F9000 X134.259 Y97.489
G1 F900 X132.738 Y95.969 E63.00195
G0 F9000 X132.738 Y95.403
G1 F900 X134.259 Y96.923 E63.25998
G0 F9000 X134.259 Y96.358
G1 F900 X132.738 Y94.837 E63.51810
G0 F9000 X132.661 Y94.760
G1 F900 X131.141 Y93.240 E63.77606
G0 F9000 X131.707 Y93.240
G1 F900 X134.259 Y95.792 E64.20915
G0 F9000 X134.259 Y95.226
G1 F900 X132.272 Y93.240 E64.54627
G0 F9000 X132.838 Y93.240
G1 F900 X134.259 Y94.661 E64.78742
G0 F9000 X134.259 Y94.095
G1 F900 X133.404 Y93.240 E64.93252
G0 F9000 X133.969 Y93.240
G1 F900 X134.259 Y93.529 E64.98165
G0 F9000 X132.095 Y94.760
G1 F900 X130.575 Y93.240 E65.23960
G0 F9000 X130.010 Y93.240
G1 F900 X131.529 Y94.760 E65.49747
G0 F9000 X130.963 Y94.760
G1 F900 X129.444 Y93.240 E65.75533
G0 F9000 X128.878 Y93.240
G1 F900 X130.398 Y94.760 E66.01329
G0 F9000 X129.832 Y94.760
G1 F900 X128.313 Y93.240 E66.27115
G0 F9000 X128.238 Y93.731
G1 F900 X129.266 Y94.760 E66.44570
G0 F9000 X128.701 Y94.760
G1 F900 X128.238 Y94.297 E66.52427
G10
G0 F9000 X98.000 Y100.900
;TYPE:SUPPORT
G11
G1 F900 X98.000 Y124.100 E69.30827
G1 X95.000 Y124.100 E69.66827
G1 X95.000 Y100.900 E72.45227
G1 X98.000 Y100.900 E72.81227
G0 F9000 X98.060 Y101.308
G1 F900 X94.940 Y101.308 E73.18667
G0 F9000 X95.976 Y100.840
G1 F900 X95.976 Y124.160 E75.98507
G0 F9000 X95.976 Y124.000
G0 X95.100 Y122.636
G0 X94.939 Y122.636
G1 F900 X98.059 Y122.636 E76.35947
G0 F9000 X97.900 Y122.636
G0 X97.900 Y117.304
G0 X98.060 Y117.304
G1 F900 X94.940 Y117.304 E76.73387
G0 F9000 X95.100 Y117.304
G0 X95.100 Y111.972
G0 X94.940 Y111.972
G1 F900 X98.060 Y111.972 E77.10827
G0 F9000 X97.900 Y111.972
G0 X97.900 Y106.640
G0 X98.060 Y106.640
G1 F900 X94.940 Y106.640 E77.48267
G10
G0 F9000 X103.400 Y95.500
G11
G1 F900 X103.400 Y92.500 E77.84267
G1 X126.600 Y92.500 E80.62667
G1 X126.600 Y95.500 E80.98667
G1 X103.400 Y95.500 E83.77067
G0 F9000 X103.410 Y95.400
G0 X106.640 Y95.400
G0 X106.640 Y95.560
G1 F900 X106.640 Y92.440 E84.14507
G0 F9000 X106.640 Y92.600
G0 X111.972 Y92.600
G0 X111.972 Y92.440
G1 F900 X111.972 Y95.560 E84.51947
G0 F9000 X111.972 Y95.400
G0 X117.304 Y95.400
G0 X117.304 Y95.560
G1 F900 X117.304 Y92.440 E84.89387
G0 F9000 X117.304 Y92.600
G0 X122.636 Y92.600
G0 X122.636 Y92.440
