%
(1001)
(T1  D=6.35 CR=0 - ZMIN=-27 - flat end mill)
G90 G94
G17
G21
G28 G91 Z0
G90

(Adaptive3)
M9
T1 M6
S10000 M3
G54
M9
G0 X-36.792 Y-75.821
Z15
Z5
Z-0.73
G1 Z-1.365 F1524
X-36.79 Y-75.813 Z-1.464
X-36.784 Y-75.791 Z-1.561
X-36.775 Y-75.754 Z-1.653
X-36.762 Y-75.703 Z-1.738
X-36.746 Y-75.641 Z-1.814
X-36.727 Y-75.567 Z-1.879
X-36.706 Y-75.485 Z-1.931
X-36.683 Y-75.396 Z-1.969
X-36.659 Y-75.302 Z-1.992
X-36.634 Y-75.206 Z-2
G3 X-36.137 Y-71.749 I-15.704 J4.023
G1 Y-71.599
X-36.332 Y-70.637
X-36.467 Y-69.665
X-36.561 Y-68.688
X-36.625 Y-67.708
X-36.67 Y-66.728
X-36.7 Y-65.747
X-36.721 Y-64.765
X-36.736 Y-63.784
X-36.746 Y-62.803
X-36.752 Y-61.821
X-36.757 Y-60.84
X-36.762 Y-58.877
X-36.766 Y-55.932
X-36.767 Y-48.08
X-36.769 Y-21.579
X-36.77 Y28.478
X-36.772 Y65.53
X-36.691 Y66.014
X-36.463 Y66.449
X-35.848 Y67.214
X-35.044 Y67.777
X-34.149 Y68.18
X-33.21 Y68.465
X-32.249 Y68.665
X-31.277 Y68.804
X-30.301 Y68.9
X-29.321 Y68.967
X-28.341 Y69.012
X-27.36 Y69.044
X-26.379 Y69.065
X-25.397 Y69.08
X-24.416 Y69.09
X-23.434 Y69.097
X-22.453 Y69.102
X-21.471 Y69.106
X-19.508 Y69.11
X-15.582 Y69.113
X11.9 Y69.117
X25.641 Y69.118
X33.248 Y69.119
X33.49 Y69.079
X33.954 Y68.919
X34.757 Y68.354
X35.35 Y67.572
X35.777 Y66.688
X36.08 Y65.755
X36.292 Y64.796
X36.439 Y63.826
X36.542 Y62.85
X36.612 Y61.871
X36.661 Y60.89
X36.694 Y59.91
X36.717 Y58.928
X36.733 Y57.947
X36.744 Y56.965
X36.751 Y55.984
X36.756 Y55.002
X36.76 Y54.021
X36.764 Y52.058
X36.766 Y48.132
X36.768 Y27.52
X36.769 Y-22.537
X36.77 Y-65.724
X36.617 Y-66.19
X36.094 Y-67.021
X35.331 Y-67.638
X34.456 Y-68.083
X33.527 Y-68.399
X32.571 Y-68.621
X31.601 Y-68.776
X30.626 Y-68.883
X29.647 Y-68.957
X28.667 Y-69.007
X27.686 Y-69.042
X26.705 Y-69.066
X25.723 Y-69.083
X24.742 Y-69.094
X23.76 Y-69.102
X22.779 Y-69.107
X21.797 Y-69.111
X19.834 Y-69.115
X16.89 Y-69.118
X6.093 Y-69.119
X-19.426
X-30.714 Y-69.12
X-31.178 Y-68.962
X-32.013 Y-68.445
X-32.644 Y-67.693
X-33.106 Y-66.827
X-33.438 Y-65.904
X-33.675 Y-64.951
X-33.841 Y-63.984
X-33.959 Y-63.009
X-34.04 Y-62.031
X-34.097 Y-61.051
X-34.137 Y-60.071
X-34.165 Y-59.09
X-34.184 Y-58.108
X-34.197 Y-57.127
X-34.207 Y-56.145
X-34.213 Y-55.164
X-34.217 Y-54.182
X-34.223 Y-52.219
X-34.226 Y-49.275
X-34.228 Y-41.423
Y-31.608
X-34.23 Y18.45
X-34.232 Y62.618
X-33.903 Y63.542
X-33.288 Y64.308
X-32.509 Y64.905
X-31.638 Y65.357
X-30.716 Y65.694
X-29.766 Y65.94
X-28.801 Y66.12
X-27.828 Y66.249
X-26.851 Y66.343
X-25.872 Y66.409
X-24.891 Y66.457
X-23.91 Y66.491
X-22.929 Y66.515
X-21.948 Y66.532
X-20.966 Y66.544
X-19.985 Y66.553
X-19.003 Y66.559
X-18.022 Y66.563
X-16.059 Y66.568
X-13.114 Y66.572
X-6.244 Y66.574
X20.257 Y66.578
X30.072 Y66.579
X30.548 Y66.456
X31.436 Y66.039
X32.155 Y65.371
X32.709 Y64.561
X33.125 Y63.672
X33.433 Y62.74
X33.657 Y61.784
X33.82 Y60.816
X33.937 Y59.842
X34.021 Y58.864
X34.081 Y57.884
X34.124 Y56.904
X34.154 Y55.923
X34.176 Y54.941
X34.191 Y53.96
X34.202 Y52.979
X34.209 Y51.997
X34.215 Y51.016
X34.218 Y50.034
X34.223 Y48.071
X34.226 Y45.127
X34.227 Y37.274
X34.228 Y27.459
X34.229 Y-22.598
Y-61.859
X34.227 Y-62.349
X34.121 Y-62.828
X33.728 Y-63.728
X33.075 Y-64.461
X32.273 Y-65.026
X31.388 Y-65.451
X30.458 Y-65.765
X29.504 Y-65.995
X28.536 Y-66.162
X27.562 Y-66.282
X26.585 Y-66.368
X25.605 Y-66.429
X24.624 Y-66.473
X23.643 Y-66.504
X22.662 Y-66.526
X21.681 Y-66.542
X20.699 Y-66.553
X19.718 Y-66.56
X18.736 Y-66.566
X17.755 Y-66.57
X15.792 Y-66.574
X12.847 Y-66.577
X4.995 Y-66.579
X-24.45
X-27.395 Y-66.58
X-27.874 Y-66.472
X-28.775 Y-66.082
X-29.512 Y-65.435
X-30.085 Y-64.638
X-30.518 Y-63.757
X-30.84 Y-62.829
X-31.076 Y-61.877
X-31.248 Y-60.911
X-31.373 Y-59.937
X-31.463 Y-58.96
X-31.527 Y-57.98
X-31.574 Y-57
X-31.606 Y-56.019
X-31.63 Y-55.038
X-31.647 Y-54.056
X-31.659 Y-53.075
X-31.667 Y-52.093
X-31.673 Y-51.112
X-31.677 Y-50.13
X-31.682 Y-48.167
X-31.686 Y-45.223
X-31.688 Y-38.352
X-31.689 Y-20.685
X-31.691 Y29.372
X-31.692 Y59.799
X-31.377 Y60.729
X-30.792 Y61.518
X-30.039 Y62.147
X-29.186 Y62.633
X-28.277 Y63.002
X-27.335 Y63.278
X-26.375 Y63.483
X-25.405 Y63.633
X-24.43 Y63.743
X-23.451 Y63.824
X-22.472 Y63.882
X-21.491 Y63.924
X-20.51 Y63.955
X-19.529 Y63.977
X-18.547 Y63.993
X-17.566 Y64.004
X-16.584 Y64.013
X-15.603 Y64.019
X-14.621 Y64.023
X-13.64 Y64.026
X-11.677 Y64.03
X-7.751 Y64.033
X7.953 Y64.036
X26.602 Y64.038
X27.093 Y64.026
X28.056 Y63.838
X28.902 Y63.339
X29.588 Y62.638
X30.125 Y61.816
X30.535 Y60.924
X30.843 Y59.992
X31.071 Y59.038
X31.24 Y58.071
X31.363 Y57.097
X31.453 Y56.12
X31.518 Y55.14
X31.566 Y54.16
X31.6 Y53.179
X31.624 Y52.198
X31.642 Y51.217
X31.655 Y50.235
X31.664 Y49.254
X31.671 Y48.272
X31.675 Y47.291
X31.681 Y45.328
X31.685 Y42.383
X31.687 Y36.494
X31.688 Y6.067
X31.689 Y-43.99
Y-59.694
X31.412 Y-60.636
X30.85 Y-61.441
X30.113 Y-62.088
X29.269 Y-62.59
X28.365 Y-62.972
X27.426 Y-63.257
X26.467 Y-63.469
X25.498 Y-63.625
X24.523 Y-63.739
X23.545 Y-63.822
X22.566 Y-63.883
X21.585 Y-63.926
X20.604 Y-63.958
X19.623 Y-63.981
X18.642 Y-63.997
X17.66 Y-64.009
X16.679 Y-64.018
X15.697 Y-64.024
X14.716 Y-64.028
X12.753 Y-64.033
X9.808 Y-64.037
X3.919 Y-64.039
X-0.988
X-24.545
X-25.506 Y-63.838
X-26.348 Y-63.335
X-27.034 Y-62.632
X-27.571 Y-61.811
X-27.982 Y-60.92
X-28.291 Y-59.988
X-28.521 Y-59.034
X-28.691 Y-58.067
X-28.816 Y-57.094
X-28.907 Y-56.116
X-28.974 Y-55.137
X-29.022 Y-54.157
X-29.057 Y-53.176
X-29.082 Y-52.195
X-29.101 Y-51.213
X-29.114 Y-50.232
X-29.123 Y-49.251
X-29.13 Y-48.269
X-29.135 Y-47.288
X-29.141 Y-45.325
X-29.145 Y-42.38
X-29.147 Y-39.435
X-29.149 Y-17.842
X-29.15 Y10.622
X-29.152 Y56.753
X-28.966 Y57.717
X-28.48 Y58.57
X-27.793 Y59.271
X-26.982 Y59.824
X-26.098 Y60.249
X-25.171 Y60.572
X-24.22 Y60.814
X-23.255 Y60.995
X-22.283 Y61.128
X-21.306 Y61.226
X-20.327 Y61.299
X-19.347 Y61.352
X-18.366 Y61.39
X-17.385 Y61.419
X-16.404 Y61.439
X-15.423 Y61.454
X-14.441 Y61.465
X-13.46 Y61.473
X-12.478 Y61.479
X-11.497 Y61.483
X-9.534 Y61.489
X-6.589 Y61.492
X-0.7 Y61.495
X22.856 Y61.498
X23.838
X24.819 Y61.481
X25.744 Y61.152
X26.533 Y60.568
X27.169 Y59.821
X27.666 Y58.975
X28.047 Y58.07
X28.335 Y57.131
X28.549 Y56.174
X28.709 Y55.205
X28.827 Y54.231
X28.913 Y53.253
X28.977 Y52.274
X29.023 Y51.293
X29.057 Y50.312
X29.082 Y49.331
X29.1 Y48.35
X29.113 Y47.368
X29.123 Y46.387
X29.129 Y45.405
X29.134 Y44.424
X29.141 Y42.461
X29.145 Y39.516
X29.147 Y33.627
X29.148 Y14.978
X29.149 Y-35.079
Y-56.672
X28.991 Y-57.641
X28.526 Y-58.505
X27.853 Y-59.22
X27.051 Y-59.786
X26.172 Y-60.222
X25.248 Y-60.553
X24.298 Y-60.801
X23.334 Y-60.986
X22.362 Y-61.124
X21.386 Y-61.225
X20.407 Y-61.299
X19.427 Y-61.353
X18.447 Y-61.393
X17.466 Y-61.422
X16.484 Y-61.443
X15.503 Y-61.459
X14.521 Y-61.47
X13.54 Y-61.478
X12.558 Y-61.484
X11.577 Y-61.488
X9.614 Y-61.493
X6.669 Y-61.497
X2.743 Y-61.499
X-21.795
X-22.761 Y-61.328
X-23.621 Y-60.855
X-24.332 Y-60.178
X-24.894 Y-59.374
X-25.328 Y-58.493
X-25.658 Y-57.569
X-25.907 Y-56.619
X-26.092 Y-55.656
X-26.229 Y-54.684
X-26.331 Y-53.707
X-26.405 Y-52.729
X-26.46 Y-51.749
X-26.5 Y-50.768
X-26.53 Y-49.787
X-26.551 Y-48.806
X-26.567 Y-47.824
X-26.578 Y-46.843
X-26.586 Y-45.861
X-26.592 Y-44.88
X-26.596 Y-43.898
X-26.602 Y-41.935
X-26.606 Y-38.991
Y-38.009
X-26.608 Y-29.176
X-26.61 Y12.048
X-26.611 Y54.253
X-26.381 Y55.207
X-25.872 Y56.046
X-25.172 Y56.734
X-24.355 Y57.278
X-23.468 Y57.699
X-22.54 Y58.02
X-21.589 Y58.262
X-20.624 Y58.443
X-19.652 Y58.577
X-18.676 Y58.677
X-17.697 Y58.751
X-16.717 Y58.805
X-15.736 Y58.845
X-14.755 Y58.874
X-13.774 Y58.896
X-12.793 Y58.912
X-11.811 Y58.923
X-10.83 Y58.932
X-9.848 Y58.938
X-8.867 Y58.942
X-6.904 Y58.948
X-3.959 Y58.952
X1.93 Y58.955
X21.56 Y58.958
X22.535 Y58.844
X23.422 Y58.423
X24.163 Y57.78
X24.757 Y56.998
X25.219 Y56.132
X25.573 Y55.217
X25.84 Y54.272
X26.04 Y53.312
X26.19 Y52.341
X26.3 Y51.366
X26.382 Y50.388
X26.442 Y49.408
X26.486 Y48.428
X26.519 Y47.447
X26.543 Y46.466
X26.56 Y45.484
X26.573 Y44.503
X26.582 Y43.521
X26.589 Y42.54
X26.594 Y41.558
X26.6 Y39.595
X26.605 Y36.651
X26.607 Y31.743
X26.608 Y3.279
X26.609 Y-46.778
Y-53.649
X26.566 Y-54.629
X26.219 Y-55.547
X25.626 Y-56.329
X24.875 Y-56.962
X24.028 Y-57.457
X23.123 Y-57.837
X22.185 Y-58.125
X21.227 Y-58.342
X20.259 Y-58.504
X19.285 Y-58.624
X18.308 Y-58.713
X17.328 Y-58.778
X16.348 Y-58.827
X15.367 Y-58.862
X14.386 Y-58.888
X13.405 Y-58.907
X12.423 Y-58.921
X11.442 Y-58.932
X10.46 Y-58.939
X9.479 Y-58.944
X8.497 Y-58.948
X6.534 Y-58.953
X3.59 Y-58.957
X-2.299 Y-58.959
X-14.078
X-18.985
X-19.96 Y-58.846
X-20.849 Y-58.43
X-21.596 Y-57.793
X-22.194 Y-57.015
X-22.66 Y-56.151
X-23.016 Y-55.236
X-23.287 Y-54.293
X-23.489 Y-53.332
X-23.641 Y-52.363
X-23.753 Y-51.388
X-23.837 Y-50.41
X-23.898 Y-49.43
X-23.943 Y-48.45
X-23.977 Y-47.469
X-24.001 Y-46.487
X-24.019 Y-45.506
X-24.032 Y-44.525
X-24.042 Y-43.543
X-24.049 Y-42.562
X-24.054 Y-41.58
X-24.058 Y-40.599
X-24.063 Y-38.636
X-24.066 Y-35.691
X-24.068 Y-28.821
X-24.069 Y-16.061
X-24.071 Y33.996
Y51.664
X-23.841 Y52.618
X-23.334 Y53.458
X-22.638 Y54.15
X-21.825 Y54.7
X-20.94 Y55.126
X-20.015 Y55.452
X-19.065 Y55.698
X-18.101 Y55.883
X-17.129 Y56.021
X-16.153 Y56.124
X-15.174 Y56.2
X-14.194 Y56.257
X-13.214 Y56.299
X-12.233 Y56.329
X-11.251 Y56.352
X-10.27 Y56.369
X-9.289 Y56.381
X-8.307 Y56.39
X-7.326 Y56.397
X-6.344 Y56.401
X-4.381 Y56.408
X-1.437 Y56.412
X3.471 Y56.415
X6.416 Y56.416
X19.175 Y56.418
X20.139 Y56.234
X21.001 Y55.763
X21.715 Y55.089
X22.284 Y54.29
X22.727 Y53.414
X23.066 Y52.493
X23.322 Y51.545
X23.515 Y50.583
X23.659 Y49.612
X23.766 Y48.636
X23.846 Y47.658
X23.904 Y46.678
X23.948 Y45.698
X23.979 Y44.717
X24.003 Y43.736
X24.02 Y42.754
X24.033 Y41.773
X24.042 Y40.791
X24.049 Y39.81
X24.054 Y38.828
X24.06 Y36.865
X24.065 Y33.921
X24.067 Y29.013
X24.068 Y21.161
X24.069 Y-28.896
Y-51.471
X23.903 Y-52.438
X23.445 Y-53.307
X22.781 Y-54.029
X21.987 Y-54.607
X21.115 Y-55.057
X20.195 Y-55.401
X19.249 Y-55.661
X18.287 Y-55.857
X17.317 Y-56.003
X16.341 Y-56.112
X15.363 Y-56.193
X14.383 Y-56.253
X13.403 Y-56.297
X12.422 Y-56.329
X11.441 Y-56.353
X10.459 Y-56.371
X9.478 Y-56.384
X8.496 Y-56.393
X7.515 Y-56.4
X6.533 Y-56.405
X4.57 Y-56.412
X1.626 Y-56.416
X-1.319 Y-56.418
X-15.06 Y-56.419
X-16.041
X-17.023 Y-56.398
X-17.954 Y-56.088
X-18.756 Y-55.523
X-19.412 Y-54.792
X-19.928 Y-53.957
X-20.327 Y-53.06
X-20.631 Y-52.127
X-20.861 Y-51.173
X-21.033 Y-50.207
X-21.162 Y-49.234
X-21.258 Y-48.257
X-21.329 Y-47.278
X-21.381 Y-46.298
X-21.42 Y-45.317
X-21.448 Y-44.336
X-21.47 Y-43.355
X-21.485 Y-42.373
X-21.497 Y-41.392
X-21.505 Y-40.41
X-21.511 Y-39.429
X-21.516 Y-38.447
X-21.521 Y-36.484
X-21.526 Y-33.54
X-21.528 Y-27.651
Y-23.725
X-21.53 Y26.333
X-21.531 Y48.907
X-21.359 Y49.874
X-20.898 Y50.741
X-20.236 Y51.465
X-19.442 Y52.043
X-18.57 Y52.493
X-17.652 Y52.839
X-16.706 Y53.102
X-15.745 Y53.3
X-14.775 Y53.448
X-13.799 Y53.559
X-12.821 Y53.641
X-11.842 Y53.702
X-10.861 Y53.747
X-9.88 Y53.781
X-8.899 Y53.806
X-7.918 Y53.824
X-6.936 Y53.837
X-5.955 Y53.847
X-4.973 Y53.855
X-3.992 Y53.86
X-3.01 Y53.864
X-1.047 Y53.869
X1.897 Y53.873
X3.86 Y53.875
X15.639 Y53.877
X16.62
X17.583 Y53.688
X18.443 Y53.214
X19.157 Y52.541
X19.726 Y51.741
X20.17 Y50.866
X20.511 Y49.946
X20.77 Y48.999
X20.964 Y48.037
X21.11 Y47.066
X21.218 Y46.091
X21.299 Y45.112
X21.359 Y44.133
X21.403 Y43.152
X21.436 Y42.171
X21.46 Y41.19
X21.478 Y40.209
X21.491 Y39.227
X21.501 Y38.246
X21.508 Y37.264
X21.513 Y36.283
X21.517 Y35.301
X21.522 Y33.338
X21.525 Y30.394
X21.527 Y24.505
X21.528 Y18.615
X21.529 Y-31.442
Y-48.128
X21.527 Y-49.109
X21.291 Y-50.062
X20.784 Y-50.902
X20.089 Y-51.595
X19.277 Y-52.146
X18.394 Y-52.575
X17.469 Y-52.903
X16.519 Y-53.152
X15.556 Y-53.339
X14.584 Y-53.479
X13.608 Y-53.583
X12.63 Y-53.66
X11.65 Y-53.718
X10.669 Y-53.76
X9.688 Y-53.791
X8.707 Y-53.815
X7.726 Y-53.832
X6.744 Y-53.844
X5.763 Y-53.853
X4.781 Y-53.86
X3.8 Y-53.865
X1.837 Y-53.872
X-1.108 Y-53.876
X-6.015 Y-53.879
X-8.96
X-13.868
X-14.841 Y-53.756
X-15.729 Y-53.336
X-16.474 Y-52.698
X-17.074 Y-51.921
X-17.543 Y-51.059
X-17.905 Y-50.146
X-18.179 Y-49.204
X-18.386 Y-48.244
X-18.541 Y-47.275
X-18.657 Y-46.301
X-18.743 Y-45.323
X-18.807 Y-44.343
X-18.854 Y-43.363
X-18.89 Y-42.382
X-18.915 Y-41.401
X-18.935 Y-40.42
X-18.949 Y-39.438
X-18.959 Y-38.457
X-18.967 Y-37.475
X-18.972 Y-36.494
X-18.977 Y-35.512
X-18.982 Y-33.549
X-18.986 Y-30.605
X-18.988 Y-24.716
X-18.989 Y-10.974
X-18.991 Y39.083
Y45.953
X-18.932 Y46.933
X-18.579 Y47.849
X-17.987 Y48.632
X-17.241 Y49.269
X-16.397 Y49.771
X-15.495 Y50.158
X-14.559 Y50.454
X-13.604 Y50.678
X-12.637 Y50.846
X-11.663 Y50.972
X-10.686 Y51.066
X-9.707 Y51.136
X-8.727 Y51.187
X-7.746 Y51.226
X-6.765 Y51.254
X-5.784 Y51.276
X-4.803 Y51.291
X-3.821 Y51.303
X-2.84 Y51.311
X-1.858 Y51.318
X-0.877 Y51.322
X1.086 Y51.328
X4.031 Y51.333
X8.939 Y51.336
X13.846 Y51.337
X14.819 Y51.211
X15.707 Y50.792
X16.456 Y50.157
X17.058 Y49.382
X17.529 Y48.521
X17.892 Y47.609
X18.169 Y46.667
X18.377 Y45.708
X18.534 Y44.739
X18.651 Y43.765
X18.738 Y42.787
X18.803 Y41.808
X18.851 Y40.828
X18.887 Y39.847
X18.913 Y38.865
X18.933 Y37.884
X18.947 Y36.903
X18.958 Y35.921
X18.966 Y34.94
X18.971 Y33.958
X18.976 Y32.977
X18.981 Y31.014
X18.985 Y28.069
X18.987 Y22.18
X18.988 Y-4.321
X18.989 Y-46.526
X18.762 Y-47.481
X18.261 Y-48.325
X17.571 Y-49.023
X16.762 Y-49.579
X15.881 Y-50.012
X14.958 Y-50.344
X14.009 Y-50.596
X13.046 Y-50.786
X12.075 Y-50.928
X11.099 Y-51.035
X10.121 Y-51.114
X9.141 Y-51.172
X8.161 Y-51.216
X7.18 Y-51.248
X6.198 Y-51.272
X5.217 Y-51.29
X4.236 Y-51.303
X3.254 Y-51.312
X2.273 Y-51.319
X1.291 Y-51.325
X0.31 Y-51.328
X-1.653 Y-51.333
X-4.598 Y-51.337
X-10.487 Y-51.339
X-11.469
X-12.434 Y-51.164
X-13.302 Y-50.705
X-14.024 Y-50.041
X-14.603 Y-49.248
X-15.055 Y-48.377
X-15.403 Y-47.459
X-15.667 Y-46.513
X-15.866 Y-45.552
X-16.016 Y-44.582
X-16.127 Y-43.607
X-16.211 Y-42.629
X-16.272 Y-41.65
X-16.318 Y-40.669
X-16.352 Y-39.688
X-16.377 Y-38.707
X-16.396 Y-37.726
X-16.41 Y-36.744
X-16.42 Y-35.763
X-16.427 Y-34.781
X-16.433 Y-33.8
X-16.437 Y-32.818
X-16.442 Y-30.855
X-16.446 Y-27.911
X-16.448 Y-22.022
X-16.45 Y22.147
X-16.451 Y43.74
X-16.295 Y44.709
X-15.852 Y45.585
X-15.2 Y46.318
X-14.415 Y46.907
X-13.548 Y47.368
X-12.633 Y47.723
X-11.689 Y47.993
X-10.729 Y48.197
X-9.76 Y48.35
X-8.785 Y48.465
X-7.807 Y48.55
X-6.828 Y48.614
X-5.847 Y48.661
X-4.867 Y48.696
X-3.885 Y48.722
X-2.904 Y48.741
X-1.923 Y48.755
X-0.941 Y48.766
X0.04 Y48.774
X1.022 Y48.779
X2.003 Y48.784
X3.966 Y48.789
X6.911 Y48.794
X9.855 Y48.795
X10.837 Y48.796
X11.818 Y48.782
X12.756 Y48.491
X13.572 Y47.945
X14.241 Y47.228
X14.773 Y46.403
X15.185 Y45.512
X15.501 Y44.583
X15.74 Y43.631
X15.921 Y42.666
X16.056 Y41.694
X16.157 Y40.718
X16.232 Y39.739
X16.288 Y38.759
X16.329 Y37.778
X16.36 Y36.797
X16.383 Y35.816
X16.4 Y34.835
X16.412 Y33.853
X16.422 Y32.872
X16.428 Y31.89
X16.433 Y30.909
X16.44 Y28.946
X16.445 Y26.001
X16.447 Y21.094
X16.448 Y2.445
X16.449 Y-43.686
X16.31 Y-44.658
X15.881 Y-45.541
X15.24 Y-46.284
X14.461 Y-46.881
X13.598 Y-47.349
X12.685 Y-47.709
X11.743 Y-47.984
X10.783 Y-48.191
X9.814 Y-48.346
X8.84 Y-48.463
X7.862 Y-48.55
X6.883 Y-48.614
X5.902 Y-48.662
X4.922 Y-48.698
X3.94 Y-48.724
X2.959 Y-48.744
X1.978 Y-48.758
X0.996 Y-48.769
X0.015 Y-48.777
X-0.967 Y-48.783
X-1.948 Y-48.787
X-3.911 Y-48.793
X-6.856 Y-48.797
X-8.819 Y-48.798
X-9.789 Y-48.651
X-10.669 Y-48.215
X-11.408 Y-47.569
X-12.002 Y-46.788
X-12.467 Y-45.923
X-12.825 Y-45.009
X-13.097 Y-44.066
X-13.303 Y-43.107
X-13.458 Y-42.138
X-13.574 Y-41.163
X-13.66 Y-40.185
X-13.724 Y-39.206
X-13.772 Y-38.225
X-13.808 Y-37.245
X-13.834 Y-36.263
X-13.853 Y-35.282
X-13.868 Y-34.301
X-13.878 Y-33.319
X-13.886 Y-32.338
X-13.892 Y-31.356
X-13.896 Y-30.375
X-13.902 Y-28.412
X-13.906 Y-25.467
X-13.907 Y-24.486
X-13.909 Y-16.634
X-13.91 Y25.572
X-13.911 Y41.276
X-13.729 Y42.24
X-13.265 Y43.105
X-12.599 Y43.826
X-11.806 Y44.404
X-10.934 Y44.856
X-10.016 Y45.203
X-9.071 Y45.468
X-8.11 Y45.668
X-7.14 Y45.818
X-6.165 Y45.93
X-5.187 Y46.014
X-4.208 Y46.076
X-3.227 Y46.123
X-2.246 Y46.157
X-1.265 Y46.183
X-0.284 Y46.202
X0.698 Y46.216
X1.679 Y46.226
X2.661 Y46.234
X3.642 Y46.24
X4.624 Y46.244
X6.587 Y46.25
X8.55 Y46.253
X9.529 Y46.183
X10.44 Y45.819
X11.218 Y45.221
X11.85 Y44.47
X12.348 Y43.624
X12.734 Y42.721
X13.028 Y41.785
X13.251 Y40.829
X13.419 Y39.862
X13.544 Y38.889
X13.638 Y37.912
X13.708 Y36.932
X13.759 Y35.952
X13.798 Y34.972
X13.826 Y33.99
X13.848 Y33.009
X13.863 Y32.028
X13.875 Y31.046
X13.883 Y30.065
X13.89 Y29.083
X13.894 Y28.102
X13.9 Y26.139
X13.905 Y23.194
X13.907 Y18.287
X13.908 Y-11.159
X13.909 Y-40.604
X13.898 Y-41.586
X13.618 Y-42.526
X13.08 Y-43.348
X12.368 Y-44.023
X11.547 Y-44.56
X10.659 Y-44.978
X9.731 Y-45.298
X8.78 Y-45.54
X7.815 Y-45.723
X6.843 Y-45.86
X5.867 Y-45.963
X4.889 Y-46.039
X3.909 Y-46.096
X2.928 Y-46.139
X1.947 Y-46.17
X0.966 Y-46.193
X-0.015 Y-46.21
X-0.997 Y-46.223
X-1.978 Y-46.233
X-2.96 Y-46.239
X-3.941 Y-46.245
X-5.904 Y-46.251
X-6.885 Y-46.206
X-7.808 Y-45.872
X-8.601 Y-45.294
X-9.249 Y-44.557
X-9.76 Y-43.719
X-10.157 Y-42.821
X-10.459 Y-41.887
X-10.689 Y-40.933
X-10.862 Y-39.967
X-10.991 Y-38.994
X-11.088 Y-38.017
X-11.161 Y-37.039
X-11.214 Y-36.058
X-11.254 Y-35.078
X-11.284 Y-34.097
X-11.306 Y-33.115
X-11.322 Y-32.134
X-11.334 Y-31.153
X-11.343 Y-30.171
X-11.35 Y-29.19
X-11.355 Y-28.208
X-11.361 Y-26.245
X-11.365 Y-23.301
X-11.368 Y-18.393
X-11.369 Y-0.726
X-11.371 Y38.535
X-11.246 Y39.508
X-10.831 Y40.398
X-10.2 Y41.15
X-9.428 Y41.756
X-8.569 Y42.231
X-7.659 Y42.598
X-6.718 Y42.878
X-5.76 Y43.09
X-4.791 Y43.249
X-3.817 Y43.369
X-2.84 Y43.458
X-1.861 Y43.524
X-0.88 Y43.574
X0.101 Y43.61
X1.082 Y43.638
X2.063 Y43.658
X3.044 Y43.673
X4.026 Y43.684
X5.007 Y43.693
X5.989 Y43.699
X6.968 Y43.635
X7.882 Y43.276
X8.664 Y42.683
X9.298 Y41.934
X9.798 Y41.089
X10.185 Y40.187
X10.481 Y39.251
X10.705 Y38.296
X10.874 Y37.329
X11.001 Y36.356
X11.095 Y35.379
X11.165 Y34.4
X11.218 Y33.42
X11.257 Y32.439
X11.285 Y31.458
X11.307 Y30.476
X11.323 Y29.495
X11.334 Y28.514
X11.343 Y27.532
X11.349 Y26.551
X11.354 Y25.569
X11.36 Y23.606
X11.365 Y20.662
X11.367 Y15.754
X11.368 Y4.957
X11.369 Y-38.229
X11.33 Y-39.21
X11 Y-40.135
X10.428 Y-40.932
X9.693 Y-41.582
X8.857 Y-42.097
X7.961 Y-42.496
X7.028 Y-42.802
X6.074 Y-43.033
X5.108 Y-43.208
X4.136 Y-43.339
X3.159 Y-43.437
X2.18 Y-43.51
X1.2 Y-43.564
X0.219 Y-43.604
X-0.762 Y-43.634
X-1.743 Y-43.656
X-2.724 Y-43.672
X-3.706 Y-43.685
X-4.678 Y-43.552
X-5.563 Y-43.126
X-6.305 Y-42.484
X-6.903 Y-41.706
X-7.372 Y-40.844
X-7.733 Y-39.931
X-8.008 Y-38.989
X-8.216 Y-38.03
X-8.372 Y-37.061
X-8.489 Y-36.086
X-8.577 Y-35.108
X-8.642 Y-34.129
X-8.69 Y-33.149
X-8.726 Y-32.168
X-8.752 Y-31.187
X-8.772 Y-30.205
X-8.787 Y-29.224
X-8.798 Y-28.242
X-8.806 Y-27.261
X-8.812 Y-26.279
X-8.816 Y-25.298
X-8.822 Y-23.335
X-8.826 Y-20.39
X-8.828 Y-14.501
X-8.829 Y-6.649
X-8.831 Y35.556
X-8.813 Y36.537
X-8.52 Y37.474
X-7.973 Y38.289
X-7.256 Y38.959
X-6.431 Y39.491
X-5.54 Y39.904
X-4.611 Y40.22
X-3.66 Y40.461
X-2.695 Y40.642
X-1.723 Y40.778
X-0.747 Y40.88
X0.232 Y40.956
X1.212 Y41.013
X2.192 Y41.055
X3.173 Y41.086
X4.155 Y41.098
X5.098 Y40.828
X5.921 Y40.292
X6.597 Y39.581
X7.133 Y38.758
X7.549 Y37.869
X7.868 Y36.941
X8.11 Y35.99
X8.292 Y35.025
X8.429 Y34.054
X8.531 Y33.077
X8.608 Y32.099
X8.665 Y31.119
X8.707 Y30.138
X8.738 Y29.157
X8.761 Y28.176
X8.779 Y27.195
X8.791 Y26.213
X8.801 Y25.232
X8.808 Y24.25
X8.813 Y23.269
X8.82 Y21.306
X8.825 Y18.361
X8.827 Y13.454
X8.828 Y0.694
X8.829 Y-35.622
X8.803 Y-36.603
X8.492 Y-37.534
X7.934 Y-38.342
X7.207 Y-39.002
X6.377 Y-39.525
X5.483 Y-39.931
X4.552 Y-40.242
X3.6 Y-40.478
X2.634 Y-40.656
X1.662 Y-40.79
X0.685 Y-40.89
X-0.293 Y-40.964
X-1.273 Y-41.02
X-2.244 Y-40.874
X-3.118 Y-40.428
X-3.847 Y-39.771
X-4.43 Y-38.981
X-4.885 Y-38.111
X-5.235 Y-37.194
X-5.501 Y-36.25
X-5.701 Y-35.289
X-5.852 Y-34.319
X-5.964 Y-33.344
X-6.048 Y-32.366
X-6.11 Y-31.386
X-6.156 Y-30.406
X-6.191 Y-29.425
X-6.216 Y-28.444
X-6.235 Y-27.462
X-6.249 Y-26.481
X-6.259 Y-25.5
X-6.267 Y-24.518
X-6.273 Y-23.537
X-6.277 Y-22.555
X-6.282 Y-20.592
X-6.286 Y-17.647
X-6.289 Y-11.758
X-6.29 Y7.872
X-6.291 Y33.391
X-6.186 Y34.367
X-5.789 Y35.265
X-5.167 Y36.024
X-4.402 Y36.639
X-3.548 Y37.123
X-2.64 Y37.497
X-1.701 Y37.782
X-0.744 Y37.997
X0.224 Y38.16
X1.198 Y38.281
X2.176 Y38.196
X3.066 Y37.782
X3.811 Y37.143
X4.406 Y36.362
X4.869 Y35.496
X5.224 Y34.581
X5.493 Y33.637
X5.696 Y32.677
X5.848 Y31.707
X5.961 Y30.732
X6.046 Y29.755
X6.109 Y28.775
X6.155 Y27.795
X6.19 Y26.814
X6.215 Y25.833
X6.234 Y24.851
X6.248 Y23.87
X6.258 Y22.888
X6.266 Y21.907
X6.272 Y20.925
X6.276 Y19.944
X6.281 Y17.981
X6.285 Y15.036
X6.288 Y9.147
X6.289 Y-24.224
Y-33.058
X6.267 Y-34.039
X5.963 Y-34.972
X5.41 Y-35.783
X4.686 Y-36.446
X3.858 Y-36.972
X2.965 Y-37.381
X2.035 Y-37.694
X1.559 Y-37.813
X1.07 Y-37.859
X0.582 Y-37.803
X-0.354 Y-37.507
X-1.145 Y-36.927
X-1.778 Y-36.177
X-2.27 Y-35.328
X-2.646 Y-34.421
X-2.929 Y-33.481
X-3.142 Y-32.523
X-3.3 Y-31.554
X-3.417 Y-30.58
X-3.504 Y-29.602
X-3.568 Y-28.623
X-3.616 Y-27.642
X-3.651 Y-26.661
X-3.676 Y-25.68
X-3.695 Y-24.699
X-3.709 Y-23.717
X-3.72 Y-22.736
X-3.727 Y-21.755
X-3.733 Y-20.773
X-3.737 Y-19.792
X-3.742 Y-17.828
X-3.746 Y-14.884
X-3.749 Y-8.995
Y-6.05
X-3.751 Y30.266
X-3.745 Y31.247
X-3.516 Y32.202
X-3.017 Y33.047
X-2.33 Y33.748
X-1.524 Y34.308
X-1.063 Y34.477
X-0.573 Y34.493
X-0.453 Y34.466
X0.019 Y34.333
X0.897 Y33.893
X1.605 Y33.214
X2.152 Y32.399
X2.568 Y31.51
X2.878 Y30.579
X3.109 Y29.625
X3.279 Y28.658
X3.404 Y27.685
X3.496 Y26.707
X3.564 Y25.728
X3.613 Y24.748
X3.649 Y23.767
X3.675 Y22.786
X3.695 Y21.804
X3.709 Y20.823
X3.719 Y19.842
X3.727 Y18.86
X3.732 Y17.879
X3.737 Y16.897
X3.742 Y14.934
X3.746 Y11.99
X3.748 Y6.1
X3.749 Y-22.363
Y-23.345
X3.731 Y-23.59
X3.708 Y-23.929
X3.685 Y-24.311
X3.662 Y-24.747
X3.639 Y-25.254
X3.616 Y-25.86
X3.593 Y-26.612
X3.57 Y-27.594
X3.555 Y-28.575
X3.544 Y-29.557
X3.537 Y-30.538
X3.499 Y-31.519
X3.326 Y-31.978
X3.267 Y-32.086
X3.142 Y-32.297
X2.984 Y-32.484
X2.797 Y-32.643
X2.586 Y-32.769
X2.358 Y-32.858
X2.117 Y-32.909
X1.872 Y-32.919
X1.629 Y-32.888
X1.394 Y-32.818
X1.173 Y-32.71
X0.974 Y-32.567
X0.801 Y-32.393
X0.233 Y-31.592
X-0.083 Y-30.663
X-0.318 Y-29.71
X-0.493 Y-28.744
X-0.621 Y-27.771
X-0.716 Y-26.794
X-0.786 Y-25.815
X-0.838 Y-24.835
X-0.875 Y-23.854
X-0.903 Y-22.873
X-0.924 Y-21.892
X-0.939 Y-20.91
X-0.95 Y-19.929
X-0.958 Y-18.947
X-0.964 Y-17.966
X-0.968 Y-16.984
X-0.974 Y-15.021
X-0.978 Y-12.077
X-0.98 Y-6.188
X-0.981 Y4.609
X-0.982 Y27.674
X-0.993 Y27.728 Z-1.994
X-1.004 Y27.78 Z-1.975
X-1.014 Y27.826 Z-1.945
X-1.022 Y27.864 Z-1.906
X-1.028 Y27.893 Z-1.859
X-1.036 Y27.91 Z-1.806
X-1.038 Y27.916 Z-1.751
G0 Z5
X-36.792 Y-75.821
Z-2.73
G1 Z-3.365 F1524
X-36.79 Y-75.813 Z-3.464
X-36.784 Y-75.791 Z-3.561
X-36.775 Y-75.754 Z-3.653
X-36.762 Y-75.703 Z-3.738
X-36.746 Y-75.641 Z-3.814
X-36.727 Y-75.567 Z-3.879
X-36.706 Y-75.485 Z-3.931
X-36.683 Y-75.396 Z-3.969
X-36.659 Y-75.302 Z-3.992
X-36.634 Y-75.206 Z-4
G3 X-36.137 Y-71.749 I-15.704 J4.023
G1 Y-71.599
X-36.332 Y-70.637
X-36.467 Y-69.665
X-36.561 Y-68.688
X-36.625 Y-67.708
X-36.67 Y-66.728
X-36.7 Y-65.747
X-36.721 Y-64.765
X-36.736 Y-63.784
X-36.746 Y-62.803
X-36.752 Y-61.821
X-36.757 Y-60.84
X-36.762 Y-58.877
X-36.766 Y-55.932
X-36.767 Y-48.08
X-36.769 Y-21.579
X-36.77 Y28.478
X-36.772 Y65.53
X-36.691 Y66.014
X-36.463 Y66.449
X-35.848 Y67.214
X-35.044 Y67.777
X-34.149 Y68.18
X-33.21 Y68.465
X-32.249 Y68.665
X-31.277 Y68.804
X-30.301 Y68.9
X-29.321 Y68.967
X-28.341 Y69.012
X-27.36 Y69.044
X-26.379 Y69.065
X-25.397 Y69.08
X-24.416 Y69.09
X-23.434 Y69.097
X-22.453 Y69.102
X-21.471 Y69.106
X-19.508 Y69.11
X-15.582 Y69.113
X11.9 Y69.117
X25.641 Y69.118
X33.248 Y69.119
X33.49 Y69.079
X33.954 Y68.919
X34.757 Y68.354
X35.35 Y67.572
X35.777 Y66.688
X36.08 Y65.755
X36.292 Y64.796
X36.439 Y63.826
X36.542 Y62.85
X36.612 Y61.871
X36.661 Y60.89
X36.694 Y59.91
X36.717 Y58.928
X36.733 Y57.947
X36.744 Y56.965
X36.751 Y55.984
X36.756 Y55.002
X36.76 Y54.021
X36.764 Y52.058
X36.766 Y48.132
X36.768 Y27.52
X36.769 Y-22.537
X36.77 Y-65.724
X36.617 Y-66.19
X36.094 Y-67.021
X35.331 Y-67.638
X34.456 Y-68.083
X33.527 Y-68.399
X32.571 Y-68.621
X31.601 Y-68.776
X30.626 Y-68.883
X29.647 Y-68.957
X28.667 Y-69.007
X27.686 Y-69.042
X26.705 Y-69.066
X25.723 Y-69.083
X24.742 Y-69.094
X23.76 Y-69.102
X22.779 Y-69.107
X21.797 Y-69.111
X19.834 Y-69.115
X16.89 Y-69.118
X6.093 Y-69.119
X-19.426
X-30.714 Y-69.12
X-31.178 Y-68.962
X-32.013 Y-68.445
X-32.644 Y-67.693
X-33.106 Y-66.827
X-33.438 Y-65.904
X-33.675 Y-64.951
X-33.841 Y-63.984
X-33.959 Y-63.009
X-34.04 Y-62.031
X-34.097 Y-61.051
X-34.137 Y-60.071
X-34.165 Y-59.09
X-34.184 Y-58.108
X-34.197 Y-57.127
X-34.207 Y-56.145
X-34.213 Y-55.164
X-34.217 Y-54.182
X-34.223 Y-52.219
X-34.226 Y-49.275
X-34.228 Y-41.423
Y-31.608
X-34.23 Y18.45
X-34.232 Y62.618
X-33.903 Y63.542
X-33.288 Y64.308
X-32.509 Y64.905
X-31.638 Y65.357
X-30.716 Y65.694
X-29.766 Y65.94
X-28.801 Y66.12
X-27.828 Y66.249
X-26.851 Y66.343
X-25.872 Y66.409
X-24.891 Y66.457
X-23.91 Y66.491
X-22.929 Y66.515
X-21.948 Y66.532
X-20.966 Y66.544
X-19.985 Y66.553
X-19.003 Y66.559
X-18.022 Y66.563
X-16.059 Y66.568
X-13.114 Y66.572
X-6.244 Y66.574
X20.257 Y66.578
X30.072 Y66.579
X30.548 Y66.456
X31.436 Y66.039
X32.155 Y65.371
X32.709 Y64.561
X33.125 Y63.672
X33.433 Y62.74
X33.657 Y61.784
X33.82 Y60.816
X33.937 Y59.842
X34.021 Y58.864
X34.081 Y57.884
X34.124 Y56.904
X34.154 Y55.923
X34.176 Y54.941
X34.191 Y53.96
X34.202 Y52.979
X34.209 Y51.997
X34.215 Y51.016
X34.218 Y50.034
X34.223 Y48.071
X34.226 Y45.127
X34.227 Y37.274
X34.228 Y27.459
X34.229 Y-22.598
Y-61.859
X34.227 Y-62.349
X34.121 Y-62.828
X33.728 Y-63.728
X33.075 Y-64.461
X32.273 Y-65.026
X31.388 Y-65.451
X30.458 Y-65.765
X29.504 Y-65.995
X28.536 Y-66.162
X27.562 Y-66.282
X26.585 Y-66.368
X25.605 Y-66.429
X24.624 Y-66.473
X23.643 Y-66.504
X22.662 Y-66.526
X21.681 Y-66.542
X20.699 Y-66.553
X19.718 Y-66.56
X18.736 Y-66.566
X17.755 Y-66.57
X15.792 Y-66.574
X12.847 Y-66.577
X4.995 Y-66.579
X-24.45
X-27.395 Y-66.58
X-27.874 Y-66.472
X-28.775 Y-66.082
X-29.512 Y-65.435
X-30.085 Y-64.638
X-30.518 Y-63.757
X-30.84 Y-62.829
X-31.076 Y-61.877
X-31.248 Y-60.911
X-31.373 Y-59.937
X-31.463 Y-58.96
X-31.527 Y-57.98
X-31.574 Y-57
X-31.606 Y-56.019
X-31.63 Y-55.038
X-31.647 Y-54.056
X-31.659 Y-53.075
X-31.667 Y-52.093
X-31.673 Y-51.112
X-31.677 Y-50.13
X-31.682 Y-48.167
X-31.686 Y-45.223
X-31.688 Y-38.352
X-31.689 Y-20.685
X-31.691 Y29.372
X-31.692 Y59.799
X-31.377 Y60.729
X-30.792 Y61.518
X-30.039 Y62.147
X-29.186 Y62.633
X-28.277 Y63.002
X-27.335 Y63.278
X-26.375 Y63.483
X-25.405 Y63.633
X-24.43 Y63.743
X-23.451 Y63.824
X-22.472 Y63.882
X-21.491 Y63.924
X-20.51 Y63.955
X-19.529 Y63.977
X-18.547 Y63.993
X-17.566 Y64.004
X-16.584 Y64.013
X-15.603 Y64.019
X-14.621 Y64.023
X-13.64 Y64.026
X-11.677 Y64.03
X-7.751 Y64.033
X7.953 Y64.036
X26.602 Y64.038
X27.093 Y64.026
X28.056 Y63.838
X28.902 Y63.339
X29.588 Y62.638
X30.125 Y61.816
X30.535 Y60.924
X30.843 Y59.992
X31.071 Y59.038
X31.24 Y58.071
X31.363 Y57.097
X31.453 Y56.12
X31.518 Y55.14
X31.566 Y54.16
X31.6 Y53.179
X31.624 Y52.198
X31.642 Y51.217
X31.655 Y50.235
X31.664 Y49.254
X31.671 Y48.272
X31.675 Y47.291
X31.681 Y45.328
X31.685 Y42.383
X31.687 Y36.494
X31.688 Y6.067
X31.689 Y-43.99
Y-59.694
X31.412 Y-60.636
X30.85 Y-61.441
X30.113 Y-62.088
X29.269 Y-62.59
X28.365 Y-62.972
X27.426 Y-63.257
X26.467 Y-63.469
X25.498 Y-63.625
X24.523 Y-63.739
X23.545 Y-63.822
X22.566 Y-63.883
X21.585 Y-63.926
X20.604 Y-63.958
X19.623 Y-63.981
X18.642 Y-63.997
X17.66 Y-64.009
X16.679 Y-64.018
X15.697 Y-64.024
X14.716 Y-64.028
X12.753 Y-64.033
X9.808 Y-64.037
X3.919 Y-64.039
X-0.988
X-24.545
X-25.506 Y-63.838
X-26.348 Y-63.335
X-27.034 Y-62.632
X-27.571 Y-61.811
X-27.982 Y-60.92
X-28.291 Y-59.988
X-28.521 Y-59.034
X-28.691 Y-58.067
X-28.816 Y-57.094
X-28.907 Y-56.116
X-28.974 Y-55.137
X-29.022 Y-54.157
X-29.057 Y-53.176
X-29.082 Y-52.195
X-29.101 Y-51.213
X-29.114 Y-50.232
X-29.123 Y-49.251
X-29.13 Y-48.269
X-29.135 Y-47.288
X-29.141 Y-45.325
X-29.145 Y-42.38
X-29.147 Y-39.435
X-29.149 Y-17.842
X-29.15 Y10.622
X-29.152 Y56.753
X-28.966 Y57.717
X-28.48 Y58.57
X-27.793 Y59.271
X-26.982 Y59.824
X-26.098 Y60.249
X-25.171 Y60.572
X-24.22 Y60.814
X-23.255 Y60.995
X-22.283 Y61.128
X-21.306 Y61.226
X-20.327 Y61.299
X-19.347 Y61.352
X-18.366 Y61.39
X-17.385 Y61.419
X-16.404 Y61.439
X-15.423 Y61.454
X-14.441 Y61.465
X-13.46 Y61.473
X-12.478 Y61.479
X-11.497 Y61.483
X-9.534 Y61.489
X-6.589 Y61.492
X-0.7 Y61.495
X22.856 Y61.498
X23.838
X24.819 Y61.481
X25.744 Y61.152
X26.533 Y60.568
X27.169 Y59.821
X27.666 Y58.975
X28.047 Y58.07
X28.335 Y57.131
X28.549 Y56.174
X28.709 Y55.205
X28.827 Y54.231
X28.913 Y53.253
X28.977 Y52.274
X29.023 Y51.293
X29.057 Y50.312
X29.082 Y49.331
X29.1 Y48.35
X29.113 Y47.368
X29.123 Y46.387
X29.129 Y45.405
X29.134 Y44.424
X29.141 Y42.461
X29.145 Y39.516
X29.147 Y33.627
X29.148 Y14.978
X29.149 Y-35.079
Y-56.672
X28.991 Y-57.641
X28.526 Y-58.505
X27.853 Y-59.22
X27.051 Y-59.786
X26.172 Y-60.222
X25.248 Y-60.553
X24.298 Y-60.801
X23.334 Y-60.986
X22.362 Y-61.124
X21.386 Y-61.225
X20.407 Y-61.299
X19.427 Y-61.353
X18.447 Y-61.393
X17.466 Y-61.422
X16.484 Y-61.443
X15.503 Y-61.459
X14.521 Y-61.47
X13.54 Y-61.478
X12.558 Y-61.484
X11.577 Y-61.488
X9.614 Y-61.493
X6.669 Y-61.497
X2.743 Y-61.499
X-21.795
X-22.761 Y-61.328
X-23.621 Y-60.855
X-24.332 Y-60.178
X-24.894 Y-59.374
X-25.328 Y-58.493
X-25.658 Y-57.569
X-25.907 Y-56.619
X-26.092 Y-55.656
X-26.229 Y-54.684
X-26.331 Y-53.707
X-26.405 Y-52.729
X-26.46 Y-51.749
X-26.5 Y-50.768
X-26.53 Y-49.787
X-26.551 Y-48.806
X-26.567 Y-47.824
X-26.578 Y-46.843
X-26.586 Y-45.861
X-26.592 Y-44.88
X-26.596 Y-43.898
X-26.602 Y-41.935
X-26.606 Y-38.991
Y-38.009
X-26.608 Y-29.176
X-26.61 Y12.048
X-26.611 Y54.253
X-26.381 Y55.207
X-25.872 Y56.046
X-25.172 Y56.734
X-24.355 Y57.278
X-23.468 Y57.699
X-22.54 Y58.02
X-21.589 Y58.262
X-20.624 Y58.443
X-19.652 Y58.577
X-18.676 Y58.677
X-17.697 Y58.751
X-16.717 Y58.805
X-15.736 Y58.845
X-14.755 Y58.874
X-13.774 Y58.896
X-12.793 Y58.912
X-11.811 Y58.923
X-10.83 Y58.932
X-9.848 Y58.938
X-8.867 Y58.942
X-6.904 Y58.948
X-3.959 Y58.952
X1.93 Y58.955
X21.56 Y58.958
X22.535 Y58.844
X23.422 Y58.423
X24.163 Y57.78
X24.757 Y56.998
X25.219 Y56.132
X25.573 Y55.217
X25.84 Y54.272
X26.04 Y53.312
X26.19 Y52.341
X26.3 Y51.366
X26.382 Y50.388
X26.442 Y49.408
X26.486 Y48.428
X26.519 Y47.447
X26.543 Y46.466
X26.56 Y45.484
X26.573 Y44.503
X26.582 Y43.521
X26.589 Y42.54
X26.594 Y41.558
X26.6 Y39.595
X26.605 Y36.651
X26.607 Y31.743
X26.608 Y3.279
X26.609 Y-46.778
Y-53.649
X26.566 Y-54.629
X26.219 Y-55.547
X25.626 Y-56.329
X24.875 Y-56.962
X24.028 Y-57.457
X23.123 Y-57.837
X22.185 Y-58.125
X21.227 Y-58.342
X20.259 Y-58.504
X19.285 Y-58.624
X18.308 Y-58.713
X17.328 Y-58.778
X16.348 Y-58.827
X15.367 Y-58.862
X14.386 Y-58.888
X13.405 Y-58.907
X12.423 Y-58.921
X11.442 Y-58.932
X10.46 Y-58.939
X9.479 Y-58.944
X8.497 Y-58.948
X6.534 Y-58.953
X3.59 Y-58.957
X-2.299 Y-58.959
X-14.078
X-18.985
X-19.96 Y-58.846
X-20.849 Y-58.43
X-21.596 Y-57.793
X-22.194 Y-57.015
X-22.66 Y-56.151
X-23.016 Y-55.236
X-23.287 Y-54.293
X-23.489 Y-53.332
X-23.641 Y-52.363
X-23.753 Y-51.388
X-23.837 Y-50.41
X-23.898 Y-49.43
X-23.943 Y-48.45
X-23.977 Y-47.469
X-24.001 Y-46.487
X-24.019 Y-45.506
X-24.032 Y-44.525
X-24.042 Y-43.543
X-24.049 Y-42.562
X-24.054 Y-41.58
X-24.058 Y-40.599
X-24.063 Y-38.636
X-24.066 Y-35.691
X-24.068 Y-28.821
X-24.069 Y-16.061
X-24.071 Y33.996
Y51.664
X-23.841 Y52.618
X-23.334 Y53.458
X-22.638 Y54.15
X-21.825 Y54.7
X-20.94 Y55.126
X-20.015 Y55.452
X-19.065 Y55.698
X-18.101 Y55.883
X-17.129 Y56.021
X-16.153 Y56.124
X-15.174 Y56.2
X-14.194 Y56.257
X-13.214 Y56.299
X-12.233 Y56.329
X-11.251 Y56.352
X-10.27 Y56.369
X-9.289 Y56.381
X-8.307 Y56.39
X-7.326 Y56.397
X-6.344 Y56.401
X-4.381 Y56.408
X-1.437 Y56.412
X3.471 Y56.415
X6.416 Y56.416
X19.175 Y56.418
X20.139 Y56.234
X21.001 Y55.763
X21.715 Y55.089
X22.284 Y54.29
X22.727 Y53.414
X23.066 Y52.493
X23.322 Y51.545
X23.515 Y50.583
X23.659 Y49.612
X23.766 Y48.636
X23.846 Y47.658
X23.904 Y46.678
X23.948 Y45.698
X23.979 Y44.717
X24.003 Y43.736
X24.02 Y42.754
X24.033 Y41.773
X24.042 Y40.791
X24.049 Y39.81
X24.054 Y38.828
X24.06 Y36.865
X24.065 Y33.921
X24.067 Y29.013
X24.068 Y21.161
X24.069 Y-28.896
Y-51.471
X23.903 Y-52.438
X23.445 Y-53.307
X22.781 Y-54.029
X21.987 Y-54.607
X21.115 Y-55.057
X20.195 Y-55.401
X19.249 Y-55.661
X18.287 Y-55.857
X17.317 Y-56.003
X16.341 Y-56.112
X15.363 Y-56.193
X14.383 Y-56.253
X13.403 Y-56.297
X12.422 Y-56.329
X11.441 Y-56.353
X10.459 Y-56.371
X9.478 Y-56.384
X8.496 Y-56.393
X7.515 Y-56.4
X6.533 Y-56.405
X4.57 Y-56.412
X1.626 Y-56.416
X-1.319 Y-56.418
X-15.06 Y-56.419
X-16.041
X-17.023 Y-56.398
X-17.954 Y-56.088
X-18.756 Y-55.523
X-19.412 Y-54.792
X-19.928 Y-53.957
X-20.327 Y-53.06
X-20.631 Y-52.127
X-20.861 Y-51.173
X-21.033 Y-50.207
X-21.162 Y-49.234
X-21.258 Y-48.257
X-21.329 Y-47.278
X-21.381 Y-46.298
X-21.42 Y-45.317
X-21.448 Y-44.336
X-21.47 Y-43.355
X-21.485 Y-42.373
X-21.497 Y-41.392
X-21.505 Y-40.41
X-21.511 Y-39.429
X-21.516 Y-38.447
X-21.521 Y-36.484
X-21.526 Y-33.54
X-21.528 Y-27.651
Y-23.725
X-21.53 Y26.333
X-21.531 Y48.907
X-21.359 Y49.874
X-20.898 Y50.741
X-20.236 Y51.465
X-19.442 Y52.043
X-18.57 Y52.493
X-17.652 Y52.839
X-16.706 Y53.102
X-15.745 Y53.3
X-14.775 Y53.448
X-13.799 Y53.559
X-12.821 Y53.641
X-11.842 Y53.702
X-10.861 Y53.747
X-9.88 Y53.781
X-8.899 Y53.806
X-7.918 Y53.824
X-6.936 Y53.837
X-5.955 Y53.847
X-4.973 Y53.855
X-3.992 Y53.86
X-3.01 Y53.864
X-1.047 Y53.869
X1.897 Y53.873
X3.86 Y53.875
X15.639 Y53.877
X16.62
X17.583 Y53.688
X18.443 Y53.214
X19.157 Y52.541
X19.726 Y51.741
X20.17 Y50.866
X20.511 Y49.946
X20.77 Y48.999
X20.964 Y48.037
X21.11 Y47.066
X21.218 Y46.091
X21.299 Y45.112
X21.359 Y44.133
X21.403 Y43.152
X21.436 Y42.171
X21.46 Y41.19
X21.478 Y40.209
X21.491 Y39.227
X21.501 Y38.246
X21.508 Y37.264
X21.513 Y36.283
X21.517 Y35.301
X21.522 Y33.338
X21.525 Y30.394
X21.527 Y24.505
X21.528 Y18.615
X21.529 Y-31.442
Y-48.128
X21.527 Y-49.109
X21.291 Y-50.062
X20.784 Y-50.902
X20.089 Y-51.595
X19.277 Y-52.146
X18.394 Y-52.575
X17.469 Y-52.903
X16.519 Y-53.152
X15.556 Y-53.339
X14.584 Y-53.479
X13.608 Y-53.583
X12.63 Y-53.66
X11.65 Y-53.718
X10.669 Y-53.76
X9.688 Y-53.791
X8.707 Y-53.815
X7.726 Y-53.832
X6.744 Y-53.844
X5.763 Y-53.853
X4.781 Y-53.86
X3.8 Y-53.865
X1.837 Y-53.872
X-1.108 Y-53.876
X-6.015 Y-53.879
X-8.96
X-13.868
X-14.841 Y-53.756
X-15.729 Y-53.336
X-16.474 Y-52.698
X-17.074 Y-51.921
X-17.543 Y-51.059
X-17.905 Y-50.146
X-18.179 Y-49.204
X-18.386 Y-48.244
X-18.541 Y-47.275
X-18.657 Y-46.301
X-18.743 Y-45.323
X-18.807 Y-44.343
X-18.854 Y-43.363
X-18.89 Y-42.382
X-18.915 Y-41.401
X-18.935 Y-40.42
X-18.949 Y-39.438
X-18.959 Y-38.457
X-18.967 Y-37.475
X-18.972 Y-36.494
X-18.977 Y-35.512
X-18.982 Y-33.549
X-18.986 Y-30.605
X-18.988 Y-24.716
X-18.989 Y-10.974
X-18.991 Y39.083
Y45.953
X-18.932 Y46.933
X-18.579 Y47.849
X-17.987 Y48.632
X-17.241 Y49.269
X-16.397 Y49.771
X-15.495 Y50.158
X-14.559 Y50.454
X-13.604 Y50.678
X-12.637 Y50.846
X-11.663 Y50.972
X-10.686 Y51.066
X-9.707 Y51.136
X-8.727 Y51.187
X-7.746 Y51.226
X-6.765 Y51.254
X-5.784 Y51.276
X-4.803 Y51.291
X-3.821 Y51.303
X-2.84 Y51.311
X-1.858 Y51.318
X-0.877 Y51.322
X1.086 Y51.328
X4.031 Y51.333
X8.939 Y51.336
X13.846 Y51.337
X14.819 Y51.211
X15.707 Y50.792
X16.456 Y50.157
X17.058 Y49.382
X17.529 Y48.521
X17.892 Y47.609
X18.169 Y46.667
X18.377 Y45.708
X18.534 Y44.739
X18.651 Y43.765
X18.738 Y42.787
X18.803 Y41.808
X18.851 Y40.828
X18.887 Y39.847
X18.913 Y38.865
X18.933 Y37.884
X18.947 Y36.903
X18.958 Y35.921
X18.966 Y34.94
X18.971 Y33.958
X18.976 Y32.977
X18.981 Y31.014
X18.985 Y28.069
X18.987 Y22.18
X18.988 Y-4.321
X18.989 Y-46.526
X18.762 Y-47.481
X18.261 Y-48.325
X17.571 Y-49.023
X16.762 Y-49.579
X15.881 Y-50.012
X14.958 Y-50.344
X14.009 Y-50.596
X13.046 Y-50.786
X12.075 Y-50.928
X11.099 Y-51.035
X10.121 Y-51.114
X9.141 Y-51.172
X8.161 Y-51.216
X7.18 Y-51.248
X6.198 Y-51.272
X5.217 Y-51.29
X4.236 Y-51.303
X3.254 Y-51.312
X2.273 Y-51.319
X1.291 Y-51.325
X0.31 Y-51.328
X-1.653 Y-51.333
X-4.598 Y-51.337
X-10.487 Y-51.339
X-11.469
X-12.434 Y-51.164
X-13.302 Y-50.705
X-14.024 Y-50.041
X-14.603 Y-49.248
X-15.055 Y-48.377
X-15.403 Y-47.459
X-15.667 Y-46.513
X-15.866 Y-45.552
X-16.016 Y-44.582
X-16.127 Y-43.607
X-16.211 Y-42.629
X-16.272 Y-41.65
X-16.318 Y-40.669
X-16.352 Y-39.688
X-16.377 Y-38.707
X-16.396 Y-37.726
X-16.41 Y-36.744
X-16.42 Y-35.763
X-16.427 Y-34.781
X-16.433 Y-33.8
X-16.437 Y-32.818
X-16.442 Y-30.855
X-16.446 Y-27.911
X-16.448 Y-22.022
X-16.45 Y22.147
X-16.451 Y43.74
X-16.295 Y44.709
X-15.852 Y45.585
X-15.2 Y46.318
X-14.415 Y46.907
X-13.548 Y47.368
X-12.633 Y47.723
X-11.689 Y47.993
X-10.729 Y48.197
X-9.76 Y48.35
X-8.785 Y48.465
X-7.807 Y48.55
X-6.828 Y48.614
X-5.847 Y48.661
X-4.867 Y48.696
X-3.885 Y48.722
X-2.904 Y48.741
X-1.923 Y48.755
X-0.941 Y48.766
X0.04 Y48.774
X1.022 Y48.779
X2.003 Y48.784
X3.966 Y48.789
X6.911 Y48.794
X9.855 Y48.795
X10.837 Y48.796
X11.818 Y48.782
X12.756 Y48.491
X13.572 Y47.945
X14.241 Y47.228
X14.773 Y46.403
X15.185 Y45.512
X15.501 Y44.583
X15.74 Y43.631
X15.921 Y42.666
X16.056 Y41.694
X16.157 Y40.718
X16.232 Y39.739
X16.288 Y38.759
X16.329 Y37.778
X16.36 Y36.797
X16.383 Y35.816
X16.4 Y34.835
X16.412 Y33.853
X16.422 Y32.872
X16.428 Y31.89
X16.433 Y30.909
X16.44 Y28.946
X16.445 Y26.001
X16.447 Y21.094
X16.448 Y2.445
X16.449 Y-43.686
X16.31 Y-44.658
X15.881 Y-45.541
X15.24 Y-46.284
X14.461 Y-46.881
X13.598 Y-47.349
X12.685 Y-47.709
X11.743 Y-47.984
X10.783 Y-48.191
X9.814 Y-48.346
X8.84 Y-48.463
X7.862 Y-48.55
X6.883 Y-48.614
X5.902 Y-48.662
X4.922 Y-48.698
X3.94 Y-48.724
X2.959 Y-48.744
X1.978 Y-48.758
X0.996 Y-48.769
X0.015 Y-48.777
X-0.967 Y-48.783
X-1.948 Y-48.787
X-3.911 Y-48.793
X-6.856 Y-48.797
X-8.819 Y-48.798
X-9.789 Y-48.651
X-10.669 Y-48.215
X-11.408 Y-47.569
X-12.002 Y-46.788
X-12.467 Y-45.923
X-12.825 Y-45.009
X-13.097 Y-44.066
X-13.303 Y-43.107
X-13.458 Y-42.138
X-13.574 Y-41.163
X-13.66 Y-40.185
X-13.724 Y-39.206
X-13.772 Y-38.225
X-13.808 Y-37.245
X-13.834 Y-36.263
X-13.853 Y-35.282
X-13.868 Y-34.301
X-13.878 Y-33.319
X-13.886 Y-32.338
X-13.892 Y-31.356
X-13.896 Y-30.375
X-13.902 Y-28.412
X-13.906 Y-25.467
X-13.907 Y-24.486
X-13.909 Y-16.634
X-13.91 Y25.572
X-13.911 Y41.276
X-13.729 Y42.24
X-13.265 Y43.105
X-12.599 Y43.826
X-11.806 Y44.404
X-10.934 Y44.856
X-10.016 Y45.203
X-9.071 Y45.468
X-8.11 Y45.668
X-7.14 Y45.818
X-6.165 Y45.93
X-5.187 Y46.014
X-4.208 Y46.076
X-3.227 Y46.123
X-2.246 Y46.157
X-1.265 Y46.183
X-0.284 Y46.202
X0.698 Y46.216
X1.679 Y46.226
X2.661 Y46.234
X3.642 Y46.24
X4.624 Y46.244
X6.587 Y46.25
X8.55 Y46.253
X9.529 Y46.183
X10.44 Y45.819
X11.218 Y45.221
X11.85 Y44.47
X12.348 Y43.624
X12.734 Y42.721
X13.028 Y41.785
X13.251 Y40.829
X13.419 Y39.862
X13.544 Y38.889
X13.638 Y37.912
X13.708 Y36.932
X13.759 Y35.952
X13.798 Y34.972
X13.826 Y33.99
X13.848 Y33.009
X13.863 Y32.028
X13.875 Y31.046
X13.883 Y30.065
X13.89 Y29.083
X13.894 Y28.102
X13.9 Y26.139
X13.905 Y23.194
X13.907 Y18.287
X13.908 Y-11.159
X13.909 Y-40.604
X13.898 Y-41.586
X13.618 Y-42.526
X13.08 Y-43.348
X12.368 Y-44.023
X11.547 Y-44.56
X10.659 Y-44.978
X9.731 Y-45.298
X8.78 Y-45.54
X7.815 Y-45.723
X6.843 Y-45.86
X5.867 Y-45.963
X4.889 Y-46.039
X3.909 Y-46.096
X2.928 Y-46.139
X1.947 Y-46.17
X0.966 Y-46.193
X-0.015 Y-46.21
X-0.997 Y-46.223
X-1.978 Y-46.233
X-2.96 Y-46.239
X-3.941 Y-46.245
X-5.904 Y-46.251
X-6.885 Y-46.206
X-7.808 Y-45.872
X-8.601 Y-45.294
X-9.249 Y-44.557
X-9.76 Y-43.719
X-10.157 Y-42.821
X-10.459 Y-41.887
X-10.689 Y-40.933
X-10.862 Y-39.967
X-10.991 Y-38.994
X-11.088 Y-38.017
X-11.161 Y-37.039
X-11.214 Y-36.058
X-11.254 Y-35.078
X-11.284 Y-34.097
X-11.306 Y-33.115
X-11.322 Y-32.134
X-11.334 Y-31.153
X-11.343 Y-30.171
X-11.35 Y-29.19
X-11.355 Y-28.208
X-11.361 Y-26.245
X-11.365 Y-23.301
X-11.368 Y-18.393
X-11.369 Y-0.726
X-11.371 Y38.535
X-11.246 Y39.508
X-10.831 Y40.398
X-10.2 Y41.15
X-9.428 Y41.756
X-8.569 Y42.231
X-7.659 Y42.598
X-6.718 Y42.878
X-5.76 Y43.09
X-4.791 Y43.249
X-3.817 Y43.369
X-2.84 Y43.458
X-1.861 Y43.524
X-0.88 Y43.574
X0.101 Y43.61
X1.082 Y43.638
X2.063 Y43.658
X3.044 Y43.673
X4.026 Y43.684
X5.007 Y43.693
X5.989 Y43.699
X6.968 Y43.635
X7.882 Y43.276
X8.664 Y42.683
X9.298 Y41.934
X9.798 Y41.089
X10.185 Y40.187
X10.481 Y39.251
X10.705 Y38.296
X10.874 Y37.329
X11.001 Y36.356
X11.095 Y35.379
X11.165 Y34.4
X11.218 Y33.42
X11.257 Y32.439
X11.285 Y31.458
X11.307 Y30.476
X11.323 Y29.495
X11.334 Y28.514
X11.343 Y27.532
X11.349 Y26.551
X11.354 Y25.569
X11.36 Y23.606
X11.365 Y20.662
X11.367 Y15.754
X11.368 Y4.957
X11.369 Y-38.229
X11.33 Y-39.21
X11 Y-40.135
X10.428 Y-40.932
X9.693 Y-41.582
X8.857 Y-42.097
X7.961 Y-42.496
X7.028 Y-42.802
X6.074 Y-43.033
X5.108 Y-43.208
X4.136 Y-43.339
X3.159 Y-43.437
X2.18 Y-43.51
X1.2 Y-43.564
X0.219 Y-43.604
X-0.762 Y-43.634
X-1.743 Y-43.656
X-2.724 Y-43.672
X-3.706 Y-43.685
X-4.678 Y-43.552
X-5.563 Y-43.126
X-6.305 Y-42.484
X-6.903 Y-41.706
X-7.372 Y-40.844
X-7.733 Y-39.931
X-8.008 Y-38.989
X-8.216 Y-38.03
X-8.372 Y-37.061
X-8.489 Y-36.086
X-8.577 Y-35.108
X-8.642 Y-34.129
X-8.69 Y-33.149
X-8.726 Y-32.168
X-8.752 Y-31.187
X-8.772 Y-30.205
X-8.787 Y-29.224
X-8.798 Y-28.242
X-8.806 Y-27.261
X-8.812 Y-26.279
X-8.816 Y-25.298
X-8.822 Y-23.335
X-8.826 Y-20.39
X-8.828 Y-14.501
X-8.829 Y-6.649
X-8.831 Y35.556
X-8.813 Y36.537
X-8.52 Y37.474
X-7.973 Y38.289
X-7.256 Y38.959
X-6.431 Y39.491
X-5.54 Y39.904
X-4.611 Y40.22
X-3.66 Y40.461
X-2.695 Y40.642
X-1.723 Y40.778
X-0.747 Y40.88
X0.232 Y40.956
X1.212 Y41.013
X2.192 Y41.055
X3.173 Y41.086
X4.155 Y41.098
X5.098 Y40.828
X5.921 Y40.292
X6.597 Y39.581
X7.133 Y38.758
X7.549 Y37.869
X7.868 Y36.941
X8.11 Y35.99
X8.292 Y35.025
X8.429 Y34.054
X8.531 Y33.077
X8.608 Y32.099
X8.665 Y31.119
X8.707 Y30.138
X8.738 Y29.157
X8.761 Y28.176
X8.779 Y27.195
X8.791 Y26.213
X8.801 Y25.232
X8.808 Y24.25
X8.813 Y23.269
X8.82 Y21.306
X8.825 Y18.361
X8.827 Y13.454
X8.828 Y0.694
X8.829 Y-35.622
X8.803 Y-36.603
X8.492 Y-37.534
X7.934 Y-38.342
X7.207 Y-39.002
X6.377 Y-39.525
X5.483 Y-39.931
X4.552 Y-40.242
X3.6 Y-40.478
X2.634 Y-40.656
X1.662 Y-40.79
X0.685 Y-40.89
X-0.293 Y-40.964
X-1.273 Y-41.02
X-2.244 Y-40.874
X-3.118 Y-40.428
X-3.847 Y-39.771
X-4.43 Y-38.981
X-4.885 Y-38.111
X-5.235 Y-37.194
X-5.501 Y-36.25
X-5.701 Y-35.289
X-5.852 Y-34.319
X-5.964 Y-33.344
X-6.048 Y-32.366
X-6.11 Y-31.386
X-6.156 Y-30.406
X-6.191 Y-29.425
X-6.216 Y-28.444
X-6.235 Y-27.462
X-6.249 Y-26.481
X-6.259 Y-25.5
X-6.267 Y-24.518
X-6.273 Y-23.537
X-6.277 Y-22.555
X-6.282 Y-20.592
X-6.286 Y-17.647
X-6.289 Y-11.758
X-6.29 Y7.872
X-6.291 Y33.391
X-6.186 Y34.367
X-5.789 Y35.265
X-5.167 Y36.024
X-4.402 Y36.639
X-3.548 Y37.123
X-2.64 Y37.497
X-1.701 Y37.782
X-0.744 Y37.997
X0.224 Y38.16
X1.198 Y38.281
X2.176 Y38.196
X3.066 Y37.782
X3.811 Y37.143
X4.406 Y36.362
X4.869 Y35.496
X5.224 Y34.581
X5.493 Y33.637
X5.696 Y32.677
X5.848 Y31.707
X5.961 Y30.732
X6.046 Y29.755
X6.109 Y28.775
X6.155 Y27.795
X6.19 Y26.814
X6.215 Y25.833
X6.234 Y24.851
X6.248 Y23.87
X6.258 Y22.888
X6.266 Y21.907
X6.272 Y20.925
X6.276 Y19.944
X6.281 Y17.981
X6.285 Y15.036
X6.288 Y9.147
X6.289 Y-24.224
Y-33.058
X6.267 Y-34.039
X5.963 Y-34.972
X5.41 Y-35.783
X4.686 Y-36.446
X3.858 Y-36.972
X2.965 Y-37.381
X2.035 Y-37.694
X1.559 Y-37.813
X1.07 Y-37.859
X0.582 Y-37.803
X-0.354 Y-37.507
X-1.145 Y-36.927
X-1.778 Y-36.177
X-2.27 Y-35.328
X-2.646 Y-34.421
X-2.929 Y-33.481
X-3.142 Y-32.523
X-3.3 Y-31.554
X-3.417 Y-30.58
X-3.504 Y-29.602
X-3.568 Y-28.623
X-3.616 Y-27.642
X-3.651 Y-26.661
X-3.676 Y-25.68
X-3.695 Y-24.699
X-3.709 Y-23.717
X-3.72 Y-22.736
X-3.727 Y-21.755
X-3.733 Y-20.773
X-3.737 Y-19.792
X-3.742 Y-17.828
X-3.746 Y-14.884
X-3.749 Y-8.995
Y-6.05
X-3.751 Y30.266
X-3.745 Y31.247
X-3.516 Y32.202
X-3.017 Y33.047
X-2.33 Y33.748
X-1.524 Y34.308
X-1.063 Y34.477
X-0.573 Y34.493
X-0.453 Y34.466
X0.019 Y34.333
X0.897 Y33.893
X1.605 Y33.214
X2.152 Y32.399
X2.568 Y31.51
X2.878 Y30.579
X3.109 Y29.625
X3.279 Y28.658
X3.404 Y27.685
X3.496 Y26.707
X3.564 Y25.728
X3.613 Y24.748
X3.649 Y23.767
X3.675 Y22.786
X3.695 Y21.804
X3.709 Y20.823
X3.719 Y19.842
X3.727 Y18.86
X3.732 Y17.879
X3.737 Y16.897
X3.742 Y14.934
X3.746 Y11.99
X3.748 Y6.1
X3.749 Y-22.363
Y-23.345
X3.731 Y-23.59
X3.708 Y-23.929
X3.685 Y-24.311
X3.662 Y-24.747
X3.639 Y-25.254
X3.616 Y-25.86
X3.593 Y-26.612
X3.57 Y-27.594
X3.555 Y-28.575
X3.544 Y-29.557
X3.537 Y-30.538
X3.499 Y-31.519
X3.326 Y-31.978
X3.267 Y-32.086
X3.142 Y-32.297
X2.984 Y-32.484
X2.797 Y-32.643
X2.586 Y-32.769
X2.358 Y-32.858
X2.117 Y-32.909
X1.872 Y-32.919
X1.629 Y-32.888
X1.394 Y-32.818
X1.173 Y-32.71
X0.974 Y-32.567
X0.801 Y-32.393
X0.233 Y-31.592
X-0.083 Y-30.663
X-0.318 Y-29.71
X-0.493 Y-28.744
X-0.621 Y-27.771
X-0.716 Y-26.794
X-0.786 Y-25.815
X-0.838 Y-24.835
X-0.875 Y-23.854
X-0.903 Y-22.873
X-0.924 Y-21.892
X-0.939 Y-20.91
X-0.95 Y-19.929
X-0.958 Y-18.947
X-0.964 Y-17.966
X-0.968 Y-16.984
X-0.974 Y-15.021
X-0.978 Y-12.077
X-0.98 Y-6.188
X-0.981 Y4.609
X-0.982 Y27.674
X-0.993 Y27.728 Z-3.994
X-1.004 Y27.78 Z-3.975
X-1.014 Y27.826 Z-3.945
X-1.022 Y27.864 Z-3.906
X-1.028 Y27.893 Z-3.859
X-1.036 Y27.91 Z-3.806
X-1.038 Y27.916 Z-3.751
G0 Z5
X-36.792 Y-75.821
Z-4.73
G1 Z-5.365 F1524
X-36.79 Y-75.813 Z-5.464
X-36.784 Y-75.791 Z-5.561
X-36.775 Y-75.754 Z-5.653
X-36.762 Y-75.703 Z-5.738
X-36.746 Y-75.641 Z-5.814
X-36.727 Y-75.567 Z-5.879
X-36.706 Y-75.485 Z-5.931
X-36.683 Y-75.396 Z-5.969
X-36.659 Y-75.302 Z-5.992
X-36.634 Y-75.206 Z-6
G3 X-36.137 Y-71.749 I-15.704 J4.023
G1 Y-71.599
X-36.332 Y-70.637
X-36.467 Y-69.665
X-36.561 Y-68.688
X-36.625 Y-67.708
X-36.67 Y-66.728
X-36.7 Y-65.747
X-36.721 Y-64.765
X-36.736 Y-63.784
X-36.746 Y-62.803
X-36.752 Y-61.821
X-36.757 Y-60.84
X-36.762 Y-58.877
X-36.766 Y-55.932
X-36.767 Y-48.08
X-36.769 Y-21.579
X-36.77 Y28.478
X-36.772 Y65.53
X-36.691 Y66.014
X-36.463 Y66.449
X-35.848 Y67.214
X-35.044 Y67.777
X-34.149 Y68.18
X-33.21 Y68.465
X-32.249 Y68.665
X-31.277 Y68.804
X-30.301 Y68.9
X-29.321 Y68.967
X-28.341 Y69.012
X-27.36 Y69.044
X-26.379 Y69.065
X-25.397 Y69.08
X-24.416 Y69.09
X-23.434 Y69.097
X-22.453 Y69.102
X-21.471 Y69.106
X-19.508 Y69.11
X-15.582 Y69.113
X11.9 Y69.117
X25.641 Y69.118
X33.248 Y69.119
X33.49 Y69.079
X33.954 Y68.919
X34.757 Y68.354
X35.35 Y67.572
X35.777 Y66.688
X36.08 Y65.755
X36.292 Y64.796
X36.439 Y63.826
X36.542 Y62.85
X36.612 Y61.871
X36.661 Y60.89
X36.694 Y59.91
X36.717 Y58.928
X36.733 Y57.947
X36.744 Y56.965
X36.751 Y55.984
X36.756 Y55.002
X36.76 Y54.021
X36.764 Y52.058
X36.766 Y48.132
X36.768 Y27.52
X36.769 Y-22.537
X36.77 Y-65.724
X36.617 Y-66.19
X36.094 Y-67.021
X35.331 Y-67.638
X34.456 Y-68.083
X33.527 Y-68.399
X32.571 Y-68.621
X31.601 Y-68.776
X30.626 Y-68.883
X29.647 Y-68.957
X28.667 Y-69.007
X27.686 Y-69.042
X26.705 Y-69.066
X25.723 Y-69.083
X24.742 Y-69.094
X23.76 Y-69.102
X22.779 Y-69.107
X21.797 Y-69.111
X19.834 Y-69.115
X16.89 Y-69.118
X6.093 Y-69.119
X-19.426
X-30.714 Y-69.12
X-31.178 Y-68.962
X-32.013 Y-68.445
X-32.644 Y-67.693
X-33.106 Y-66.827
X-33.438 Y-65.904
X-33.675 Y-64.951
X-33.841 Y-63.984
X-33.959 Y-63.009
X-34.04 Y-62.031
X-34.097 Y-61.051
X-34.137 Y-60.071
X-34.165 Y-59.09
X-34.184 Y-58.108
X-34.197 Y-57.127
X-34.207 Y-56.145
X-34.213 Y-55.164
X-34.217 Y-54.182
X-34.223 Y-52.219
X-34.226 Y-49.275
X-34.228 Y-41.423
Y-31.608
X-34.23 Y18.45
X-34.232 Y62.618
X-33.903 Y63.542
X-33.288 Y64.308
X-32.509 Y64.905
X-31.638 Y65.357
X-30.716 Y65.694
X-29.766 Y65.94
X-28.801 Y66.12
X-27.828 Y66.249
X-26.851 Y66.343
X-25.872 Y66.409
X-24.891 Y66.457
X-23.91 Y66.491
X-22.929 Y66.515
X-21.948 Y66.532
X-20.966 Y66.544
X-19.985 Y66.553
X-19.003 Y66.559
X-18.022 Y66.563
X-16.059 Y66.568
X-13.114 Y66.572
X-6.244 Y66.574
X20.257 Y66.578
X30.072 Y66.579
X30.548 Y66.456
X31.436 Y66.039
X32.155 Y65.371
X32.709 Y64.561
X33.125 Y63.672
X33.433 Y62.74
X33.657 Y61.784
X33.82 Y60.816
X33.937 Y59.842
X34.021 Y58.864
X34.081 Y57.884
X34.124 Y56.904
X34.154 Y55.923
X34.176 Y54.941
X34.191 Y53.96
X34.202 Y52.979
X34.209 Y51.997
X34.215 Y51.016
X34.218 Y50.034
X34.223 Y48.071
X34.226 Y45.127
X34.227 Y37.274
X34.228 Y27.459
X34.229 Y-22.598
Y-61.859
X34.227 Y-62.349
X34.121 Y-62.828
X33.728 Y-63.728
X33.075 Y-64.461
X32.273 Y-65.026
X31.388 Y-65.451
X30.458 Y-65.765
X29.504 Y-65.995
X28.536 Y-66.162
X27.562 Y-66.282
X26.585 Y-66.368
X25.605 Y-66.429
X24.624 Y-66.473
X23.643 Y-66.504
X22.662 Y-66.526
X21.681 Y-66.542
X20.699 Y-66.553
X19.718 Y-66.56
X18.736 Y-66.566
X17.755 Y-66.57
X15.792 Y-66.574
X12.847 Y-66.577
X4.995 Y-66.579
X-24.45
X-27.395 Y-66.58
X-27.874 Y-66.472
X-28.775 Y-66.082
X-29.512 Y-65.435
X-30.085 Y-64.638
X-30.518 Y-63.757
X-30.84 Y-62.829
X-31.076 Y-61.877
X-31.248 Y-60.911
X-31.373 Y-59.937
X-31.463 Y-58.96
X-31.527 Y-57.98
X-31.574 Y-57
X-31.606 Y-56.019
X-31.63 Y-55.038
X-31.647 Y-54.056
X-31.659 Y-53.075
X-31.667 Y-52.093
X-31.673 Y-51.112
X-31.677 Y-50.13
X-31.682 Y-48.167
X-31.686 Y-45.223
X-31.688 Y-38.352
X-31.689 Y-20.685
X-31.691 Y29.372
X-31.692 Y59.799
X-31.377 Y60.729
X-30.792 Y61.518
X-30.039 Y62.147
X-29.186 Y62.633
X-28.277 Y63.002
X-27.335 Y63.278
X-26.375 Y63.483
X-25.405 Y63.633
X-24.43 Y63.743
X-23.451 Y63.824
X-22.472 Y63.882
X-21.491 Y63.924
X-20.51 Y63.955
X-19.529 Y63.977
X-18.547 Y63.993
X-17.566 Y64.004
X-16.584 Y64.013
X-15.603 Y64.019
X-14.621 Y64.023
X-13.64 Y64.026
X-11.677 Y64.03
X-7.751 Y64.033
X7.953 Y64.036
X26.602 Y64.038
X27.093 Y64.026
X28.056 Y63.838
X28.902 Y63.339
X29.588 Y62.638
X30.125 Y61.816
X30.535 Y60.924
X30.843 Y59.992
X31.071 Y59.038
X31.24 Y58.071
X31.363 Y57.097
X31.453 Y56.12
X31.518 Y55.14
X31.566 Y54.16
X31.6 Y53.179
X31.624 Y52.198
X31.642 Y51.217
X31.655 Y50.235
X31.664 Y49.254
X31.671 Y48.272
X31.675 Y47.291
X31.681 Y45.328
X31.685 Y42.383
X31.687 Y36.494
X31.688 Y6.067
X31.689 Y-43.99
Y-59.694
X31.412 Y-60.636
X30.85 Y-61.441
X30.113 Y-62.088
X29.269 Y-62.59
X28.365 Y-62.972
X27.426 Y-63.257
X26.467 Y-63.469
X25.498 Y-63.625
X24.523 Y-63.739
X23.545 Y-63.822
X22.566 Y-63.883
X21.585 Y-63.926
X20.604 Y-63.958
X19.623 Y-63.981
X18.642 Y-63.997
X17.66 Y-64.009
X16.679 Y-64.018
X15.697 Y-64.024
X14.716 Y-64.028
X12.753 Y-64.033
X9.808 Y-64.037
X3.919 Y-64.039
X-0.988
X-24.545
X-25.506 Y-63.838
X-26.348 Y-63.335
X-27.034 Y-62.632
X-27.571 Y-61.811
X-27.982 Y-60.92
X-28.291 Y-59.988
X-28.521 Y-59.034
X-28.691 Y-58.067
X-28.816 Y-57.094
X-28.907 Y-56.116
X-28.974 Y-55.137
X-29.022 Y-54.157
X-29.057 Y-53.176
X-29.082 Y-52.195
X-29.101 Y-51.213
X-29.114 Y-50.232
X-29.123 Y-49.251
X-29.13 Y-48.269
X-29.135 Y-47.288
X-29.141 Y-45.325
X-29.145 Y-42.38
X-29.147 Y-39.435
X-29.149 Y-17.842
X-29.15 Y10.622
X-29.152 Y56.753
X-28.966 Y57.717
X-28.48 Y58.57
X-27.793 Y59.271
X-26.982 Y59.824
X-26.098 Y60.249
X-25.171 Y60.572
X-24.22 Y60.814
X-23.255 Y60.995
X-22.283 Y61.128
X-21.306 Y61.226
X-20.327 Y61.299
X-19.347 Y61.352
X-18.366 Y61.39
X-17.385 Y61.419
X-16.404 Y61.439
X-15.423 Y61.454
X-14.441 Y61.465
X-13.46 Y61.473
X-12.478 Y61.479
X-11.497 Y61.483
X-9.534 Y61.489
X-6.589 Y61.492
X-0.7 Y61.495
X22.856 Y61.498
X23.838
X24.819 Y61.481
X25.744 Y61.152
X26.533 Y60.568
X27.169 Y59.821
X27.666 Y58.975
X28.047 Y58.07
X28.335 Y57.131
X28.549 Y56.174
X28.709 Y55.205
X28.827 Y54.231
X28.913 Y53.253
X28.977 Y52.274
X29.023 Y51.293
X29.057 Y50.312
X29.082 Y49.331
X29.1 Y48.35
X29.113 Y47.368
X29.123 Y46.387
X29.129 Y45.405
X29.134 Y44.424
X29.141 Y42.461
X29.145 Y39.516
X29.147 Y33.627
X29.148 Y14.978
X29.149 Y-35.079
Y-56.672
X28.991 Y-57.641
X28.526 Y-58.505
X27.853 Y-59.22
X27.051 Y-59.786
X26.172 Y-60.222
X25.248 Y-60.553
X24.298 Y-60.801
X23.334 Y-60.986
X22.362 Y-61.124
X21.386 Y-61.225
X20.407 Y-61.299
X19.427 Y-61.353
X18.447 Y-61.393
X17.466 Y-61.422
X16.484 Y-61.443
X15.503 Y-61.459
X14.521 Y-61.47
X13.54 Y-61.478
X12.558 Y-61.484
X11.577 Y-61.488
X9.614 Y-61.493
X6.669 Y-61.497
X2.743 Y-61.499
X-21.795
X-22.761 Y-61.328
X-23.621 Y-60.855
X-24.332 Y-60.178
X-24.894 Y-59.374
X-25.328 Y-58.493
X-25.658 Y-57.569
X-25.907 Y-56.619
X-26.092 Y-55.656
X-26.229 Y-54.684
X-26.331 Y-53.707
X-26.405 Y-52.729
X-26.46 Y-51.749
X-26.5 Y-50.768
X-26.53 Y-49.787
X-26.551 Y-48.806
X-26.567 Y-47.824
X-26.578 Y-46.843
X-26.586 Y-45.861
X-26.592 Y-44.88
X-26.596 Y-43.898
X-26.602 Y-41.935
X-26.606 Y-38.991
Y-38.009
X-26.608 Y-29.176
X-26.61 Y12.048
X-26.611 Y54.253
X-26.381 Y55.207
X-25.872 Y56.046
X-25.172 Y56.734
X-24.355 Y57.278
X-23.468 Y57.699
X-22.54 Y58.02
X-21.589 Y58.262
X-20.624 Y58.443
X-19.652 Y58.577
X-18.676 Y58.677
X-17.697 Y58.751
X-16.717 Y58.805
X-15.736 Y58.845
X-14.755 Y58.874
X-13.774 Y58.896
X-12.793 Y58.912
X-11.811 Y58.923
X-10.83 Y58.932
X-9.848 Y58.938
X-8.867 Y58.942
X-6.904 Y58.948
X-3.959 Y58.952
X1.93 Y58.955
X21.56 Y58.958
X22.535 Y58.844
X23.422 Y58.423
X24.163 Y57.78
X24.757 Y56.998
X25.219 Y56.132
X25.573 Y55.217
X25.84 Y54.272
X26.04 Y53.312
X26.19 Y52.341
X26.3 Y51.366
X26.382 Y50.388
X26.442 Y49.408
X26.486 Y48.428
X26.519 Y47.447
X26.543 Y46.466
X26.56 Y45.484
X26.573 Y44.503
X26.582 Y43.521
X26.589 Y42.54
X26.594 Y41.558
X26.6 Y39.595
X26.605 Y36.651
X26.607 Y31.743
X26.608 Y3.279
X26.609 Y-46.778
Y-53.649
X26.566 Y-54.629
X26.219 Y-55.547
X25.626 Y-56.329
X24.875 Y-56.962
X24.028 Y-57.457
X23.123 Y-57.837
X22.185 Y-58.125
X21.227 Y-58.342
X20.259 Y-58.504
X19.285 Y-58.624
X18.308 Y-58.713
X17.328 Y-58.778
X16.348 Y-58.827
X15.367 Y-58.862
X14.386 Y-58.888
X13.405 Y-58.907
X12.423 Y-58.921
X11.442 Y-58.932
X10.46 Y-58.939
X9.479 Y-58.944
X8.497 Y-58.948
X6.534 Y-58.953
X3.59 Y-58.957
X-2.299 Y-58.959
X-14.078
X-18.985
X-19.96 Y-58.846
X-20.849 Y-58.43
X-21.596 Y-57.793
X-22.194 Y-57.015
X-22.66 Y-56.151
X-23.016 Y-55.236
X-23.287 Y-54.293
X-23.489 Y-53.332
X-23.641 Y-52.363
X-23.753 Y-51.388
X-23.837 Y-50.41
X-23.898 Y-49.43
X-23.943 Y-48.45
X-23.977 Y-47.469
X-24.001 Y-46.487
X-24.019 Y-45.506
X-24.032 Y-44.525
X-24.042 Y-43.543
X-24.049 Y-42.562
X-24.054 Y-41.58
X-24.058 Y-40.599
X-24.063 Y-38.636
X-24.066 Y-35.691
X-24.068 Y-28.821
X-24.069 Y-16.061
X-24.071 Y33.996
Y51.664
X-23.841 Y52.618
X-23.334 Y53.458
X-22.638 Y54.15
X-21.825 Y54.7
X-20.94 Y55.126
X-20.015 Y55.452
X-19.065 Y55.698
X-18.101 Y55.883
X-17.129 Y56.021
X-16.153 Y56.124
X-15.174 Y56.2
X-14.194 Y56.257
X-13.214 Y56.299
X-12.233 Y56.329
X-11.251 Y56.352
X-10.27 Y56.369
X-9.289 Y56.381
X-8.307 Y56.39
X-7.326 Y56.397
X-6.344 Y56.401
X-4.381 Y56.408
X-1.437 Y56.412
X3.471 Y56.415
X6.416 Y56.416
X19.175 Y56.418
X20.139 Y56.234
X21.001 Y55.763
X21.715 Y55.089
X22.284 Y54.29
X22.727 Y53.414
X23.066 Y52.493
X23.322 Y51.545
X23.515 Y50.583
X23.659 Y49.612
X23.766 Y48.636
X23.846 Y47.658
X23.904 Y46.678
X23.948 Y45.698
X23.979 Y44.717
X24.003 Y43.736
X24.02 Y42.754
X24.033 Y41.773
X24.042 Y40.791
X24.049 Y39.81
X24.054 Y38.828
X24.06 Y36.865
X24.065 Y33.921
X24.067 Y29.013
X24.068 Y21.161
X24.069 Y-28.896
Y-51.471
X23.903 Y-52.438
X23.445 Y-53.307
X22.781 Y-54.029
X21.987 Y-54.607
X21.115 Y-55.057
X20.195 Y-55.401
X19.249 Y-55.661
X18.287 Y-55.857
X17.317 Y-56.003
X16.341 Y-56.112
X15.363 Y-56.193
X14.383 Y-56.253
X13.403 Y-56.297
X12.422 Y-56.329
X11.441 Y-56.353
X10.459 Y-56.371
X9.478 Y-56.384
X8.496 Y-56.393
X7.515 Y-56.4
X6.533 Y-56.405
X4.57 Y-56.412
X1.626 Y-56.416
X-1.319 Y-56.418
X-15.06 Y-56.419
X-16.041
X-17.023 Y-56.398
X-17.954 Y-56.088
X-18.756 Y-55.523
X-19.412 Y-54.792
X-19.928 Y-53.957
X-20.327 Y-53.06
X-20.631 Y-52.127
X-20.861 Y-51.173
X-21.033 Y-50.207
X-21.162 Y-49.234
X-21.258 Y-48.257
X-21.329 Y-47.278
X-21.381 Y-46.298
X-21.42 Y-45.317
X-21.448 Y-44.336
X-21.47 Y-43.355
X-21.485 Y-42.373
X-21.497 Y-41.392
X-21.505 Y-40.41
X-21.511 Y-39.429
X-21.516 Y-38.447
X-21.521 Y-36.484
X-21.526 Y-33.54
X-21.528 Y-27.651
Y-23.725
X-21.53 Y26.333
X-21.531 Y48.907
X-21.359 Y49.874
X-20.898 Y50.741
X-20.236 Y51.465
X-19.442 Y52.043
X-18.57 Y52.493
X-17.652 Y52.839
X-16.706 Y53.102
X-15.745 Y53.3
X-14.775 Y53.448
X-13.799 Y53.559
X-12.821 Y53.641
X-11.842 Y53.702
X-10.861 Y53.747
X-9.88 Y53.781
X-8.899 Y53.806
X-7.918 Y53.824
X-6.936 Y53.837
X-5.955 Y53.847
X-4.973 Y53.855
X-3.992 Y53.86
X-3.01 Y53.864
X-1.047 Y53.869
X1.897 Y53.873
X3.86 Y53.875
X15.639 Y53.877
X16.62
X17.583 Y53.688
X18.443 Y53.214
X19.157 Y52.541
X19.726 Y51.741
X20.17 Y50.866
X20.511 Y49.946
X20.77 Y48.999
X20.964 Y48.037
X21.11 Y47.066
X21.218 Y46.091
X21.299 Y45.112
X21.359 Y44.133
X21.403 Y43.152
X21.436 Y42.171
X21.46 Y41.19
X21.478 Y40.209
X21.491 Y39.227
X21.501 Y38.246
X21.508 Y37.264
X21.513 Y36.283
X21.517 Y35.301
X21.522 Y33.338
X21.525 Y30.394
X21.527 Y24.505
X21.528 Y18.615
X21.529 Y-31.442
Y-48.128
X21.527 Y-49.109
X21.291 Y-50.062
X20.784 Y-50.902
X20.089 Y-51.595
X19.277 Y-52.146
X18.394 Y-52.575
X17.469 Y-52.903
X16.519 Y-53.152
X15.556 Y-53.339
X14.584 Y-53.479
X13.608 Y-53.583
X12.63 Y-53.66
X11.65 Y-53.718
X10.669 Y-53.76
X9.688 Y-53.791
X8.707 Y-53.815
X7.726 Y-53.832
X6.744 Y-53.844
X5.763 Y-53.853
X4.781 Y-53.86
X3.8 Y-53.865
X1.837 Y-53.872
X-1.108 Y-53.876
X-6.015 Y-53.879
X-8.96
X-13.868
X-14.841 Y-53.756
X-15.729 Y-53.336
X-16.474 Y-52.698
X-17.074 Y-51.921
X-17.543 Y-51.059
X-17.905 Y-50.146
X-18.179 Y-49.204
X-18.386 Y-48.244
X-18.541 Y-47.275
X-18.657 Y-46.301
X-18.743 Y-45.323
X-18.807 Y-44.343
X-18.854 Y-43.363
X-18.89 Y-42.382
X-18.915 Y-41.401
X-18.935 Y-40.42
X-18.949 Y-39.438
X-18.959 Y-38.457
X-18.967 Y-37.475
X-18.972 Y-36.494
X-18.977 Y-35.512
X-18.982 Y-33.549
X-18.986 Y-30.605
X-18.988 Y-24.716
X-18.989 Y-10.974
X-18.991 Y39.083
Y45.953
X-18.932 Y46.933
X-18.579 Y47.849
X-17.987 Y48.632
X-17.241 Y49.269
X-16.397 Y49.771
X-15.495 Y50.158
X-14.559 Y50.454
X-13.604 Y50.678
X-12.637 Y50.846
X-11.663 Y50.972
X-10.686 Y51.066
X-9.707 Y51.136
X-8.727 Y51.187
X-7.746 Y51.226
X-6.765 Y51.254
X-5.784 Y51.276
X-4.803 Y51.291
X-3.821 Y51.303
X-2.84 Y51.311
X-1.858 Y51.318
X-0.877 Y51.322
X1.086 Y51.328
X4.031 Y51.333
X8.939 Y51.336
X13.846 Y51.337
X14.819 Y51.211
X15.707 Y50.792
X16.456 Y50.157
X17.058 Y49.382
X17.529 Y48.521
X17.892 Y47.609
X18.169 Y46.667
X18.377 Y45.708
X18.534 Y44.739
X18.651 Y43.765
X18.738 Y42.787
X18.803 Y41.808
X18.851 Y40.828
X18.887 Y39.847
X18.913 Y38.865
X18.933 Y37.884
X18.947 Y36.903
X18.958 Y35.921
X18.966 Y34.94
X18.971 Y33.958
X18.976 Y32.977
X18.981 Y31.014
X18.985 Y28.069
X18.987 Y22.18
X18.988 Y-4.321
X18.989 Y-46.526
X18.762 Y-47.481
X18.261 Y-48.325
X17.571 Y-49.023
X16.762 Y-49.579
X15.881 Y-50.012
X14.958 Y-50.344
X14.009 Y-50.596
X13.046 Y-50.786
X12.075 Y-50.928
X11.099 Y-51.035
X10.121 Y-51.114
X9.141 Y-51.172
X8.161 Y-51.216
X7.18 Y-51.248
X6.198 Y-51.272
X5.217 Y-51.29
X4.236 Y-51.303
X3.254 Y-51.312
X2.273 Y-51.319
X1.291 Y-51.325
X0.31 Y-51.328
X-1.653 Y-51.333
X-4.598 Y-51.337
X-10.487 Y-51.339
X-11.469
X-12.434 Y-51.164
X-13.302 Y-50.705
X-14.024 Y-50.041
X-14.603 Y-49.248
X-15.055 Y-48.377
X-15.403 Y-47.459
X-15.667 Y-46.513
X-15.866 Y-45.552
X-16.016 Y-44.582
X-16.127 Y-43.607
X-16.211 Y-42.629
X-16.272 Y-41.65
X-16.318 Y-40.669
X-16.352 Y-39.688
X-16.377 Y-38.707
X-16.396 Y-37.726
X-16.41 Y-36.744
X-16.42 Y-35.763
X-16.427 Y-34.781
X-16.433 Y-33.8
X-16.437 Y-32.818
X-16.442 Y-30.855
X-16.446 Y-27.911
X-16.448 Y-22.022
X-16.45 Y22.147
X-16.451 Y43.74
X-16.295 Y44.709
X-15.852 Y45.585
X-15.2 Y46.318
X-14.415 Y46.907
X-13.548 Y47.368
X-12.633 Y47.723
X-11.689 Y47.993
X-10.729 Y48.197
X-9.76 Y48.35
X-8.785 Y48.465
X-7.807 Y48.55
X-6.828 Y48.614
X-5.847 Y48.661
X-4.867 Y48.696
X-3.885 Y48.722
X-2.904 Y48.741
X-1.923 Y48.755
X-0.941 Y48.766
X0.04 Y48.774
X1.022 Y48.779
X2.003 Y48.784
X3.966 Y48.789
X6.911 Y48.794
X9.855 Y48.795
X10.837 Y48.796
X11.818 Y48.782
X12.756 Y48.491
X13.572 Y47.945
X14.241 Y47.228
X14.773 Y46.403
X15.185 Y45.512
X15.501 Y44.583
X15.74 Y43.631
X15.921 Y42.666
X16.056 Y41.694
X16.157 Y40.718
X16.232 Y39.739
X16.288 Y38.759
X16.329 Y37.778
X16.36 Y36.797
X16.383 Y35.816
X16.4 Y34.835
X16.412 Y33.853
X16.422 Y32.872
X16.428 Y31.89
X16.433 Y30.909
X16.44 Y28.946
X16.445 Y26.001
X16.447 Y21.094
X16.448 Y2.445
X16.449 Y-43.686
X16.31 Y-44.658
X15.881 Y-45.541
X15.24 Y-46.284
X14.461 Y-46.881
X13.598 Y-47.349
X12.685 Y-47.709
X11.743 Y-47.984
X10.783 Y-48.191
X9.814 Y-48.346
X8.84 Y-48.463
X7.862 Y-48.55
X6.883 Y-48.614
X5.902 Y-48.662
X4.922 Y-48.698
X3.94 Y-48.724
X2.959 Y-48.744
X1.978 Y-48.758
X0.996 Y-48.769
X0.015 Y-48.777
X-0.967 Y-48.783
X-1.948 Y-48.787
X-3.911 Y-48.793
X-6.856 Y-48.797
X-8.819 Y-48.798
X-9.789 Y-48.651
X-10.669 Y-48.215
X-11.408 Y-47.569
X-12.002 Y-46.788
X-12.467 Y-45.923
X-12.825 Y-45.009
X-13.097 Y-44.066
X-13.303 Y-43.107
X-13.458 Y-42.138
X-13.574 Y-41.163
X-13.66 Y-40.185
X-13.724 Y-39.206
X-13.772 Y-38.225
X-13.808 Y-37.245
X-13.834 Y-36.263
X-13.853 Y-35.282
X-13.868 Y-34.301
X-13.878 Y-33.319
X-13.886 Y-32.338
X-13.892 Y-31.356
X-13.896 Y-30.375
X-13.902 Y-28.412
X-13.906 Y-25.467
X-13.907 Y-24.486
X-13.909 Y-16.634
X-13.91 Y25.572
X-13.911 Y41.276
X-13.729 Y42.24
X-13.265 Y43.105
X-12.599 Y43.826
X-11.806 Y44.404
X-10.934 Y44.856
X-10.016 Y45.203
X-9.071 Y45.468
X-8.11 Y45.668
X-7.14 Y45.818
X-6.165 Y45.93
X-5.187 Y46.014
X-4.208 Y46.076
X-3.227 Y46.123
X-2.246 Y46.157
X-1.265 Y46.183
X-0.284 Y46.202
X0.698 Y46.216
X1.679 Y46.226
X2.661 Y46.234
X3.642 Y46.24
X4.624 Y46.244
X6.587 Y46.25
X8.55 Y46.253
X9.529 Y46.183
X10.44 Y45.819
X11.218 Y45.221
X11.85 Y44.47
X12.348 Y43.624
X12.734 Y42.721
X13.028 Y41.785
X13.251 Y40.829
X13.419 Y39.862
X13.544 Y38.889
X13.638 Y37.912
X13.708 Y36.932
X13.759 Y35.952
X13.798 Y34.972
X13.826 Y33.99
X13.848 Y33.009
X13.863 Y32.028
X13.875 Y31.046
X13.883 Y30.065
X13.89 Y29.083
X13.894 Y28.102
X13.9 Y26.139
X13.905 Y23.194
X13.907 Y18.287
X13.908 Y-11.159
X13.909 Y-40.604
X13.898 Y-41.586
X13.618 Y-42.526
X13.08 Y-43.348
X12.368 Y-44.023
X11.547 Y-44.56
X10.659 Y-44.978
X9.731 Y-45.298
X8.78 Y-45.54
X7.815 Y-45.723
X6.843 Y-45.86
X5.867 Y-45.963
X4.889 Y-46.039
X3.909 Y-46.096
X2.928 Y-46.139
X1.947 Y-46.17
X0.966 Y-46.193
X-0.015 Y-46.21
X-0.997 Y-46.223
X-1.978 Y-46.233
X-2.96 Y-46.239
X-3.941 Y-46.245
X-5.904 Y-46.251
X-6.885 Y-46.206
X-7.808 Y-45.872
X-8.601 Y-45.294
X-9.249 Y-44.557
X-9.76 Y-43.719
X-10.157 Y-42.821
X-10.459 Y-41.887
X-10.689 Y-40.933
X-10.862 Y-39.967
X-10.991 Y-38.994
X-11.088 Y-38.017
X-11.161 Y-37.039
X-11.214 Y-36.058
X-11.254 Y-35.078
X-11.284 Y-34.097
X-11.306 Y-33.115
X-11.322 Y-32.134
X-11.334 Y-31.153
X-11.343 Y-30.171
X-11.35 Y-29.19
X-11.355 Y-28.208
X-11.361 Y-26.245
X-11.365 Y-23.301
X-11.368 Y-18.393
X-11.369 Y-0.726
X-11.371 Y38.535
X-11.246 Y39.508
X-10.831 Y40.398
X-10.2 Y41.15
X-9.428 Y41.756
X-8.569 Y42.231
X-7.659 Y42.598
X-6.718 Y42.878
X-5.76 Y43.09
X-4.791 Y43.249
X-3.817 Y43.369
X-2.84 Y43.458
X-1.861 Y43.524
X-0.88 Y43.574
X0.101 Y43.61
X1.082 Y43.638
X2.063 Y43.658
X3.044 Y43.673
X4.026 Y43.684
X5.007 Y43.693
X5.989 Y43.699
X6.968 Y43.635
X7.882 Y43.276
X8.664 Y42.683
X9.298 Y41.934
X9.798 Y41.089
X10.185 Y40.187
X10.481 Y39.251
X10.705 Y38.296
X10.874 Y37.329
X11.001 Y36.356
X11.095 Y35.379
X11.165 Y34.4
X11.218 Y33.42
X11.257 Y32.439
X11.285 Y31.458
X11.307 Y30.476
X11.323 Y29.495
X11.334 Y28.514
X11.343 Y27.532
X11.349 Y26.551
X11.354 Y25.569
X11.36 Y23.606
X11.365 Y20.662
X11.367 Y15.754
X11.368 Y4.957
X11.369 Y-38.229
X11.33 Y-39.21
X11 Y-40.135
X10.428 Y-40.932
X9.693 Y-41.582
X8.857 Y-42.097
X7.961 Y-42.496
X7.028 Y-42.802
X6.074 Y-43.033
X5.108 Y-43.208
X4.136 Y-43.339
X3.159 Y-43.437
X2.18 Y-43.51
X1.2 Y-43.564
X0.219 Y-43.604
X-0.762 Y-43.634
X-1.743 Y-43.656
X-2.724 Y-43.672
X-3.706 Y-43.685
X-4.678 Y-43.552
X-5.563 Y-43.126
X-6.305 Y-42.484
X-6.903 Y-41.706
X-7.372 Y-40.844
X-7.733 Y-39.931
X-8.008 Y-38.989
X-8.216 Y-38.03
X-8.372 Y-37.061
X-8.489 Y-36.086
X-8.577 Y-35.108
X-8.642 Y-34.129
X-8.69 Y-33.149
X-8.726 Y-32.168
X-8.752 Y-31.187
X-8.772 Y-30.205
X-8.787 Y-29.224
X-8.798 Y-28.242
X-8.806 Y-27.261
X-8.812 Y-26.279
X-8.816 Y-25.298
X-8.822 Y-23.335
X-8.826 Y-20.39
X-8.828 Y-14.501
X-8.829 Y-6.649
X-8.831 Y35.556
X-8.813 Y36.537
X-8.52 Y37.474
X-7.973 Y38.289
X-7.256 Y38.959
X-6.431 Y39.491
X-5.54 Y39.904
X-4.611 Y40.22
X-3.66 Y40.461
X-2.695 Y40.642
X-1.723 Y40.778
X-0.747 Y40.88
X0.232 Y40.956
X1.212 Y41.013
X2.192 Y41.055
X3.173 Y41.086
X4.155 Y41.098
X5.098 Y40.828
X5.921 Y40.292
X6.597 Y39.581
X7.133 Y38.758
X7.549 Y37.869
X7.868 Y36.941
X8.11 Y35.99
X8.292 Y35.025
X8.429 Y34.054
X8.531 Y33.077
X8.608 Y32.099
X8.665 Y31.119
X8.707 Y30.138
X8.738 Y29.157
X8.761 Y28.176
X8.779 Y27.195
X8.791 Y26.213
X8.801 Y25.232
X8.808 Y24.25
X8.813 Y23.269
X8.82 Y21.306
X8.825 Y18.361
X8.827 Y13.454
X8.828 Y0.694
X8.829 Y-35.622
X8.803 Y-36.603
X8.492 Y-37.534
X7.934 Y-38.342
X7.207 Y-39.002
X6.377 Y-39.525
X5.483 Y-39.931
X4.552 Y-40.242
X3.6 Y-40.478
X2.634 Y-40.656
X1.662 Y-40.79
X0.685 Y-40.89
X-0.293 Y-40.964
X-1.273 Y-41.02
X-2.244 Y-40.874
X-3.118 Y-40.428
X-3.847 Y-39.771
X-4.43 Y-38.981
X-4.885 Y-38.111
X-5.235 Y-37.194
X-5.501 Y-36.25
X-5.701 Y-35.289
X-5.852 Y-34.319
X-5.964 Y-33.344
X-6.048 Y-32.366
X-6.11 Y-31.386
X-6.156 Y-30.406
X-6.191 Y-29.425
X-6.216 Y-28.444
X-6.235 Y-27.462
X-6.249 Y-26.481
X-6.259 Y-25.5
X-6.267 Y-24.518
X-6.273 Y-23.537
X-6.277 Y-22.555
X-6.282 Y-20.592
X-6.286 Y-17.647
X-6.289 Y-11.758
X-6.29 Y7.872
X-6.291 Y33.391
X-6.186 Y34.367
X-5.789 Y35.265
X-5.167 Y36.024
X-4.402 Y36.639
X-3.548 Y37.123
X-2.64 Y37.497
X-1.701 Y37.782
X-0.744 Y37.997
X0.224 Y38.16
X1.198 Y38.281
X2.176 Y38.196
X3.066 Y37.782
X3.811 Y37.143
X4.406 Y36.362
X4.869 Y35.496
X5.224 Y34.581
X5.493 Y33.637
X5.696 Y32.677
X5.848 Y31.707
X5.961 Y30.732
X6.046 Y29.755
X6.109 Y28.775
X6.155 Y27.795
X6.19 Y26.814
X6.215 Y25.833
X6.234 Y24.851
X6.248 Y23.87
X6.258 Y22.888
X6.266 Y21.907
X6.272 Y20.925
X6.276 Y19.944
X6.281 Y17.981
X6.285 Y15.036
X6.288 Y9.147
X6.289 Y-24.224
Y-33.058
X6.267 Y-34.039
X5.963 Y-34.972
X5.41 Y-35.783
X4.686 Y-36.446
X3.858 Y-36.972
X2.965 Y-37.381
X2.035 Y-37.694
X1.559 Y-37.813
X1.07 Y-37.859
X0.582 Y-37.803
X-0.354 Y-37.507
X-1.145 Y-36.927
X-1.778 Y-36.177
X-2.27 Y-35.328
X-2.646 Y-34.421
X-2.929 Y-33.481
X-3.142 Y-32.523
X-3.3 Y-31.554
X-3.417 Y-30.58
X-3.504 Y-29.602
X-3.568 Y-28.623
X-3.616 Y-27.642
X-3.651 Y-26.661
X-3.676 Y-25.68
X-3.695 Y-24.699
X-3.709 Y-23.717
X-3.72 Y-22.736
X-3.727 Y-21.755
X-3.733 Y-20.773
X-3.737 Y-19.792
X-3.742 Y-17.828
X-3.746 Y-14.884
X-3.749 Y-8.995
Y-6.05
X-3.751 Y30.266
X-3.745 Y31.247
X-3.516 Y32.202
X-3.017 Y33.047
X-2.33 Y33.748
X-1.524 Y34.308
X-1.063 Y34.477
X-0.573 Y34.493
X-0.453 Y34.466
X0.019 Y34.333
X0.897 Y33.893
X1.605 Y33.214
X2.152 Y32.399
X2.568 Y31.51
X2.878 Y30.579
X3.109 Y29.625
X3.279 Y28.658
X3.404 Y27.685
X3.496 Y26.707
X3.564 Y25.728
X3.613 Y24.748
X3.649 Y23.767
X3.675 Y22.786
X3.695 Y21.804
X3.709 Y20.823
X3.719 Y19.842
X3.727 Y18.86
X3.732 Y17.879
X3.737 Y16.897
X3.742 Y14.934
X3.746 Y11.99
X3.748 Y6.1
X3.749 Y-22.363
Y-23.345
X3.731 Y-23.59
X3.708 Y-23.929
X3.685 Y-24.311
X3.662 Y-24.747
X3.639 Y-25.254
X3.616 Y-25.86
X3.593 Y-26.612
X3.57 Y-27.594
X3.555 Y-28.575
X3.544 Y-29.557
X3.537 Y-30.538
X3.499 Y-31.519
X3.326 Y-31.978
X3.267 Y-32.086
X3.142 Y-32.297
X2.984 Y-32.484
X2.797 Y-32.643
X2.586 Y-32.769
X2.358 Y-32.858
X2.117 Y-32.909
X1.872 Y-32.919
X1.629 Y-32.888
X1.394 Y-32.818
X1.173 Y-32.71
X0.974 Y-32.567
X0.801 Y-32.393
X0.233 Y-31.592
X-0.083 Y-30.663
X-0.318 Y-29.71
X-0.493 Y-28.744
X-0.621 Y-27.771
X-0.716 Y-26.794
X-0.786 Y-25.815
X-0.838 Y-24.835
X-0.875 Y-23.854
X-0.903 Y-22.873
X-0.924 Y-21.892
X-0.939 Y-20.91
X-0.95 Y-19.929
X-0.958 Y-18.947
X-0.964 Y-17.966
X-0.968 Y-16.984
X-0.974 Y-15.021
X-0.978 Y-12.077
X-0.98 Y-6.188
X-0.981 Y4.609
X-0.982 Y27.674
X-0.993 Y27.728 Z-5.994
X-1.004 Y27.78 Z-5.975
X-1.014 Y27.826 Z-5.945
X-1.022 Y27.864 Z-5.906
X-1.028 Y27.893 Z-5.859
X-1.036 Y27.91 Z-5.806
X-1.038 Y27.916 Z-5.751
G0 Z5
X-42.598 Y-71.943
Z-6.73
G1 Z-7.365 F1524
X-42.591 Y-71.941 Z-7.464
X-42.569 Y-71.934 Z-7.561
X-42.533 Y-71.922 Z-7.653
X-42.483 Y-71.906 Z-7.738
X-42.422 Y-71.885 Z-7.814
X-42.35 Y-71.862 Z-7.879
X-42.269 Y-71.835 Z-7.931
X-42.182 Y-71.807 Z-7.969
X-42.09 Y-71.776 Z-7.992
X-41.995 Y-71.745 Z-8
G3 X-38.814 Y-70.305 I-5.057 J15.403
G1 X-38.726 Y-70.249
X-38.615 Y-70.147
X-38.511 Y-70.04
X-38.412 Y-69.927
X-38.319 Y-69.81
X-38.23 Y-69.688
X-38.146 Y-69.564
X-38.067 Y-69.437
X-37.991 Y-69.307
X-37.92 Y-69.175
X-37.852 Y-69.042
X-37.787 Y-68.906
X-37.726 Y-68.769
X-37.668 Y-68.631
X-37.613 Y-68.492
X-37.56 Y-68.351
X-37.511 Y-68.209
X-37.463 Y-68.067
X-37.418 Y-67.924
X-37.376 Y-67.78
X-37.335 Y-67.636
X-37.296 Y-67.491
X-37.26 Y-67.345
X-37.225 Y-67.2
X-37.192 Y-67.053
X-37.16 Y-66.907
X-37.13 Y-66.76
X-37.102 Y-66.612
X-37.074 Y-66.465
X-37.049 Y-66.317
X-37.024 Y-66.169
X-37.001 Y-66.021
X-36.978 Y-65.871
X-36.956 Y-65.714
X-36.933 Y-65.547
X-36.911 Y-65.37
X-36.888 Y-65.181
X-36.865 Y-64.98
X-36.843 Y-64.765
X-36.82 Y-64.532
X-36.797 Y-64.28
X-36.775 Y-64.006
X-36.752 Y-63.704
X-36.729 Y-63.369
X-36.706 Y-62.992
X-36.683 Y-62.564
X-36.66 Y-62.066
X-36.637 Y-61.473
X-36.614 Y-60.741
X-36.591 Y-59.785
X-36.575 Y-58.804
X-36.564 Y-57.822
X-36.556 Y-56.841
X-36.55 Y-55.859
X-36.547 Y-54.878
X-36.543 Y-52.915
X-36.54 Y-49.97
X-36.539 Y-40.155
X-36.54 Y-20.525
Y-19.543
X-36.612 Y-18.565
X-36.661 Y-17.584
X-36.695 Y-16.603
X-36.718 Y-15.622
X-36.734 Y-14.641
X-36.745 Y-13.659
X-36.753 Y-12.678
X-36.758 Y-11.696
X-36.761 Y-10.715
X-36.765 Y-8.752
X-36.768 Y-5.807
X-36.769 Y2.265
X-36.774 Y2.381
X-36.787 Y2.495
X-36.81 Y2.608
X-38.734 Y10.696
X-38.746 Y10.752
X-38.775 Y10.919
X-38.805 Y11.142
X-38.818 Y11.364
X-38.825 Y11.587
Y14.038
X-38.81 Y14.261
X-38.777 Y14.707
X-38.746 Y14.881
X-38.736 Y14.93
X-38.68 Y15.153
X-38.611 Y15.375
X-38.521 Y15.598
X-38.414 Y15.821
X-38.301 Y16.031
X-38.292 Y16.044
X-38.064 Y16.432
X-37.856 Y16.862
X-37.636 Y17.426
X-37.407 Y18.192
X-37.201 Y19.152
X-37.063 Y20.123
X-36.97 Y21.1
X-36.907 Y22.08
X-36.863 Y23.06
X-36.834 Y24.042
X-36.814 Y25.023
X-36.8 Y26.004
X-36.791 Y26.986
X-36.784 Y27.967
X-36.78 Y28.949
X-36.775 Y30.912
X-36.772 Y33.856
X-36.771 Y42.095
X-36.796 Y42.364
X-36.869 Y42.624
X-36.988 Y42.867
X-37.149 Y43.083
X-37.347 Y43.267
X-37.41 Y43.316
X-37.577 Y43.452
X-37.633 Y43.499
X-37.804 Y43.675
X-37.855 Y43.729
X-38.003 Y43.898
X-38.173 Y44.121
X-38.316 Y44.343
X-38.523 Y44.753
X-38.622 Y45.012
X-38.689 Y45.235
X-38.739 Y45.458
X-38.802 Y45.903
X-38.82 Y46.126
X-38.825 Y46.795
Y48.8
X-38.82 Y49.023
X-38.796 Y49.468
X-38.774 Y49.691
X-38.734 Y49.914
X-38.673 Y50.137
X-38.599 Y50.36
X-38.523 Y50.559
X-38.404 Y50.805
X-38.301 Y50.998
X-38.156 Y51.251
X-37.903 Y51.752
X-37.685 Y52.283
X-37.458 Y52.997
X-37.236 Y53.953
X-37.087 Y54.923
X-36.987 Y55.9
X-36.918 Y56.879
X-36.872 Y57.859
X-36.84 Y58.84
X-36.818 Y59.822
X-36.804 Y60.803
X-36.794 Y61.784
X-36.787 Y62.766
X-36.782 Y63.747
X-36.779 Y64.729
X-36.777 Y65.711
X-36.626 Y66.178
X-36.105 Y67.009
X-35.342 Y67.628
X-34.468 Y68.074
X-33.539 Y68.391
X-32.583 Y68.613
X-31.614 Y68.768
X-30.638 Y68.875
X-29.66 Y68.949
X-28.68 Y69
X-27.699 Y69.035
X-26.717 Y69.06
X-25.736 Y69.076
X-24.755 Y69.088
X-23.773 Y69.096
X-22.792 Y69.101
X-21.81 Y69.105
X-20.843 Y69.107
X-20.626 Y69.124
X-20.413 Y69.172
X-20.209 Y69.252
X-16.924 Y70.82
X-16.835 Y70.86
X-16.701 Y70.913
X-16.478 Y70.995
X-16.157 Y71.083
X-16.033 Y71.109
X-15.81 Y71.141
X-15.365 Y71.164
X-15.142 Y71.174
X-13.806
X-13.583 Y71.169
X-13.138 Y71.152
X-12.915 Y71.131
X-12.693 Y71.093
X-12.47 Y71.037
X-12.247 Y70.966
X-12.025 Y70.882
X-11.802 Y70.78
X-11.579 Y70.659
X-11.545 Y70.637
X-11.279 Y70.471
X-10.882 Y70.267
X-10.366 Y70.05
X-9.674 Y69.824
X-8.72 Y69.595
X-7.751 Y69.441
X-6.775 Y69.337
X-5.796 Y69.266
X-4.815 Y69.218
X-3.834 Y69.186
X-2.853 Y69.163
X-1.872 Y69.148
X-0.89 Y69.138
X0.091 Y69.131
X1.073 Y69.126
X2.054 Y69.123
X4.017 Y69.119
X7.943 Y69.117
X8.612
X8.948 Y69.154
X9.268 Y69.264
X9.556 Y69.441
X9.798 Y69.677
X10.038 Y69.969
X10.243 Y70.172
X10.264 Y70.192
X10.466 Y70.367
X10.845 Y70.637
X10.911 Y70.677
X11.134 Y70.793
X11.276 Y70.86
X11.357 Y70.897
X11.579 Y70.978
X11.802 Y71.044
X11.949 Y71.083
X12.025 Y71.099
X12.247 Y71.137
X12.47 Y71.151
X12.915 Y71.171
X13.138 Y71.174
X14.251
X14.474 Y71.172
X14.919 Y71.152
X15.142 Y71.141
X15.365 Y71.103
X15.458 Y71.083
X15.587 Y71.052
X15.81 Y70.976
X16.255 Y70.795
X16.478 Y70.7
X17.146 Y70.384
X17.979 Y70.04
X18.685 Y69.813
X19.64 Y69.588
X20.61 Y69.438
X21.586 Y69.336
X22.565 Y69.267
X23.546 Y69.22
X24.527 Y69.188
X25.508 Y69.166
X26.489 Y69.151
X27.471 Y69.141
X28.452 Y69.134
X29.434 Y69.129
X30.415 Y69.126
X32.378 Y69.123
X33.36 Y69.122
X33.827 Y68.973
X34.66 Y68.454
X35.28 Y67.693
X35.727 Y66.819
X36.044 Y65.89
X36.267 Y64.934
X36.422 Y63.965
X36.53 Y62.989
X36.604 Y62.011
X36.655 Y61.03
X36.69 Y60.049
X36.714 Y59.068
X36.731 Y58.087
X36.742 Y57.105
X36.75 Y56.124
X36.756 Y55.142
X36.759 Y54.161
X36.762 Y52.913
X36.781 Y52.681
X36.836 Y52.454
X36.925 Y52.239
X38.346 Y49.468
X38.444 Y49.246
X38.632 Y48.8
X38.701 Y48.577
X38.746 Y48.394
X38.792 Y48.132
X38.824 Y47.463
X38.825 Y47.017
Y42.338
X38.822 Y42.115
X38.812 Y41.669
X38.793 Y41.447
X38.76 Y41.224
X38.711 Y41.001
X38.645 Y40.778
X38.567 Y40.555
X38.473 Y40.332
X38.356 Y40.11
X38.301 Y40.012
X38.217 Y39.887
X38.095 Y39.687
X37.889 Y39.275
X37.671 Y38.737
X37.443 Y38.012
X37.225 Y37.055
X37.078 Y36.085
X36.979 Y35.108
X36.912 Y34.129
X36.866 Y33.149
X36.835 Y32.168
X36.814 Y31.186
X36.799 Y30.205
X36.789 Y29.223
X36.782 Y28.242
X36.778 Y27.26
X36.775 Y26.279
X36.772 Y25.213
X36.799 Y24.929
X36.88 Y24.656
X37.012 Y24.403
X37.189 Y24.18
X37.407 Y23.995
X37.588 Y23.843
X37.633 Y23.804
X37.808 Y23.62
X38.009 Y23.397
X38.078 Y23.315
X38.323 Y22.952
X38.442 Y22.729
X38.54 Y22.506
X38.625 Y22.283
X38.696 Y22.06
X38.747 Y21.837
X38.785 Y21.615
X38.809 Y21.392
X38.82 Y20.946
X38.825 Y20.723
Y14.93
X38.822 Y14.707
X38.813 Y14.261
X38.792 Y14.038
X38.716 Y13.593
X38.671 Y13.37
X37.451 Y8.245
X37.272 Y7.28
X37.11 Y6.312
X37.001 Y5.336
X36.927 Y4.358
X36.877 Y3.377
X36.842 Y2.396
X36.819 Y1.415
X36.803 Y0.434
X36.792 Y-0.548
X36.784 Y-1.529
X36.779 Y-2.511
X36.776 Y-3.492
X36.772 Y-5.455
X36.769 Y-8.4
Y-19.196
Y-41.771
X36.77 Y-65.573
X36.729 Y-65.815
X36.569 Y-66.279
X36.013 Y-67.088
X35.236 Y-67.687
X34.354 Y-68.118
X33.422 Y-68.424
X32.464 Y-68.638
X31.494 Y-68.788
X30.518 Y-68.891
X29.539 Y-68.962
X28.558 Y-69.011
X27.577 Y-69.045
X26.596 Y-69.068
X25.615 Y-69.084
X24.633 Y-69.095
X23.652 Y-69.103
X22.67 Y-69.108
X21.689 Y-69.111
X19.726 Y-69.115
X16.781 Y-69.118
X11.874 Y-69.119
X9.644
X9.446 Y-69.132
X9.251 Y-69.172
X9.063 Y-69.238
X8.907 Y-69.303
X8.301 Y-69.523
X6.68 Y-70.086
X6.235 Y-70.239
X6.012 Y-70.305
X5.545 Y-70.415
X5.344 Y-70.46
X3.34 Y-70.867
X3.117 Y-70.906
X2.672 Y-70.969
X2.449 Y-70.995
X0.445 Y-71.129
X0.223 Y-71.142
X-0.223 Y-71.165
X-0.445 Y-71.169
X-1.113 Y-71.131
X-3.117 Y-70.997
X-3.34 Y-70.976
X-3.786 Y-70.909
X-4.008 Y-70.873
X-6.012 Y-70.466
X-6.248 Y-70.415
X-6.68 Y-70.31
X-6.903 Y-70.251
X-7.348 Y-70.097
X-8.291 Y-69.823
X-9.246 Y-69.595
X-10.215 Y-69.443
X-11.191 Y-69.34
X-12.17 Y-69.27
X-13.151 Y-69.222
X-14.132 Y-69.189
X-15.113 Y-69.167
X-16.094 Y-69.152
X-17.076 Y-69.142
X-18.057 Y-69.135
X-19.039 Y-69.13
X-20.02 Y-69.127
X-21.983 Y-69.123
X-25.909 Y-69.12
X-31.308
X-31.772 Y-68.96
X-32.556 Y-68.369
X-33.091 Y-67.547
X-33.445 Y-66.631
X-33.674 Y-65.677
X-33.818 Y-64.706
X-33.906 Y-63.728
X-33.957 Y-62.748
X-33.986 Y-61.767
X-34.001 Y-60.786
X-34.007 Y-59.804
X-34.01 Y-58.823
Y-57.841
X-34.002 Y-51.952
X-34 Y-47.045
X-33.999 Y-44.1
X-34 Y-22.507
X-34.001 Y-21.525
X-34.024 Y-20.544
X-34.088 Y-18.582
X-34.117 Y-17.601
X-34.142 Y-16.62
X-34.162 Y-15.638
X-34.178 Y-14.657
X-34.191 Y-13.676
X-34.201 Y-12.694
X-34.208 Y-11.713
X-34.214 Y-10.731
X-34.218 Y-9.75
X-34.222 Y-8.157
X-34.236 Y-7.959
X-34.278 Y-7.764
X-34.346 Y-7.576
X-34.423 Y-7.353
X-34.489 Y-7.131
X-34.544 Y-6.908
X-36.81 Y2.608
X-36.867 Y2.851
X-38.734 Y10.696
X-38.746 Y10.752
X-38.775 Y10.919
X-38.805 Y11.142
X-38.818 Y11.364
X-38.825 Y11.587
Y14.038
X-38.81 Y14.261
X-38.777 Y14.707
X-38.746 Y14.881
X-38.736 Y14.93
X-38.68 Y15.153
X-38.611 Y15.375
X-38.521 Y15.598
X-38.414 Y15.821
X-38.412 Y15.825
X-38.301 Y16.031
X-38.292 Y16.044
X-38.146 Y16.267
X-38.078 Y16.359
X-37.855 Y16.63
X-37.775 Y16.712
X-37.633 Y16.848
X-37.41 Y17.039
X-37.243 Y17.158
X-37.187 Y17.197
X-36.965 Y17.335
X-36.837 Y17.413
X-36.656 Y17.562
X-36.453 Y17.758
X-36.247 Y17.993
X-36.023 Y18.291
X-35.789 Y18.664
X-35.545 Y19.132
X-35.293 Y19.725
X-35.034 Y20.507
X-34.8 Y21.46
X-34.635 Y22.428
X-34.518 Y23.402
X-34.434 Y24.38
X-34.375 Y25.36
X-34.333 Y26.341
X-34.303 Y27.322
X-34.282 Y28.303
X-34.267 Y29.285
X-34.256 Y30.266
X-34.249 Y31.247
X-34.243 Y32.229
X-34.24 Y33.21
X-34.235 Y35.173
X-34.232 Y38.118
Y40.081
X-34.268 Y40.873
X-34.319 Y41.28
X-34.396 Y41.601
X-34.542 Y41.898
X-34.75 Y42.155
X-35.009 Y42.36
X-35.307 Y42.503
X-35.628 Y42.578
G3 X-36.314 Y41.986 I-0.052 J-0.633
G1 X-37.881 Y17.944
G3 X-36.965 Y17.335 I0.634 J-0.041
G1 X-36.742 Y17.455
X-36.519 Y17.55
X-36.382 Y17.604
X-36.296 Y17.631
X-36.074 Y17.699
X-35.851 Y17.748
X-35.814 Y17.753
X-35.666 Y17.778
X-35.496 Y17.834
X-35.315 Y17.91
X-35.121 Y18.011
X-34.898 Y18.151
X-34.672 Y18.318
X-34.433 Y18.529
X-34.164 Y18.805
X-33.908 Y19.116
X-33.625 Y19.521
X-33.348 Y19.996
X-33.055 Y20.604
X-32.759 Y21.37
X-32.48 Y22.311
X-32.273 Y23.27
X-32.12 Y24.24
X-32.006 Y25.215
X-31.922 Y26.193
X-31.86 Y27.172
X-31.814 Y28.153
X-31.781 Y29.134
X-31.756 Y30.115
X-31.738 Y31.096
X-31.725 Y32.078
X-31.716 Y33.059
X-31.709 Y34.041
X-31.704 Y35.022
X-31.7 Y36.004
X-31.696 Y37.967
X-31.708 Y38.948
X-31.758 Y39.844
X-31.845 Y40.473
X-31.952 Y40.958
X-32.088 Y41.405
X-32.165 Y41.598
X-32.3 Y41.859
X-32.484 Y42.089
X-32.709 Y42.277
X-32.968 Y42.418
X-33.249 Y42.504
X-33.542 Y42.533
X-34.96
X-35.183 Y42.538
X-35.628 Y42.578
G3 X-36.298 Y41.949 I-0.035 J-0.634
G1 X-36.501 Y18.391
G3 X-35.814 Y17.753 I0.635 J-0.005
G1 X-35.628 Y17.774
X-35.183 Y17.814
X-34.96 Y17.818
X-34.393 Y17.815
X-34.243 Y17.822
X-34.064 Y17.847
X-33.875 Y17.889
X-33.656 Y17.957
X-33.436 Y18.046
X-33.182 Y18.172
X-32.926 Y18.327
X-32.647 Y18.527
X-32.35 Y18.779
X-32.052 Y19.076
X-31.722 Y19.462
X-31.41 Y19.894
X-31.076 Y20.442
X-30.74 Y21.111
X-30.41 Y21.925
X-30.115 Y22.861
X-29.887 Y23.816
X-29.711 Y24.782
X-29.576 Y25.754
X-29.472 Y26.73
X-29.393 Y27.708
X-29.333 Y28.688
X-29.287 Y29.668
X-29.253 Y30.649
X-29.227 Y31.63
X-29.208 Y32.612
X-29.193 Y33.593
X-29.182 Y34.574
X-29.174 Y35.556
X-29.171 Y36.537
X-29.181 Y37.519
X-29.218 Y38.5
X-29.303 Y39.478
X-29.429 Y40.27
X-29.568 Y40.839
X-29.73 Y41.331
X-29.853 Y41.621
X-30.01 Y41.905
X-30.222 Y42.15
X-30.481 Y42.346
X-30.775 Y42.483
X-31.091 Y42.555
X-31.416 Y42.561
X-31.62 Y42.543
X-32.066 Y42.536
X-32.288 Y42.533
X-33.542
G3 X-34.154 Y41.922 I0.022 J-0.635
G1 X-35.002 Y18.472
G3 X-34.393 Y17.815 I0.635 J-0.023
G1 X-32.511 Y17.805
X-32.337 Y17.813
X-32.144 Y17.837
X-31.919 Y17.884
X-31.69 Y17.951
X-31.425 Y18.053
X-31.157 Y18.181
X-30.859 Y18.354
X-30.55 Y18.569
X-30.224 Y18.837
X-29.88 Y19.169
X-29.531 Y19.564
X-29.169 Y20.049
X-28.796 Y20.641
X-28.435 Y21.332
X-28.065 Y22.205
X-27.755 Y23.136
X-27.508 Y24.086
X-27.312 Y25.048
X-27.157 Y26.017
X-27.035 Y26.991
X-26.938 Y27.968
X-26.863 Y28.946
X-26.805 Y29.926
X-26.759 Y30.907
X-26.724 Y31.888
X-26.697 Y32.869
X-26.677 Y33.85
X-26.664 Y34.831
X-26.661 Y35.813
X-26.674 Y36.794
X-26.712 Y37.775
X-26.789 Y38.754
X-26.922 Y39.726
X-27.087 Y40.502
X-27.252 Y41.055
X-27.439 Y41.538
X-27.635 Y41.943
X-27.841 Y42.295
X-28.065 Y42.614
X-28.131 Y42.694
X-28.339 Y42.899
X-28.584 Y43.057
X-28.855 Y43.163
X-29.143 Y43.211
X-29.434 Y43.201
X-29.717 Y43.131
X-29.981 Y43.006
X-30.062 Y42.964
X-30.284 Y42.852
X-30.73 Y42.699
X-30.952 Y42.636
X-31.416 Y42.561
G3 X-31.927 Y41.97 I0.123 J-0.623
G1 X-33.12 Y18.472
G3 X-32.511 Y17.805 I0.634 J-0.032
G1 X-30.73 Y17.796
X-30.507 Y17.789
X-30.295 Y17.794
X-30.093 Y17.815
X-29.866 Y17.857
X-29.614 Y17.925
X-29.351 Y18.019
X-29.05 Y18.155
X-28.751 Y18.32
X-28.409 Y18.546
X-28.078 Y18.806
X-27.699 Y19.155
X-27.338 Y19.547
X-26.938 Y20.056
X-26.555 Y20.635
X-26.158 Y21.356
X-25.756 Y22.247
X-25.425 Y23.171
X-25.156 Y24.114
X-24.937 Y25.071
X-24.76 Y26.037
X-24.617 Y27.008
X-24.502 Y27.982
X-24.41 Y28.96
X-24.337 Y29.938
X-24.278 Y30.918
X-24.233 Y31.899
X-24.198 Y32.88
X-24.174 Y33.861
X-24.163 Y34.842
X-24.167 Y35.824
X-24.195 Y36.805
X-24.254 Y37.785
X-24.353 Y38.761
X-24.503 Y39.731
X-24.705 Y40.62
X-24.95 Y41.401
X-25.195 Y42.008
X-25.447 Y42.51
X-25.692 Y42.915
X-25.935 Y43.251
X-26.197 Y43.558
X-26.448 Y43.809
X-26.723 Y44.042
X-26.983 Y44.229
X-27.002 Y44.241
X-27.28 Y44.372
X-27.58 Y44.443
X-27.888 Y44.45
X-28.191 Y44.393
X-28.475 Y44.275
X-28.729 Y44.101
X-28.941 Y43.878
G3 X-29.044 Y43.652 I0.516 J-0.37
X-29.058 Y43.559 I0.618 J-0.144
G1 X-31.1 Y18.475
G3 X-30.507 Y17.789 I0.633 J-0.052
G1 X-30.062 Y17.777
X-29.839 Y17.752
X-29.616 Y17.709
X-29.393 Y17.653
X-29.261 Y17.604
X-29.105 Y17.554
X-28.956 Y17.519
X-28.795 Y17.495
X-28.601 Y17.481
X-28.398 Y17.483
X-28.161 Y17.505
X-27.914 Y17.548
X-27.636 Y17.62
X-27.338 Y17.723
X-27.018 Y17.863
X-26.678 Y18.046
X-26.319 Y18.278
X-25.938 Y18.57
X-25.542 Y18.928
X-25.13 Y19.365
X-24.699 Y19.902
X-24.282 Y20.517
X-23.848 Y21.285
X-23.435 Y22.175
X-23.09 Y23.094
X-22.803 Y24.033
X-22.565 Y24.985
X-22.368 Y25.947
X-22.207 Y26.915
X-22.074 Y27.887
X-21.966 Y28.863
X-21.878 Y29.84
X-21.808 Y30.819
X-21.753 Y31.799
X-21.712 Y32.78
X-21.685 Y33.761
X-21.676 Y34.743
X-21.687 Y35.724
X-21.725 Y36.705
X-21.793 Y37.684
X-21.9 Y38.66
X-22.053 Y39.629
X-22.261 Y40.588
X-22.535 Y41.531
X-22.829 Y42.309
X-23.157 Y42.999
X-23.508 Y43.608
X-23.872 Y44.136
X-24.205 Y44.545
X-24.538 Y44.893
X-24.857 Y45.176
X-25.169 Y45.411
X-25.483 Y45.611
X-25.791 Y45.773
X-26.099 Y45.906
X-26.407 Y46.009
X-26.446 Y46.019
X-26.771 Y46.063
X-27.097 Y46.034
X-27.409 Y45.934
X-27.691 Y45.769
X-27.93 Y45.545
X-28.114 Y45.274
X-28.372 Y44.789
X-28.757 Y44.121
X-28.941 Y43.878
G3 X-29.06 Y43.523 I0.516 J-0.37
G1 X-29.652 Y18.205
G3 X-29.261 Y17.604 I0.635 J-0.015
G1 X-28.948 Y17.486
X-28.725 Y17.397
X-28.694 Y17.381
X-28.503 Y17.276
X-28.318 Y17.158
X-28.28 Y17.131
X-28.213 Y17.08
X-28.088 Y16.996
X-27.955 Y16.928
X-27.804 Y16.868
X-27.641 Y16.817
X-27.446 Y16.773
X-27.241 Y16.744
X-26.999 Y16.729
X-26.748 Y16.734
X-26.457 Y16.763
X-26.16 Y16.818
X-25.82 Y16.908
X-25.475 Y17.031
X-25.089 Y17.204
X-24.694 Y17.42
X-24.275 Y17.696
X-23.829 Y18.043
X-23.386 Y18.451
X-22.899 Y18.975
X-22.435 Y19.564
X-21.957 Y20.283
X-21.48 Y21.141
X-21.073 Y22.034
X-20.726 Y22.952
X-20.431 Y23.889
X-20.182 Y24.838
X-19.972 Y25.797
X-19.796 Y26.762
X-19.649 Y27.733
X-19.527 Y28.707
X-19.427 Y29.683
X-19.345 Y30.661
X-19.282 Y31.641
X-19.236 Y32.621
X-19.208 Y33.602
X-19.2 Y34.584
X-19.215 Y35.565
X-19.256 Y36.546
X-19.327 Y37.525
X-19.434 Y38.5
X-19.58 Y39.471
X-19.771 Y40.434
X-20.015 Y41.384
X-20.321 Y42.317
X-20.693 Y43.225
X-21.105 Y44.04
X-21.539 Y44.751
X-21.974 Y45.35
X-22.425 Y45.875
X-22.89 Y46.336
X-23.359 Y46.732
X-23.782 Y47.034
X-24.203 Y47.287
X-24.568 Y47.468
X-24.95 Y47.62
X-25.286 Y47.724
X-25.644 Y47.804
X-25.667 Y47.807
X-25.956 Y47.819
X-26.241 Y47.774
X-26.513 Y47.675
X-26.76 Y47.525
X-26.973 Y47.33
X-27.145 Y47.098
X-27.192 Y47.017
X-28.114 Y45.274
G3 X-28.178 Y45.003 I0.571 J-0.277
G1 X-28.449 Y17.581
G3 X-28.213 Y17.08 I0.635 J-0.006
G1 X-28.057 Y16.964
X-28.023 Y16.935
X-27.835 Y16.761
X-27.786 Y16.712
X-27.612 Y16.531
X-27.576 Y16.489
X-27.523 Y16.422
X-27.425 Y16.308
X-27.318 Y16.204
X-27.201 Y16.11
X-27.071 Y16.023
X-26.916 Y15.936
X-26.746 Y15.858
X-26.543 Y15.784
X-26.327 Y15.724
X-26.073 Y15.675
X-25.808 Y15.646
X-25.501 Y15.637
X-25.182 Y15.653
X-24.825 Y15.701
X-24.446 Y15.782
X-24.045 Y15.903
X-23.6 Y16.077
X-23.158 Y16.292
X-22.669 Y16.58
X-22.173 Y16.93
X-21.664 Y17.353
X-21.114 Y17.891
X-20.583 Y18.501
X-20.047 Y19.228
X-19.529 Y20.062
X-19.076 Y20.933
X-18.681 Y21.832
X-18.339 Y22.751
X-18.042 Y23.687
X-17.787 Y24.635
X-17.568 Y25.592
X-17.382 Y26.555
X-17.224 Y27.524
X-17.091 Y28.496
X-16.98 Y29.472
X-16.89 Y30.449
X-16.82 Y31.428
X-16.769 Y32.408
X-16.739 Y33.389
X-16.73 Y34.371
X-16.745 Y35.352
X-16.785 Y36.333
X-16.854 Y37.312
X-16.955 Y38.288
X-17.09 Y39.26
X-17.265 Y40.226
X-17.483 Y41.183
X-17.751 Y42.127
X-18.073 Y43.055
X-18.451 Y43.96
X-18.888 Y44.839
X-19.388 Y45.684
X-19.929 Y46.453
X-20.481 Y47.118
X-21.048 Y47.699
X-21.618 Y48.196
X-22.185 Y48.615
X-22.737 Y48.959
X-23.217 Y49.206
X-23.659 Y49.391
X-24.074 Y49.526
X-24.447 Y49.616
X-24.475 Y49.62
X-24.756 Y49.637
X-25.035 Y49.6
X-25.302 Y49.512
X-25.547 Y49.374
X-25.762 Y49.193
X-25.939 Y48.974
X-26.792 Y47.686
X-26.944 Y47.435
X-27.145 Y47.098
G3 X-27.223 Y46.801 I0.556 J-0.306
G1 X-27.644 Y16.803
G3 X-27.627 Y16.647 I0.635 J-0.009
X-27.523 Y16.422 I0.618 J0.147
G1 X-27.402 Y16.267
X-27.389 Y16.248
X-27.252 Y16.044
X-26.816 Y15.375
X-26.726 Y15.251
X-26.628 Y15.137
X-26.518 Y15.027
X-26.381 Y14.911
X-26.227 Y14.801
X-26.044 Y14.691
X-25.84 Y14.59
X-25.608 Y14.497
X-25.345 Y14.416
X-25.06 Y14.352
X-24.734 Y14.306
X-24.396 Y14.286
X-24.008 Y14.295
X-23.603 Y14.336
X-23.165 Y14.417
X-22.683 Y14.546
X-22.2 Y14.719
X-21.666 Y14.959
X-21.101 Y15.27
X-20.546 Y15.637
X-19.948 Y16.105
X-19.324 Y16.68
X-18.723 Y17.33
X-18.117 Y18.102
X-17.574 Y18.92
X-17.09 Y19.774
X-16.659 Y20.656
X-16.278 Y21.56
X-15.941 Y22.482
X-15.646 Y23.418
X-15.387 Y24.365
X-15.163 Y25.32
X-14.968 Y26.282
X-14.801 Y27.25
X-14.659 Y28.221
X-14.54 Y29.195
X-14.442 Y30.172
X-14.366 Y31.15
X-14.311 Y32.13
X-14.276 Y33.111
X-14.264 Y34.093
X-14.275 Y35.074
X-14.311 Y36.055
X-14.374 Y37.034
X-14.465 Y38.012
X-14.588 Y38.985
X-14.745 Y39.954
X-14.939 Y40.916
X-15.175 Y41.869
X-15.456 Y42.81
X-15.784 Y43.735
X-16.16 Y44.641
X-16.586 Y45.526
X-17.064 Y46.383
X-17.596 Y47.208
X-18.183 Y47.994
X-18.827 Y48.735
X-19.506 Y49.403
X-20.189 Y49.974
X-20.857 Y50.447
X-21.488 Y50.821
X-22.017 Y51.081
X-22.475 Y51.261
X-22.916 Y51.394
X-23.037 Y51.421
X-23.361 Y51.455
X-23.685 Y51.417
X-23.993 Y51.309
X-24.269 Y51.137
X-24.501 Y50.908
X-25.309 Y49.914
X-25.46 Y49.691
X-25.759 Y49.246
X-25.939 Y48.974
G3 X-26.025 Y48.742 I0.541 J-0.332
G1 X-26.04 Y48.643 Z-7.992
X-26.055 Y48.548 Z-7.969
X-26.07 Y48.457 Z-7.931
X-26.083 Y48.373 Z-7.879
X-26.095 Y48.298 Z-7.814
X-26.105 Y48.234 Z-7.738
X-26.113 Y48.183 Z-7.653
X-26.119 Y48.145 Z-7.561
X-26.123 Y48.122 Z-7.464
X-26.124 Y48.114 Z-7.365
G0 Z-6.73
X-26.32 Y16.057
G1 Z-7.365 F1524
X-26.325 Y16.052 Z-7.464
X-26.342 Y16.036 Z-7.561
X-26.37 Y16.01 Z-7.653
X-26.408 Y15.974 Z-7.738
X-26.455 Y15.93 Z-7.814
X-26.51 Y15.878 Z-7.879
X-26.572 Y15.82 Z-7.931
X-26.639 Y15.757 Z-7.969
X-26.71 Y15.69 Z-7.992
X-26.782 Y15.622 Z-8
G3 X-26.816 Y15.375 I0.136 J-0.145
G1 X-25.945 Y14.038
X-25.838 Y13.889
X-25.73 Y13.764
X-25.601 Y13.636
X-25.447 Y13.506
X-25.271 Y13.379
X-25.063 Y13.254
X-24.834 Y13.14
X-24.562 Y13.031
X-24.273 Y12.941
X-23.936 Y12.866
X-23.581 Y12.816
X-23.18 Y12.792
X-22.74 Y12.801
X-22.279 Y12.848
X-21.762 Y12.942
X-21.231 Y13.085
X-20.664 Y13.286
X-20.038 Y13.568
X-19.413 Y13.911
X-18.767 Y14.337
X-18.08 Y14.874
X-17.384 Y15.514
X-16.718 Y16.235
X-16.108 Y17.004
X-15.555 Y17.815
X-15.053 Y18.659
X-14.601 Y19.53
X-14.194 Y20.423
X-13.829 Y21.334
X-13.503 Y22.26
X-13.214 Y23.198
X-12.958 Y24.145
X-12.732 Y25.101
X-12.535 Y26.062
X-12.364 Y27.028
X-12.217 Y27.999
X-12.093 Y28.973
X-11.991 Y29.949
X-11.911 Y30.927
X-11.852 Y31.907
X-11.814 Y32.888
X-11.799 Y33.869
X-11.807 Y34.85
X-11.839 Y35.831
X-11.896 Y36.811
X-11.981 Y37.789
X-12.093 Y38.764
X-12.237 Y39.735
X-12.414 Y40.701
X-12.626 Y41.659
X-12.876 Y42.608
X-13.166 Y43.546
X-13.499 Y44.469
X-13.874 Y45.376
X-14.292 Y46.264
X-14.755 Y47.129
X-15.264 Y47.969
X-15.819 Y48.779
X-16.423 Y49.552
X-17.076 Y50.285
X-17.776 Y50.972
X-18.524 Y51.609
X-19.255 Y52.141
X-19.952 Y52.568
X-20.526 Y52.858
X-21.006 Y53.054
X-21.464 Y53.2
X-21.472 Y53.202
X-21.771 Y53.24
X-22.071 Y53.217
X-22.36 Y53.133
X-22.627 Y52.993
X-22.859 Y52.802
X-23.292 Y52.365
X-23.381 Y52.264
X-23.827 Y51.738
X-24.501 Y50.908
G3 X-24.61 Y50.685 I0.506 J-0.383
G1 X-24.635 Y50.589 Z-7.992
X-24.659 Y50.495 Z-7.969
X-24.682 Y50.406 Z-7.931
X-24.704 Y50.324 Z-7.879
X-24.723 Y50.251 Z-7.814
X-24.739 Y50.188 Z-7.738
X-24.752 Y50.138 Z-7.653
X-24.762 Y50.101 Z-7.561
X-24.768 Y50.078 Z-7.464
X-24.77 Y50.071 Z-7.365
G0 Z-6.73
X-25.449 Y14.72
G1 Z-7.365 F1524
X-25.455 Y14.715 Z-7.464
X-25.471 Y14.699 Z-7.561
X-25.499 Y14.673 Z-7.653
X-25.537 Y14.637 Z-7.738
X-25.584 Y14.593 Z-7.814
X-25.64 Y14.541 Z-7.879
X-25.701 Y14.483 Z-7.931
X-25.768 Y14.42 Z-7.969
X-25.839 Y14.353 Z-7.992
X-25.911 Y14.285 Z-8
G3 X-25.945 Y14.038 I0.136 J-0.145
G1 X-25.8 Y13.816
X-25.608 Y13.53
X-25.346 Y13.147
X-25.163 Y12.913
X-24.717 Y12.366
X-24.589 Y12.224
X-24.445 Y12.087
X-24.277 Y11.952
X-24.078 Y11.817
X-23.853 Y11.689
X-23.591 Y11.567
X-23.297 Y11.457
X-22.969 Y11.365
X-22.595 Y11.291
X-22.2 Y11.245
X-21.737 Y11.229
X-21.263 Y11.251
X-20.728 Y11.318
X-20.146 Y11.44
X-19.557 Y11.614
X-18.897 Y11.868
X-18.193 Y12.206
X-17.5 Y12.61
X-16.758 Y13.126
X-16 Y13.75
X-15.294 Y14.432
X-14.64 Y15.163
X-14.035 Y15.936
X-13.478 Y16.744
X-12.968 Y17.583
X-12.503 Y18.447
X-12.08 Y19.333
X-11.695 Y20.236
X-11.348 Y21.154
X-11.035 Y22.084
X-10.754 Y23.024
X-10.503 Y23.973
X-10.28 Y24.929
X-10.084 Y25.891
X-9.912 Y26.857
X-9.764 Y27.827
X-9.638 Y28.801
X-9.534 Y29.777
X-9.452 Y30.755
X-9.391 Y31.735
X-9.351 Y32.715
X-9.334 Y33.697
X-9.339 Y34.678
X-9.368 Y35.659
X-9.421 Y36.639
X-9.499 Y37.618
X-9.604 Y38.594
X-9.737 Y39.566
X-9.9 Y40.534
X-10.094 Y41.496
X-10.321 Y42.451
X-10.583 Y43.397
X-10.882 Y44.332
X-11.218 Y45.254
X-11.593 Y46.161
X-12.006 Y47.051
X-12.459 Y47.922
X-12.952 Y48.771
X-13.485 Y49.595
X-14.059 Y50.391
X-14.677 Y51.154
X-15.337 Y51.881
X-16.038 Y52.567
X-16.781 Y53.209
X-17.565 Y53.799
X-18.312 Y54.276
X-18.895 Y54.586
X-19.378 Y54.795
X-19.598 Y54.87
X-19.894 Y54.937
X-20.199 Y54.943
X-20.498 Y54.887
X-20.779 Y54.771
X-21.03 Y54.599
X-21.524 Y54.148
X-21.6 Y54.073
X-22.859 Y52.802
G3 X-22.989 Y52.59 I0.466 J-0.431
G1 X-23.023 Y52.497 Z-7.992
X-23.057 Y52.406 Z-7.969
X-23.088 Y52.32 Z-7.931
X-23.118 Y52.24 Z-7.879
X-23.144 Y52.169 Z-7.814
X-23.166 Y52.108 Z-7.738
X-23.184 Y52.059 Z-7.653
X-23.198 Y52.024 Z-7.561
X-23.206 Y52.002 Z-7.464
X-23.208 Y51.994 Z-7.365
G0 Z-6.73
X-24.295 Y13.096
G1 Z-7.365 F1524
X-24.3 Y13.09 Z-7.464
X-24.315 Y13.073 Z-7.561
X-24.34 Y13.044 Z-7.653
X-24.374 Y13.004 Z-7.738
X-24.416 Y12.955 Z-7.814
X-24.466 Y12.898 Z-7.879
X-24.521 Y12.833 Z-7.931
X-24.581 Y12.764 Z-7.969
X-24.645 Y12.69 Z-7.992
X-24.709 Y12.615 Z-8
G3 X-24.717 Y12.366 I0.15 J-0.129
G1 X-23.453 Y10.811
X-23.318 Y10.661
X-23.171 Y10.522
X-23 Y10.385
X-22.798 Y10.248
X-22.564 Y10.114
X-22.297 Y9.99
X-21.99 Y9.876
X-21.645 Y9.778
X-21.266 Y9.703
X-20.829 Y9.653
X-20.37 Y9.637
X-19.831 Y9.661
X-19.281 Y9.731
X-18.668 Y9.86
X-17.987 Y10.06
X-17.31 Y10.321
X-16.562 Y10.68
X-15.77 Y11.141
X-14.964 Y11.702
X-14.205 Y12.325
X-13.494 Y13.001
X-12.829 Y13.723
X-12.21 Y14.485
X-11.635 Y15.28
X-11.103 Y16.105
X-10.61 Y16.954
X-10.157 Y17.824
X-9.74 Y18.713
X-9.359 Y19.617
X-9.01 Y20.535
X-8.694 Y21.464
X-8.407 Y22.403
X-8.149 Y23.35
X-7.918 Y24.304
X-7.712 Y25.263
X-7.531 Y26.228
X-7.373 Y27.197
X-7.237 Y28.169
X-7.123 Y29.143
X-7.029 Y30.121
X-6.957 Y31.099
X-6.906 Y32.08
X-6.877 Y33.061
X-6.868 Y34.042
X-6.882 Y35.024
X-6.919 Y36.004
X-6.979 Y36.984
X-7.063 Y37.962
X-7.173 Y38.937
X-7.31 Y39.909
X-7.475 Y40.877
X-7.67 Y41.839
X-7.895 Y42.794
X-8.152 Y43.741
X-8.442 Y44.679
X-8.765 Y45.606
X-9.121 Y46.521
X-9.512 Y47.421
X-9.938 Y48.305
X-10.399 Y49.172
X-10.897 Y50.017
X-11.433 Y50.84
X-12.006 Y51.637
X-12.616 Y52.406
X-13.262 Y53.144
X-13.945 Y53.849
X-14.664 Y54.517
X-15.421 Y55.142
X-16.218 Y55.715
X-16.873 Y56.111
X-17.38 Y56.364
X-17.572 Y56.442
X-17.86 Y56.525
X-18.159 Y56.549
X-18.457 Y56.511
X-18.741 Y56.415
X-19 Y56.264
X-19.151 Y56.153
X-19.373 Y55.974
X-20.932 Y54.682
X-21.03 Y54.599
G3 X-21.178 Y54.4 I0.426 J-0.471
G1 X-21.22 Y54.311 Z-7.992
X-21.262 Y54.223 Z-7.969
X-21.301 Y54.14 Z-7.931
X-21.338 Y54.063 Z-7.879
X-21.37 Y53.995 Z-7.814
X-21.398 Y53.936 Z-7.738
X-21.42 Y53.889 Z-7.653
X-21.436 Y53.855 Z-7.561
X-21.446 Y53.834 Z-7.464
X-21.45 Y53.827 Z-7.365
G0 Z-6.73
X-23.031 Y11.541
G1 Z-7.365 F1524
X-23.036 Y11.536 Z-7.464
X-23.051 Y11.518 Z-7.561
X-23.076 Y11.489 Z-7.653
X-23.11 Y11.45 Z-7.738
X-23.152 Y11.4 Z-7.814
X-23.202 Y11.343 Z-7.879
X-23.257 Y11.279 Z-7.931
X-23.317 Y11.209 Z-7.969
X-23.38 Y11.135 Z-7.992
X-23.445 Y11.06 Z-8
G3 X-23.453 Y10.811 I0.15 J-0.129
G1 X-23.381 Y10.723
X-23.358 Y10.696
X-23.136 Y10.473
X-21.687 Y9.031
X-21.543 Y8.902
X-21.373 Y8.771
X-21.16 Y8.635
X-20.93 Y8.512
X-20.646 Y8.388
X-20.344 Y8.284
X-19.976 Y8.19
X-19.59 Y8.123
X-19.13 Y8.082
X-18.656 Y8.077
X-18.098 Y8.117
X-17.51 Y8.207
X-16.862 Y8.359
X-16.131 Y8.595
X-15.4 Y8.897
X-14.607 Y9.302
X-13.772 Y9.818
X-12.98 Y10.398
X-12.232 Y11.033
X-11.526 Y11.716
X-10.863 Y12.439
X-10.24 Y13.197
X-9.658 Y13.988
X-9.115 Y14.805
X-8.61 Y15.647
X-8.14 Y16.509
X-7.705 Y17.388
X-7.302 Y18.283
X-6.931 Y19.192
X-6.591 Y20.113
X-6.279 Y21.043
X-5.995 Y21.983
X-5.737 Y22.93
X-5.505 Y23.884
X-5.297 Y24.843
X-5.111 Y25.807
X-4.949 Y26.775
X-4.808 Y27.746
X-4.689 Y28.72
X-4.59 Y29.697
X-4.512 Y30.675
X-4.454 Y31.655
X-4.418 Y32.636
X-4.401 Y33.617
X-4.406 Y34.599
X-4.433 Y35.58
X-4.482 Y36.56
X-4.553 Y37.539
X-4.649 Y38.516
X-4.769 Y39.49
X-4.914 Y40.461
X-5.086 Y41.427
X-5.285 Y42.388
X-5.514 Y43.343
X-5.771 Y44.29
X-6.059 Y45.228
X-6.377 Y46.157
X-6.726 Y47.074
X-7.105 Y47.98
X-7.517 Y48.871
X-7.96 Y49.746
X-8.436 Y50.605
X-8.945 Y51.444
X-9.487 Y52.262
X-10.064 Y53.056
X-10.674 Y53.825
X-11.317 Y54.567
X-11.993 Y55.278
X-12.702 Y55.957
X-13.445 Y56.599
X-14.225 Y57.194
X-14.857 Y57.606
X-15.354 Y57.876
X-15.383 Y57.889
X-15.66 Y57.98
X-15.95 Y58.015
X-16.241 Y57.993
X-16.523 Y57.914
X-16.783 Y57.781
X-16.924 Y57.691
X-17.146 Y57.543
X-18.482 Y56.641
X-18.54 Y56.599
X-19 Y56.264
G3 X-19.161 Y56.076 I0.392 J-0.499
G1 X-19.21 Y55.989 Z-7.992
X-19.257 Y55.905 Z-7.969
X-19.302 Y55.824 Z-7.931
X-19.344 Y55.75 Z-7.879
X-19.381 Y55.684 Z-7.814
X-19.413 Y55.628 Z-7.738
X-19.438 Y55.582 Z-7.653
X-19.457 Y55.549 Z-7.561
X-19.468 Y55.529 Z-7.464
X-19.472 Y55.522 Z-7.365
G0 Z-6.73
X-21.344 Y9.801
G1 Z-7.365 F1524
X-21.348 Y9.795 Z-7.464
X-21.361 Y9.776 Z-7.561
X-21.383 Y9.745 Z-7.653
X-21.413 Y9.702 Z-7.738
X-21.449 Y9.649 Z-7.814
X-21.493 Y9.586 Z-7.879
X-21.541 Y9.516 Z-7.931
X-21.593 Y9.441 Z-7.969
X-21.648 Y9.361 Z-7.992
X-21.705 Y9.279 Z-8
G3 X-21.687 Y9.031 I0.163 J-0.113
G1 X-21.12 Y8.468
X-20.932 Y8.304
X-20.709 Y8.121
X-19.755 Y7.353
X-19.543 Y7.2
X-19.33 Y7.07
X-19.098 Y6.953
X-18.81 Y6.836
X-18.505 Y6.74
X-18.133 Y6.654
X-17.737 Y6.597
X-17.268 Y6.566
X-16.781 Y6.574
X-16.199 Y6.63
X-15.608 Y6.735
X-14.922 Y6.915
X-14.181 Y7.174
X-13.418 Y7.513
X-12.579 Y7.968
X-11.757 Y8.504
X-10.976 Y9.099
X-10.236 Y9.744
X-9.535 Y10.431
X-8.873 Y11.156
X-8.249 Y11.913
X-7.662 Y12.7
X-7.111 Y13.512
X-6.595 Y14.347
X-6.113 Y15.202
X-5.663 Y16.074
X-5.243 Y16.961
X-4.854 Y17.862
X-4.493 Y18.775
X-4.16 Y19.698
X-3.853 Y20.631
X-3.572 Y21.571
X-3.316 Y22.519
X-3.083 Y23.472
