%
(dustShoe)
(T1  D=6.35 CR=0 - ZMIN=-26.5 - flat end mill)
G90 G94
G17
G21
G28 G91 Z0
G90

(Pocket1)
M9
T1 M6
S10000 M3
G54
M9
G0 X-0.341 Y16.207
Z15
Z3
G1 Z-1.365 F100
Y16.199 Z-1.464
Y16.176 Z-1.561
X-0.342 Y16.138 Z-1.653
X-0.343 Y16.086 Z-1.738
X-0.344 Y16.021 Z-1.814
X-0.345 Y15.945 Z-1.879
X-0.346 Y15.86 Z-1.931
X-0.348 Y15.768 Z-1.969
X-0.35 Y15.672 Z-1.992
X-0.351 Y15.572 Z-2
X-0.62 Y-0.405 F500
X-0.951 Y-28.061
X-0.944 Y-28.404
X-0.898 Y-29.331
G3 X-0.628 Y-30.034 I1.204 J0.06
G1 X-0.609 Y-30.056
G3 X-0.091 Y-30.055 I0.259 J0.211
X0.055 Y-29.827 I-0.97 J0.785
G1 X0.076 Y-29.785
G3 X0.249 Y-29.106 I-1.482 J0.739
G1 X1.05 Y5.701
X1.278 Y14.26
G2 X1.484 Y16.724 I21.46 J-0.55
G3 X1.751 Y20.072 I-27.184 J3.855
G1 X1.958 Y31.481
G3 X-1.986 Y31.561 I-1.973 J0.018
G1 X-2.197 Y20.447
G2 X-2.436 Y17.2 I-29.597 J0.547
G3 X-2.664 Y14.446 I29.833 J-3.855
G1 X-2.69 Y13.731
G3 X-2.716 Y12.692 I44.782 J-1.639
G1 X-3.046 Y-12.119
X-3.128 Y-27.478
G3 X-3.03 Y-28.98 I10.997 J-0.032
G1 X-2.96 Y-29.494
G3 X-1.635 Y-32.615 I6.356 J0.858
G1 X-1.407 Y-32.903
G3 X-1.23 Y-33.102 I1.838 J1.454
G1 X-1.213 Y-33.119
G3 X-1.073 Y-33.244 I1.18 J1.174
G1 X-1.039 Y-33.272
G3 X-0.391 Y-33.521 I0.716 J0.895
X-0.066 Y-33.491 I0.063 J1.065
X0.628 Y-33.055 I-0.324 J1.286
G1 X0.872 Y-32.763
G3 X1.572 Y-31.708 I-4.435 J3.706
G1 X1.716 Y-31.431
G3 X2.653 Y-27.953 I-7.559 J3.901
G1 X3.824 Y-6.067
X5.071 Y14.333
G2 X5.288 Y16.234 I17.447 J-1.027
G3 X5.638 Y19.694 I-25.418 J4.318
G1 X6.006 Y30.759
G3 X6.02 Y31.402 I-29.586 J0.984
G1 X6.036 Y32.749
G3 X5.6 Y35.231 I-6.835 J0.079
G1 X5.446 Y35.639
G3 X4.34 Y37.315 I-4.223 J-1.586
G1 X4.299 Y37.353
G3 X2.594 Y38.223 I-2.306 J-2.414
G1 X1.976 Y38.336
G3 X-6.313 Y31.816 I-1.267 J-6.919
G1 X-6.331 Y31.505
G3 X-6.369 Y30.654 I36.204 J-2.056
G1 X-6.647 Y22.303
G2 X-7.013 Y17.219 I-65.881 J2.191
G3 X-7.198 Y14.714 I33.871 J-3.762
G1 X-7.215 Y14.257
G3 X-7.223 Y12.173 I31.549 J-1.164
G1 X-6.756 Y-12.119
X-6.385 Y-26.727
G3 X-6.073 Y-29.714 I19.624 J0.541
G1 X-6.037 Y-29.91
G3 X-3.111 Y-36.397 I14.55 J2.658
G1 X-2.622 Y-37.019
G3 X-2.242 Y-37.45 I3.974 J3.127
G1 X-2.234 Y-37.457
X-2.203 Y-37.488
X-2.171 Y-37.519
X-2.139 Y-37.55
G3 X1.511 Y-37.589 I1.846 J1.942
G1 X1.515 Y-37.585
G3 X1.951 Y-37.132 I-3.17 J3.481
G1 X2.284 Y-36.735
G3 X3.797 Y-34.468 I-9.51 J7.986
G1 X4.171 Y-33.748
G3 X6.195 Y-26.602 I-16.383 J8.5
G1 X8.25 Y-0.183
X9.451 Y14.359
G2 X9.625 Y15.727 I13.583 J-1.031
G3 X10.001 Y19.384 I-24.246 J4.338
G1 X10.311 Y30.606
G3 X10.326 Y31.556 I-41.173 J1.138
G1 X10.333 Y33.028
G3 X10.261 Y34.496 I-13.718 J0.063
G1 X10.21 Y34.988
G3 X9.844 Y36.753 I-8.802 J-0.907
G1 X9.665 Y37.318
G3 X7.458 Y40.882 I-8.146 J-2.58
G1 X7.387 Y40.95
G3 X4.468 Y42.461 I-3.983 J-4.12
G1 X3.765 Y42.594
G3 X-1.463 Y42.955 I-4.141 J-21.922
X-10.86 Y33.7 I0.483 J-9.888
G1 X-10.973 Y31.947
G3 X-11.052 Y30.21 I47.651 J-3.056
G1 X-11.265 Y22.498
G2 X-11.558 Y17.614 I-75.815 J2.094
G1 X-11.58 Y17.382
G3 X-11.729 Y15.083 I42.192 J-3.898
G1 X-11.761 Y14.251
G3 X-11.727 Y12.181 I19.225 J-0.726
G2 X-11.654 Y10.925 I-55.406 J-3.882
G1 X-10.187 Y-17.976
X-9.69 Y-26.798
G3 X-4.601 Y-40.213 I23.82 J1.363
G1 X-3.848 Y-41.168
G3 X-3.261 Y-41.831 I6.1 J4.813
G1 X-3.06 Y-42.026
G3 X-2.46 Y-42.511 I3.353 J3.538
G1 X-2.439 Y-42.525
G3 X1.777 Y-42.608 I2.17 J3.171
X2.421 Y-42.117 I-2.414 J3.839
G1 X2.519 Y-42.027
G3 X3.188 Y-41.329 I-4.892 J5.355
G1 X4.068 Y-40.279
G3 X9.611 Y-27.082 I-18.592 J15.571
G1 X12.353 Y-0.183
X13.649 Y11.895
G2 X14.129 Y15.889 I94.521 J-9.338
G1 X14.162 Y16.123
G3 X14.435 Y19.435 I-28.089 J3.982
G1 X14.695 Y30.448
G3 X14.71 Y31.714 I-51.951 J1.227
G1 X14.709 Y32.996
G3 X14.568 Y35.719 I-26.772 J-0.02
G1 X14.485 Y36.522
G3 X10.613 Y44.49 I-12.857 J-1.324
G1 X10.512 Y44.587
G3 X6.357 Y46.738 I-5.668 J-5.862
G1 X5.358 Y46.927
G3 X-2.082 Y47.441 I-5.893 J-31.195
X-15.459 Y34.304 I0.687 J-14.078
G1 X-15.588 Y32.376
G3 X-15.705 Y29.779 I59.967 J-4.016
G1 X-15.883 Y22.266
G2 X-16.098 Y18.051 I-77.098 J1.82
G3 X-16.1 Y10.734 I46.85 J-3.677
G1 X-13.783 Y-17.977
X-13.052 Y-26.537
G3 X-6.1 Y-44.05 I32.636 J2.818
G1 X-5.08 Y-45.339
G3 X-4.286 Y-46.232 I8.22 J6.507
G1 X-4.271 Y-46.247
X-4.073 Y-46.44
X-4.013 Y-46.496
G3 X-3.203 Y-47.149 I4.517 J4.783
G1 X-3.176 Y-47.167
G3 X2.523 Y-47.267 I2.926 J4.291
X3.393 Y-46.602 I-3.277 J5.19
G1 X3.525 Y-46.481
G3 X4.428 Y-45.536 I-6.633 J7.236
G1 X5.614 Y-44.114
G3 X13.074 Y-26.926 I-25.481 J21.272
G1 X16.809 Y2.394
X18.402 Y14.366
X18.467 Y14.751
X18.529 Y15.114
X18.628 Y15.827
G3 X18.902 Y19.26 I-28.917 J4.035
G1 X19.129 Y30.282
G3 X19.142 Y31.882 I-62.946 J1.298
G1 X19.135 Y33.255
G3 X18.953 Y36.657 I-34.849 J-0.167
X3.382 Y51.817 I-16.855 J-1.735
G1 X2.423 Y51.89
G3 X-2.427 Y51.961 I-3.003 J-39.488
G1 X-3.731 Y51.9
G3 X-19.985 Y35.947 I0.797 J-17.07
G1 X-20.197 Y32.718
G3 X-20.338 Y29.435 I73.266 J-4.795
G1 X-20.5 Y21.559
G2 X-20.634 Y18.5 I-65.985 J1.359
G3 X-20.46 Y9.807 I49.888 J-3.348
G1 X-17.36 Y-18.309
X-16.397 Y-26.727
G3 X-8.856 Y-46.522 I42.639 J4.911
G1 X-7.833 Y-47.974
G3 X-7.151 Y-48.871 I12.497 J8.797
G2 X-6.772 Y-49.353 I-11.819 J-9.698
G1 X-6.747 Y-49.386
G3 X-6.379 Y-49.855 I13.841 J10.458
G1 X-6.316 Y-49.933
G3 X-5.671 Y-50.645 I6.827 J5.537
G1 X-5.631 Y-50.685
G3 X-5.062 Y-51.201 I6.186 J6.252
X4.411 Y-51.348 I4.828 J5.817
G1 X4.428 Y-51.335
G3 X5.743 Y-50.081 I-5.614 J7.208
G1 X5.94 Y-49.852
X6.195 Y-49.548
X6.379 Y-49.322
G3 X7.599 Y-47.746 I-29.786 J24.303
G1 X8.116 Y-47.039
G3 X16.606 Y-26.431 I-37.546 J27.521
G1 X21.423 Y4.897
X22.778 Y13.443
X22.835 Y13.748
X22.912 Y14.188
X23.074 Y15.37
G3 X23.404 Y19.66 I-36.343 J4.96
G1 X23.599 Y30.334
G3 X23.613 Y31.83 I-83.653 J1.529
G1 Y31.928
G3 X23.389 Y37.985 I-81.008 J0.032
G1 X23.365 Y38.309
G3 X16.969 Y51.782 I-20.63 J-1.539
X8.898 Y55.696 I-10.2 J-10.758
G1 X7.914 Y55.839
G3 X-8.305 Y56.084 I-9.057 J-62.397
G1 X-9.663 Y55.929
G3 X-17.464 Y52.587 I1.68 J-14.697
X-24.074 Y40.736 I12.142 J-14.542
G1 X-24.095 Y40.595
G3 X-24.786 Y33.583 I78.772 J-11.303
G1 X-24.827 Y32.809
G3 X-24.952 Y29.344 I96.973 J-5.237
G1 X-25.109 Y20.791
G2 X-25.179 Y18.847 I-53.775 J0.982
G3 X-24.756 Y8.521 I54.201 J-2.952
G1 X-20.061 Y-24.973
X-19.784 Y-26.896
G3 X-12.654 Y-47.954 I60.308 J8.686
G1 X-11.895 Y-49.309
G3 X-11.584 Y-49.845 I16.602 J9.286
G1 X-11.499 Y-49.987
G2 X-11.007 Y-50.871 I-12.278 J-7.403
G3 X-10.602 Y-51.609 I12.771 J6.519
G1 X-10.469 Y-51.836
G3 X-9.59 Y-53.138 I10.671 J6.262
G1 X-9.552 Y-53.186
G3 X-8.653 Y-54.228 I10.022 J7.742
G1 X-8.63 Y-54.252
G3 X-6.412 Y-56.065 I8.682 J8.36
G1 X-6.397 Y-56.075
G3 X4.535 Y-56.894 I6.231 J9.805
G1 X4.58 Y-56.873
G3 X5.703 Y-56.296 I-4.374 J9.886
X10.041 Y-52.08 I-6.53 J11.059
G1 X10.244 Y-51.757
G3 X10.684 Y-51.023 I-16.547 J10.418
G1 X11.687 Y-49.273
G3 X20.183 Y-26.035 I-61.291 J35.583
G1 X26.088 Y6.662
G3 X28.022 Y26.111 I-116.237 J21.383
G1 X28.112 Y33.279
G3 X28.036 Y36.641 I-63.7 J0.238
G1 X27.987 Y37.628
G3 X27.785 Y40.045 I-35.068 J-1.722
X6.82 Y60.711 I-23.407 J-2.779
G1 X6.801 Y60.713
G3 X-2.592 Y61.12 I-8.057 J-77.333
G1 X-2.885 Y61.115
G3 X-7.068 Y60.923 I1.254 J-72.935
G1 X-8.312 Y60.83
G3 X-28.917 Y40.752 I1.668 J-22.324
G1 X-28.939 Y40.525
G3 X-29.423 Y33.667 I113.8 J-11.473
G1 X-29.458 Y32.798
G3 X-29.556 Y29.356 I143.22 J-5.783
G1 X-29.697 Y20.732
G2 X-29.748 Y18.907 I-75.714 J1.236
G1 X-29.754 Y18.769
G3 X-29.763 Y14.623 I54.074 J-2.188
X-28.984 Y6.918 I60.022 J2.173
G1 X-23.108 Y-27.692
G3 X-16.873 Y-48.698 I92.377 J15.988
G1 X-16.141 Y-50.404
G3 X-15.853 Y-51.053 I27.37 J11.754
G1 X-15.725 Y-51.331
G2 X-15.373 Y-52.155 I-16.118 J-7.382
G3 X-8.911 Y-60.174 I16.22 J6.457
G1 X-8.58 Y-60.397
G3 X-7.924 Y-60.782 I3.36 J4.985
G1 X-7.38 Y-61.055
G3 X6.746 Y-61.259 I7.273 J14.441
G1 X6.757 Y-61.254
G3 X8.486 Y-60.316 I-6.989 J14.936
G1 X8.823 Y-60.106
G3 X9.829 Y-59.38 I-4.861 J7.805
X15.14 Y-52.502 I-12.63 J15.24
G1 X15.614 Y-51.483
G3 X15.772 Y-51.08 I-3.089 J1.44
G2 X15.904 Y-50.734 I3.248 J-1.037
G1 X17.445 Y-47.264
G3 X18.773 Y-44.073 I-66.858 J29.698
G1 X18.913 Y-43.714
G3 X22.614 Y-31.488 I-77.598 J30.166
G1 X30.525 Y6.584
G3 X32.514 Y24.401 I-91.093 J19.194
G1 X32.593 Y29.724
G3 X32.556 Y38.697 I-236.689 J3.499
G1 X32.535 Y39.567
G3 X7.721 Y65.372 I-26.495 J-0.644
G1 X7.064 Y65.414
G3 X-7.312 Y65.622 I-9.302 J-146.323
G1 X-9.172 Y65.557
G3 X-25.101 Y59.114 I0.868 J-25.057
G1 X-25.564 Y58.697
G3 X-33.693 Y41.766 I16.585 J-18.38
G1 X-33.732 Y41.1
G3 X-34.075 Y33.1 I254.252 J-14.903
G1 X-34.294 Y19.884
X-34.3 Y19.546
X-34.319 Y18.955
G3 X-34.263 Y14.438 I57.735 J-1.547
G1 X-34.254 Y14.256
G3 X-33.106 Y4.952 I65.707 J3.383
G1 X-26.638 Y-27.501
G3 X-19.482 Y-54.177 I217.001 J43.911
X-19.182 Y-54.931 I7.077 J2.381
G1 X-18.842 Y-55.665
G3 X-17.497 Y-58.115 I18.393 J8.506
G1 X-17.461 Y-58.17
G3 X-6.991 Y-66.502 I17.496 J11.244
G1 X-6.574 Y-66.651
G3 X-4.894 Y-67.131 I4.455 J12.412
G1 X-4.718 Y-67.169
G3 X17.321 Y-58.305 I4.462 J20.734
G1 X17.67 Y-57.787
G3 X18.263 Y-56.773 I-7.445 J5.027
X20.413 Y-51.497 I-33.556 J16.752
G1 X20.779 Y-50.358
G3 X26.604 Y-29.276 I-251.359 J80.792
G1 X35.293 Y7.644
G2 X36.056 Y10.823 I168.807 J-38.81
G3 X36.957 Y17.825 I-30.195 J7.445
G1 X37.181 Y34.962
X37.204 Y43.767
G3 X34.581 Y53.21 I-18.17 J0.039
X29.709 Y59.708 I-35.001 J-21.17
G1 X29.466 Y59.972
G3 X27.202 Y62.226 I-26.222 J-24.08
G1 X26.659 Y62.72
G3 X24.408 Y64.593 I-21.692 J-23.779
G1 X24.091 Y64.833
G3 X20.925 Y67.008 I-24.899 J-32.854
X10.637 Y70.064 I-10.739 J-17.309
G1 X0 Y70.28
X-11.609 Y70.379
G3 X-21.405 Y67.776 I-0.203 J-18.972
G1 X-22.594 Y67.08
G3 X-25.232 Y65.341 I15.201 J-25.938
G1 X-25.5 Y65.144
G3 X-37.379 Y51.802 I25.653 J-34.801
X-38.449 Y47.928 I7.05 J-4.031
G1 X-38.848 Y22.145
X-38.921 Y16.695
X-38.92 Y11.34
X-38.904 Y11.121
X-38.874 Y10.891
X-38.824 Y10.64
X-38.3 Y8.436
X-23.719 Y-52.817
X-23.323 Y-54.124
X-22.909 Y-55.46
X-22.751 Y-55.922
X-22.113 Y-57.317
X-21.462 Y-58.708
X-21.359 Y-58.896
X-19.752 Y-61.413
X-19.62 Y-61.591
X-17.831 Y-63.714
X-17.678 Y-63.887
X-17.515 Y-64.053
X-15.771 Y-65.634
X-15.125 Y-66.187
X-13.231 Y-67.493
X-12.631 Y-67.895
X-12.314 Y-68.071
X-10.065 Y-69.207
X-9.71 Y-69.374
X-9.553 Y-69.437
X-6.909 Y-70.355
X-6.664 Y-70.428
X-6.404 Y-70.488
X-3.753 Y-71.027
X-3.511 Y-71.064
X-3.251 Y-71.088
X-0.592 Y-71.266
X-0.343 Y-71.273
X-0.091 Y-71.265
X2.568 Y-71.087
X2.825 Y-71.062
X3.07 Y-71.023
X5.722 Y-70.485
X5.978 Y-70.425
X6.226 Y-70.349
X8.871 Y-69.43
X9.007 Y-69.376
X9.384 Y-69.197
X11.612 Y-68.071
X11.944 Y-67.887
X13.902 Y-66.551
X14.493 Y-66.137
X15.121 Y-65.589
X16.823 Y-64.046
X16.984 Y-63.88
X18.939 Y-61.567
X19.058 Y-61.404
X20.665 Y-58.886
X20.805 Y-58.625
X22.029 Y-55.981
G3 X23.018 Y-52.822 I-58.292 J19.987
G1 X38.848 Y13.693
X38.887 Y13.922
X38.913 Y14.152
X38.924 Y14.393
X38.922 Y47.772
G3 X38.618 Y49.134 I-3.756 J-0.123
G1 X38.321 Y49.737
X36.78 Y52.734
X36.492 Y53.2
X34.896 Y55.705
X34.483 Y56.316
X32.179 Y59.274
X31.915 Y59.566
X29.407 Y62.224
X26.649 Y64.664
X26.443 Y64.842
X25.578 Y65.48
X23.396 Y67.067
X23.127 Y67.254
X20.146 Y69.025
X19.543 Y69.361
X16.238 Y70.923
G3 X14.866 Y71.267 I-1.59 J-3.438
G1 X13.584 Y71.274
X-14.938
X-15.545 Y71.268
G3 X-16.918 Y70.932 I0.194 J-3.769
G1 X-20.25 Y69.343
X-20.846 Y69.039
X-24.16 Y67.024
X-24.468 Y66.824
X-27.414 Y64.599
X-27.922 Y64.198
X-30.797 Y61.53
X-31.024 Y61.31
X-33.719 Y58.252
X-33.875 Y58.064
X-36.307 Y54.663
X-36.473 Y54.4
X-38.469 Y50.902
G3 X-38.924 Y49.154 I3.334 J-1.802
G1 X-38.921 Y16.695
G3 X-38.905 Y16.555 Z-1.984 I0.635
X-38.862 Y16.428 Z-1.937 I0.619 J0.14
X-38.801 Y16.324 Z-1.861 I0.576 J0.267
X-38.736 Y16.248 Z-1.761 I0.515 J0.371
X-38.68 Y16.197 Z-1.641 I0.451 J0.447
G1 X-38.642 Y16.17 Z-1.506
X-38.629 Y16.161 Z-1.365
G0 Z3
X-0.341 Y16.207
Z1
G1 Z-3.365 F100
Y16.199 Z-3.464
Y16.176 Z-3.561
X-0.342 Y16.138 Z-3.653
X-0.343 Y16.086 Z-3.738
X-0.344 Y16.021 Z-3.814
X-0.345 Y15.945 Z-3.879
X-0.346 Y15.86 Z-3.931
X-0.348 Y15.768 Z-3.969
X-0.35 Y15.672 Z-3.992
X-0.351 Y15.572 Z-4
X-0.62 Y-0.405 F500
X-0.951 Y-28.061
X-0.944 Y-28.404
X-0.898 Y-29.331
G3 X-0.628 Y-30.034 I1.204 J0.06
G1 X-0.609 Y-30.056
G3 X-0.091 Y-30.055 I0.259 J0.211
X0.055 Y-29.827 I-0.97 J0.785
G1 X0.076 Y-29.785
G3 X0.249 Y-29.106 I-1.482 J0.739
G1 X1.05 Y5.701
X1.278 Y14.26
G2 X1.484 Y16.724 I21.46 J-0.55
G3 X1.751 Y20.072 I-27.184 J3.855
G1 X1.958 Y31.481
G3 X-1.986 Y31.561 I-1.973 J0.018
G1 X-2.197 Y20.447
G2 X-2.436 Y17.2 I-29.597 J0.547
G3 X-2.664 Y14.446 I29.833 J-3.855
G1 X-2.69 Y13.731
G3 X-2.716 Y12.692 I44.782 J-1.639
G1 X-3.046 Y-12.119
X-3.128 Y-27.478
G3 X-3.03 Y-28.98 I10.997 J-0.032
G1 X-2.96 Y-29.494
G3 X-1.635 Y-32.615 I6.356 J0.858
G1 X-1.407 Y-32.903
G3 X-1.23 Y-33.102 I1.838 J1.454
G1 X-1.213 Y-33.119
G3 X-1.073 Y-33.244 I1.18 J1.174
G1 X-1.039 Y-33.272
G3 X-0.391 Y-33.521 I0.716 J0.895
X-0.066 Y-33.491 I0.063 J1.065
X0.628 Y-33.055 I-0.324 J1.286
G1 X0.872 Y-32.763
G3 X1.572 Y-31.708 I-4.435 J3.706
G1 X1.716 Y-31.431
G3 X2.653 Y-27.953 I-7.559 J3.901
G1 X3.824 Y-6.067
X5.071 Y14.333
G2 X5.288 Y16.234 I17.447 J-1.027
G3 X5.638 Y19.694 I-25.418 J4.318
G1 X6.006 Y30.759
G3 X6.02 Y31.402 I-29.586 J0.984
G1 X6.036 Y32.749
G3 X5.6 Y35.231 I-6.835 J0.079
G1 X5.446 Y35.639
G3 X4.34 Y37.315 I-4.223 J-1.586
G1 X4.299 Y37.353
G3 X2.594 Y38.223 I-2.306 J-2.414
G1 X1.976 Y38.336
G3 X-6.313 Y31.816 I-1.267 J-6.919
G1 X-6.331 Y31.505
G3 X-6.369 Y30.654 I36.204 J-2.056
G1 X-6.647 Y22.303
G2 X-7.013 Y17.219 I-65.881 J2.191
G3 X-7.198 Y14.714 I33.871 J-3.762
G1 X-7.215 Y14.257
G3 X-7.223 Y12.173 I31.549 J-1.164
G1 X-6.756 Y-12.119
X-6.385 Y-26.727
G3 X-6.073 Y-29.714 I19.624 J0.541
G1 X-6.037 Y-29.91
G3 X-3.111 Y-36.397 I14.55 J2.658
G1 X-2.622 Y-37.019
G3 X-2.242 Y-37.45 I3.974 J3.127
G1 X-2.234 Y-37.457
X-2.203 Y-37.488
X-2.171 Y-37.519
X-2.139 Y-37.55
G3 X1.511 Y-37.589 I1.846 J1.942
G1 X1.515 Y-37.585
G3 X1.951 Y-37.132 I-3.17 J3.481
G1 X2.284 Y-36.735
G3 X3.797 Y-34.468 I-9.51 J7.986
G1 X4.171 Y-33.748
G3 X6.195 Y-26.602 I-16.383 J8.5
G1 X8.25 Y-0.183
X9.451 Y14.359
G2 X9.625 Y15.727 I13.583 J-1.031
G3 X10.001 Y19.384 I-24.246 J4.338
G1 X10.311 Y30.606
G3 X10.326 Y31.556 I-41.173 J1.138
G1 X10.333 Y33.028
G3 X10.261 Y34.496 I-13.718 J0.063
G1 X10.21 Y34.988
G3 X9.844 Y36.753 I-8.802 J-0.907
G1 X9.665 Y37.318
G3 X7.458 Y40.882 I-8.146 J-2.58
G1 X7.387 Y40.95
G3 X4.468 Y42.461 I-3.983 J-4.12
G1 X3.765 Y42.594
G3 X-1.463 Y42.955 I-4.141 J-21.922
X-10.86 Y33.7 I0.483 J-9.888
G1 X-10.973 Y31.947
G3 X-11.052 Y30.21 I47.651 J-3.056
G1 X-11.265 Y22.498
G2 X-11.558 Y17.614 I-75.815 J2.094
G1 X-11.58 Y17.382
G3 X-11.729 Y15.083 I42.192 J-3.898
G1 X-11.761 Y14.251
G3 X-11.727 Y12.181 I19.225 J-0.726
G2 X-11.654 Y10.925 I-55.406 J-3.882
G1 X-10.187 Y-17.976
X-9.69 Y-26.798
G3 X-4.601 Y-40.213 I23.82 J1.363
G1 X-3.848 Y-41.168
G3 X-3.261 Y-41.831 I6.1 J4.813
G1 X-3.06 Y-42.026
G3 X-2.46 Y-42.511 I3.353 J3.538
G1 X-2.439 Y-42.525
G3 X1.777 Y-42.608 I2.17 J3.171
X2.421 Y-42.117 I-2.414 J3.839
G1 X2.519 Y-42.027
G3 X3.188 Y-41.329 I-4.892 J5.355
G1 X4.068 Y-40.279
G3 X9.611 Y-27.082 I-18.592 J15.571
G1 X12.353 Y-0.183
X13.649 Y11.895
G2 X14.129 Y15.889 I94.521 J-9.338
G1 X14.162 Y16.123
G3 X14.435 Y19.435 I-28.089 J3.982
G1 X14.695 Y30.448
G3 X14.71 Y31.714 I-51.951 J1.227
G1 X14.709 Y32.996
G3 X14.568 Y35.719 I-26.772 J-0.02
G1 X14.485 Y36.522
G3 X10.613 Y44.49 I-12.857 J-1.324
G1 X10.512 Y44.587
G3 X6.357 Y46.738 I-5.668 J-5.862
G1 X5.358 Y46.927
G3 X-2.082 Y47.441 I-5.893 J-31.195
X-15.459 Y34.304 I0.687 J-14.078
G1 X-15.588 Y32.376
G3 X-15.705 Y29.779 I59.967 J-4.016
G1 X-15.883 Y22.266
G2 X-16.098 Y18.051 I-77.098 J1.82
G3 X-16.1 Y10.734 I46.85 J-3.677
G1 X-13.783 Y-17.977
X-13.052 Y-26.537
G3 X-6.1 Y-44.05 I32.636 J2.818
G1 X-5.08 Y-45.339
G3 X-4.286 Y-46.232 I8.22 J6.507
G1 X-4.271 Y-46.247
X-4.073 Y-46.44
X-4.013 Y-46.496
G3 X-3.203 Y-47.149 I4.517 J4.783
G1 X-3.176 Y-47.167
G3 X2.523 Y-47.267 I2.926 J4.291
X3.393 Y-46.602 I-3.277 J5.19
G1 X3.525 Y-46.481
G3 X4.428 Y-45.536 I-6.633 J7.236
G1 X5.614 Y-44.114
G3 X13.074 Y-26.926 I-25.481 J21.272
G1 X16.809 Y2.394
X18.402 Y14.366
X18.467 Y14.751
X18.529 Y15.114
X18.628 Y15.827
G3 X18.902 Y19.26 I-28.917 J4.035
G1 X19.129 Y30.282
G3 X19.142 Y31.882 I-62.946 J1.298
G1 X19.135 Y33.255
G3 X18.953 Y36.657 I-34.849 J-0.167
X3.382 Y51.817 I-16.855 J-1.735
G1 X2.423 Y51.89
G3 X-2.427 Y51.961 I-3.003 J-39.488
G1 X-3.731 Y51.9
G3 X-19.985 Y35.947 I0.797 J-17.07
G1 X-20.197 Y32.718
G3 X-20.338 Y29.435 I73.266 J-4.795
G1 X-20.5 Y21.559
G2 X-20.634 Y18.5 I-65.985 J1.359
G3 X-20.46 Y9.807 I49.888 J-3.348
G1 X-17.36 Y-18.309
X-16.397 Y-26.727
G3 X-8.856 Y-46.522 I42.639 J4.911
G1 X-7.833 Y-47.974
G3 X-7.151 Y-48.871 I12.497 J8.797
G2 X-6.772 Y-49.353 I-11.819 J-9.698
G1 X-6.747 Y-49.386
G3 X-6.379 Y-49.855 I13.841 J10.458
G1 X-6.316 Y-49.933
G3 X-5.671 Y-50.645 I6.827 J5.537
G1 X-5.631 Y-50.685
G3 X-5.062 Y-51.201 I6.186 J6.252
X4.411 Y-51.348 I4.828 J5.817
G1 X4.428 Y-51.335
G3 X5.743 Y-50.081 I-5.614 J7.208
G1 X5.94 Y-49.852
X6.195 Y-49.548
X6.379 Y-49.322
G3 X7.599 Y-47.746 I-29.786 J24.303
G1 X8.116 Y-47.039
G3 X16.606 Y-26.431 I-37.546 J27.521
G1 X21.423 Y4.897
X22.778 Y13.443
X22.835 Y13.748
X22.912 Y14.188
X23.074 Y15.37
G3 X23.404 Y19.66 I-36.343 J4.96
G1 X23.599 Y30.334
G3 X23.613 Y31.83 I-83.653 J1.529
G1 Y31.928
G3 X23.389 Y37.985 I-81.008 J0.032
G1 X23.365 Y38.309
G3 X16.969 Y51.782 I-20.63 J-1.539
X8.898 Y55.696 I-10.2 J-10.758
G1 X7.914 Y55.839
G3 X-8.305 Y56.084 I-9.057 J-62.397
G1 X-9.663 Y55.929
G3 X-17.464 Y52.587 I1.68 J-14.697
X-24.074 Y40.736 I12.142 J-14.542
G1 X-24.095 Y40.595
G3 X-24.786 Y33.583 I78.772 J-11.303
G1 X-24.827 Y32.809
G3 X-24.952 Y29.344 I96.973 J-5.237
G1 X-25.109 Y20.791
G2 X-25.179 Y18.847 I-53.775 J0.982
G3 X-24.756 Y8.521 I54.201 J-2.952
G1 X-20.061 Y-24.973
X-19.784 Y-26.896
G3 X-12.654 Y-47.954 I60.308 J8.686
G1 X-11.895 Y-49.309
G3 X-11.584 Y-49.845 I16.602 J9.286
G1 X-11.499 Y-49.987
G2 X-11.007 Y-50.871 I-12.278 J-7.403
G3 X-10.602 Y-51.609 I12.771 J6.519
G1 X-10.469 Y-51.836
G3 X-9.59 Y-53.138 I10.671 J6.262
G1 X-9.552 Y-53.186
G3 X-8.653 Y-54.228 I10.022 J7.742
G1 X-8.63 Y-54.252
G3 X-6.412 Y-56.065 I8.682 J8.36
G1 X-6.397 Y-56.075
G3 X4.535 Y-56.894 I6.231 J9.805
G1 X4.58 Y-56.873
G3 X5.703 Y-56.296 I-4.374 J9.886
X10.041 Y-52.08 I-6.53 J11.059
G1 X10.244 Y-51.757
G3 X10.684 Y-51.023 I-16.547 J10.418
G1 X11.687 Y-49.273
G3 X20.183 Y-26.035 I-61.291 J35.583
G1 X26.088 Y6.662
G3 X28.022 Y26.111 I-116.237 J21.383
G1 X28.112 Y33.279
G3 X28.036 Y36.641 I-63.7 J0.238
G1 X27.987 Y37.628
G3 X27.785 Y40.045 I-35.068 J-1.722
X6.82 Y60.711 I-23.407 J-2.779
G1 X6.801 Y60.713
G3 X-2.592 Y61.12 I-8.057 J-77.333
G1 X-2.885 Y61.115
G3 X-7.068 Y60.923 I1.254 J-72.935
G1 X-8.312 Y60.83
G3 X-28.917 Y40.752 I1.668 J-22.324
G1 X-28.939 Y40.525
G3 X-29.423 Y33.667 I113.8 J-11.473
G1 X-29.458 Y32.798
G3 X-29.556 Y29.356 I143.22 J-5.783
G1 X-29.697 Y20.732
G2 X-29.748 Y18.907 I-75.714 J1.236
G1 X-29.754 Y18.769
G3 X-29.763 Y14.623 I54.074 J-2.188
X-28.984 Y6.918 I60.022 J2.173
G1 X-23.108 Y-27.692
G3 X-16.873 Y-48.698 I92.377 J15.988
G1 X-16.141 Y-50.404
G3 X-15.853 Y-51.053 I27.37 J11.754
G1 X-15.725 Y-51.331
G2 X-15.373 Y-52.155 I-16.118 J-7.382
G3 X-8.911 Y-60.174 I16.22 J6.457
G1 X-8.58 Y-60.397
G3 X-7.924 Y-60.782 I3.36 J4.985
G1 X-7.38 Y-61.055
G3 X6.746 Y-61.259 I7.273 J14.441
G1 X6.757 Y-61.254
G3 X8.486 Y-60.316 I-6.989 J14.936
G1 X8.823 Y-60.106
G3 X9.829 Y-59.38 I-4.861 J7.805
X15.14 Y-52.502 I-12.63 J15.24
G1 X15.614 Y-51.483
G3 X15.772 Y-51.08 I-3.089 J1.44
G2 X15.904 Y-50.734 I3.248 J-1.037
G1 X17.445 Y-47.264
G3 X18.773 Y-44.073 I-66.858 J29.698
G1 X18.913 Y-43.714
G3 X22.614 Y-31.488 I-77.598 J30.166
G1 X30.525 Y6.584
G3 X32.514 Y24.401 I-91.093 J19.194
G1 X32.593 Y29.724
G3 X32.556 Y38.697 I-236.689 J3.499
G1 X32.535 Y39.567
G3 X7.721 Y65.372 I-26.495 J-0.644
G1 X7.064 Y65.414
G3 X-7.312 Y65.622 I-9.302 J-146.323
G1 X-9.172 Y65.557
G3 X-25.101 Y59.114 I0.868 J-25.057
G1 X-25.564 Y58.697
G3 X-33.693 Y41.766 I16.585 J-18.38
G1 X-33.732 Y41.1
G3 X-34.075 Y33.1 I254.252 J-14.903
G1 X-34.294 Y19.884
X-34.3 Y19.546
X-34.319 Y18.955
G3 X-34.263 Y14.438 I57.735 J-1.547
G1 X-34.254 Y14.256
G3 X-33.106 Y4.952 I65.707 J3.383
G1 X-26.638 Y-27.501
G3 X-19.482 Y-54.177 I217.001 J43.911
X-19.182 Y-54.931 I7.077 J2.381
G1 X-18.842 Y-55.665
G3 X-17.497 Y-58.115 I18.393 J8.506
G1 X-17.461 Y-58.17
G3 X-6.991 Y-66.502 I17.496 J11.244
G1 X-6.574 Y-66.651
G3 X-4.894 Y-67.131 I4.455 J12.412
G1 X-4.718 Y-67.169
G3 X17.321 Y-58.305 I4.462 J20.734
G1 X17.67 Y-57.787
G3 X18.263 Y-56.773 I-7.445 J5.027
X20.413 Y-51.497 I-33.556 J16.752
G1 X20.779 Y-50.358
G3 X26.604 Y-29.276 I-251.359 J80.792
G1 X35.293 Y7.644
G2 X36.056 Y10.823 I168.807 J-38.81
G3 X36.957 Y17.825 I-30.195 J7.445
G1 X37.181 Y34.962
X37.204 Y43.767
G3 X34.581 Y53.21 I-18.17 J0.039
X29.709 Y59.708 I-35.001 J-21.17
G1 X29.466 Y59.972
G3 X27.202 Y62.226 I-26.222 J-24.08
G1 X26.659 Y62.72
G3 X24.408 Y64.593 I-21.692 J-23.779
G1 X24.091 Y64.833
G3 X20.925 Y67.008 I-24.899 J-32.854
X10.637 Y70.064 I-10.739 J-17.309
G1 X0 Y70.28
X-11.609 Y70.379
G3 X-21.405 Y67.776 I-0.203 J-18.972
G1 X-22.594 Y67.08
G3 X-25.232 Y65.341 I15.201 J-25.938
G1 X-25.5 Y65.144
G3 X-37.379 Y51.802 I25.653 J-34.801
X-38.449 Y47.928 I7.05 J-4.031
G1 X-38.848 Y22.145
X-38.921 Y16.695
X-38.92 Y11.34
X-38.904 Y11.121
X-38.874 Y10.891
X-38.824 Y10.64
X-38.3 Y8.436
X-23.719 Y-52.817
X-23.323 Y-54.124
X-22.909 Y-55.46
X-22.751 Y-55.922
X-22.113 Y-57.317
X-21.462 Y-58.708
X-21.359 Y-58.896
X-19.752 Y-61.413
X-19.62 Y-61.591
X-17.831 Y-63.714
X-17.678 Y-63.887
X-17.515 Y-64.053
X-15.771 Y-65.634
X-15.125 Y-66.187
X-13.231 Y-67.493
X-12.631 Y-67.895
X-12.314 Y-68.071
X-10.065 Y-69.207
X-9.71 Y-69.374
X-9.553 Y-69.437
X-6.909 Y-70.355
X-6.664 Y-70.428
X-6.404 Y-70.488
X-3.753 Y-71.027
X-3.511 Y-71.064
X-3.251 Y-71.088
X-0.592 Y-71.266
X-0.343 Y-71.273
X-0.091 Y-71.265
X2.568 Y-71.087
X2.825 Y-71.062
X3.07 Y-71.023
X5.722 Y-70.485
X5.978 Y-70.425
X6.226 Y-70.349
X8.871 Y-69.43
X9.007 Y-69.376
X9.384 Y-69.197
X11.612 Y-68.071
X11.944 Y-67.887
X13.902 Y-66.551
X14.493 Y-66.137
X15.121 Y-65.589
X16.823 Y-64.046
X16.984 Y-63.88
X18.939 Y-61.567
X19.058 Y-61.404
X20.665 Y-58.886
X20.805 Y-58.625
X22.029 Y-55.981
G3 X23.018 Y-52.822 I-58.292 J19.987
G1 X38.848 Y13.693
X38.887 Y13.922
X38.913 Y14.152
X38.924 Y14.393
X38.922 Y47.772
G3 X38.618 Y49.134 I-3.756 J-0.123
G1 X38.321 Y49.737
X36.78 Y52.734
X36.492 Y53.2
X34.896 Y55.705
X34.483 Y56.316
X32.179 Y59.274
X31.915 Y59.566
X29.407 Y62.224
X26.649 Y64.664
X26.443 Y64.842
X25.578 Y65.48
X23.396 Y67.067
X23.127 Y67.254
X20.146 Y69.025
X19.543 Y69.361
X16.238 Y70.923
G3 X14.866 Y71.267 I-1.59 J-3.438
G1 X13.584 Y71.274
X-14.938
X-15.545 Y71.268
G3 X-16.918 Y70.932 I0.194 J-3.769
G1 X-20.25 Y69.343
X-20.846 Y69.039
X-24.16 Y67.024
X-24.468 Y66.824
X-27.414 Y64.599
X-27.922 Y64.198
X-30.797 Y61.53
X-31.024 Y61.31
X-33.719 Y58.252
X-33.875 Y58.064
X-36.307 Y54.663
X-36.473 Y54.4
X-38.469 Y50.902
G3 X-38.924 Y49.154 I3.334 J-1.802
G1 X-38.921 Y16.695
G3 X-38.905 Y16.555 Z-3.984 I0.635
X-38.862 Y16.428 Z-3.937 I0.619 J0.14
X-38.801 Y16.324 Z-3.861 I0.576 J0.267
X-38.736 Y16.248 Z-3.761 I0.515 J0.371
X-38.68 Y16.197 Z-3.641 I0.451 J0.447
G1 X-38.642 Y16.17 Z-3.506
X-38.629 Y16.161 Z-3.365
G0 Z3
X-0.341 Y16.207
G1 Z-5.365 F100
Y16.199 Z-5.464
Y16.176 Z-5.561
X-0.342 Y16.138 Z-5.653
X-0.343 Y16.086 Z-5.738
X-0.344 Y16.021 Z-5.814
X-0.345 Y15.945 Z-5.879
X-0.346 Y15.86 Z-5.931
X-0.348 Y15.768 Z-5.969
X-0.35 Y15.672 Z-5.992
X-0.351 Y15.572 Z-6
X-0.62 Y-0.405 F500
X-0.951 Y-28.061
X-0.944 Y-28.404
X-0.898 Y-29.331
G3 X-0.628 Y-30.034 I1.204 J0.06
G1 X-0.609 Y-30.056
G3 X-0.091 Y-30.055 I0.259 J0.211
X0.055 Y-29.827 I-0.97 J0.785
G1 X0.076 Y-29.785
G3 X0.249 Y-29.106 I-1.482 J0.739
G1 X1.05 Y5.701
X1.278 Y14.26
G2 X1.484 Y16.724 I21.46 J-0.55
G3 X1.751 Y20.072 I-27.184 J3.855
G1 X1.958 Y31.481
G3 X-1.986 Y31.561 I-1.973 J0.018
G1 X-2.197 Y20.447
G2 X-2.436 Y17.2 I-29.597 J0.547
G3 X-2.664 Y14.446 I29.833 J-3.855
G1 X-2.69 Y13.731
G3 X-2.716 Y12.692 I44.782 J-1.639
G1 X-3.046 Y-12.119
X-3.128 Y-27.478
G3 X-3.03 Y-28.98 I10.997 J-0.032
G1 X-2.96 Y-29.494
G3 X-1.635 Y-32.615 I6.356 J0.858
G1 X-1.407 Y-32.903
G3 X-1.23 Y-33.102 I1.838 J1.454
G1 X-1.213 Y-33.119
G3 X-1.073 Y-33.244 I1.18 J1.174
G1 X-1.039 Y-33.272
G3 X-0.391 Y-33.521 I0.716 J0.895
X-0.066 Y-33.491 I0.063 J1.065
X0.628 Y-33.055 I-0.324 J1.286
G1 X0.872 Y-32.763
G3 X1.572 Y-31.708 I-4.435 J3.706
G1 X1.716 Y-31.431
G3 X2.653 Y-27.953 I-7.559 J3.901
G1 X3.824 Y-6.067
X5.071 Y14.333
G2 X5.288 Y16.234 I17.447 J-1.027
G3 X5.638 Y19.694 I-25.418 J4.318
G1 X6.006 Y30.759
G3 X6.02 Y31.402 I-29.586 J0.984
G1 X6.036 Y32.749
G3 X5.6 Y35.231 I-6.835 J0.079
G1 X5.446 Y35.639
G3 X4.34 Y37.315 I-4.223 J-1.586
G1 X4.299 Y37.353
G3 X2.594 Y38.223 I-2.306 J-2.414
G1 X1.976 Y38.336
G3 X-6.313 Y31.816 I-1.267 J-6.919
G1 X-6.331 Y31.505
G3 X-6.369 Y30.654 I36.204 J-2.056
G1 X-6.647 Y22.303
G2 X-7.013 Y17.219 I-65.881 J2.191
G3 X-7.198 Y14.714 I33.871 J-3.762
G1 X-7.215 Y14.257
G3 X-7.223 Y12.173 I31.549 J-1.164
G1 X-6.756 Y-12.119
X-6.385 Y-26.727
G3 X-6.073 Y-29.714 I19.624 J0.541
G1 X-6.037 Y-29.91
G3 X-3.111 Y-36.397 I14.55 J2.658
G1 X-2.622 Y-37.019
G3 X-2.242 Y-37.45 I3.974 J3.127
G1 X-2.234 Y-37.457
X-2.203 Y-37.488
X-2.171 Y-37.519
X-2.139 Y-37.55
G3 X1.511 Y-37.589 I1.846 J1.942
G1 X1.515 Y-37.585
G3 X1.951 Y-37.132 I-3.17 J3.481
G1 X2.284 Y-36.735
G3 X3.797 Y-34.468 I-9.51 J7.986
G1 X4.171 Y-33.748
G3 X6.195 Y-26.602 I-16.383 J8.5
G1 X8.25 Y-0.183
X9.451 Y14.359
G2 X9.625 Y15.727 I13.583 J-1.031
G3 X10.001 Y19.384 I-24.246 J4.338
G1 X10.311 Y30.606
G3 X10.326 Y31.556 I-41.173 J1.138
G1 X10.333 Y33.028
G3 X10.261 Y34.496 I-13.718 J0.063
G1 X10.21 Y34.988
G3 X9.844 Y36.753 I-8.802 J-0.907
G1 X9.665 Y37.318
G3 X7.458 Y40.882 I-8.146 J-2.58
G1 X7.387 Y40.95
G3 X4.468 Y42.461 I-3.983 J-4.12
G1 X3.765 Y42.594
G3 X-1.463 Y42.955 I-4.141 J-21.922
X-10.86 Y33.7 I0.483 J-9.888
G1 X-10.973 Y31.947
G3 X-11.052 Y30.21 I47.651 J-3.056
G1 X-11.265 Y22.498
G2 X-11.558 Y17.614 I-75.815 J2.094
G1 X-11.58 Y17.382
G3 X-11.729 Y15.083 I42.192 J-3.898
G1 X-11.761 Y14.251
G3 X-11.727 Y12.181 I19.225 J-0.726
G2 X-11.654 Y10.925 I-55.406 J-3.882
G1 X-10.187 Y-17.976
X-9.69 Y-26.798
G3 X-4.601 Y-40.213 I23.82 J1.363
G1 X-3.848 Y-41.168
G3 X-3.261 Y-41.831 I6.1 J4.813
G1 X-3.06 Y-42.026
G3 X-2.46 Y-42.511 I3.353 J3.538
G1 X-2.439 Y-42.525
G3 X1.777 Y-42.608 I2.17 J3.171
X2.421 Y-42.117 I-2.414 J3.839
G1 X2.519 Y-42.027
G3 X3.188 Y-41.329 I-4.892 J5.355
G1 X4.068 Y-40.279
G3 X9.611 Y-27.082 I-18.592 J15.571
G1 X12.353 Y-0.183
X13.649 Y11.895
G2 X14.129 Y15.889 I94.521 J-9.338
G1 X14.162 Y16.123
G3 X14.435 Y19.435 I-28.089 J3.982
G1 X14.695 Y30.448
G3 X14.71 Y31.714 I-51.951 J1.227
G1 X14.709 Y32.996
G3 X14.568 Y35.719 I-26.772 J-0.02
G1 X14.485 Y36.522
G3 X10.613 Y44.49 I-12.857 J-1.324
G1 X10.512 Y44.587
G3 X6.357 Y46.738 I-5.668 J-5.862
G1 X5.358 Y46.927
G3 X-2.082 Y47.441 I-5.893 J-31.195
X-15.459 Y34.304 I0.687 J-14.078
G1 X-15.588 Y32.376
G3 X-15.705 Y29.779 I59.967 J-4.016
G1 X-15.883 Y22.266
G2 X-16.098 Y18.051 I-77.098 J1.82
G3 X-16.1 Y10.734 I46.85 J-3.677
G1 X-13.783 Y-17.977
X-13.052 Y-26.537
G3 X-6.1 Y-44.05 I32.636 J2.818
G1 X-5.08 Y-45.339
G3 X-4.286 Y-46.232 I8.22 J6.507
G1 X-4.271 Y-46.247
X-4.073 Y-46.44
X-4.013 Y-46.496
G3 X-3.203 Y-47.149 I4.517 J4.783
G1 X-3.176 Y-47.167
G3 X2.523 Y-47.267 I2.926 J4.291
X3.393 Y-46.602 I-3.277 J5.19
G1 X3.525 Y-46.481
G3 X4.428 Y-45.536 I-6.633 J7.236
G1 X5.614 Y-44.114
G3 X13.074 Y-26.926 I-25.481 J21.272
G1 X16.809 Y2.394
X18.402 Y14.366
X18.467 Y14.751
X18.529 Y15.114
X18.628 Y15.827
G3 X18.902 Y19.26 I-28.917 J4.035
G1 X19.129 Y30.282
G3 X19.142 Y31.882 I-62.946 J1.298
G1 X19.135 Y33.255
G3 X18.953 Y36.657 I-34.849 J-0.167
X3.382 Y51.817 I-16.855 J-1.735
G1 X2.423 Y51.89
G3 X-2.427 Y51.961 I-3.003 J-39.488
G1 X-3.731 Y51.9
G3 X-19.985 Y35.947 I0.797 J-17.07
G1 X-20.197 Y32.718
G3 X-20.338 Y29.435 I73.266 J-4.795
G1 X-20.5 Y21.559
G2 X-20.634 Y18.5 I-65.985 J1.359
G3 X-20.46 Y9.807 I49.888 J-3.348
G1 X-17.36 Y-18.309
X-16.397 Y-26.727
G3 X-8.856 Y-46.522 I42.639 J4.911
G1 X-7.833 Y-47.974
G3 X-7.151 Y-48.871 I12.497 J8.797
G2 X-6.772 Y-49.353 I-11.819 J-9.698
G1 X-6.747 Y-49.386
G3 X-6.379 Y-49.855 I13.841 J10.458
G1 X-6.316 Y-49.933
G3 X-5.671 Y-50.645 I6.827 J5.537
G1 X-5.631 Y-50.685
G3 X-5.062 Y-51.201 I6.186 J6.252
X4.411 Y-51.348 I4.828 J5.817
G1 X4.428 Y-51.335
G3 X5.743 Y-50.081 I-5.614 J7.208
G1 X5.94 Y-49.852
X6.195 Y-49.548
X6.379 Y-49.322
G3 X7.599 Y-47.746 I-29.786 J24.303
G1 X8.116 Y-47.039
G3 X16.606 Y-26.431 I-37.546 J27.521
G1 X21.423 Y4.897
X22.778 Y13.443
X22.835 Y13.748
X22.912 Y14.188
X23.074 Y15.37
G3 X23.404 Y19.66 I-36.343 J4.96
G1 X23.599 Y30.334
G3 X23.613 Y31.83 I-83.653 J1.529
G1 Y31.928
G3 X23.389 Y37.985 I-81.008 J0.032
G1 X23.365 Y38.309
G3 X16.969 Y51.782 I-20.63 J-1.539
X8.898 Y55.696 I-10.2 J-10.758
G1 X7.914 Y55.839
G3 X-8.305 Y56.084 I-9.057 J-62.397
G1 X-9.663 Y55.929
G3 X-17.464 Y52.587 I1.68 J-14.697
X-24.074 Y40.736 I12.142 J-14.542
G1 X-24.095 Y40.595
G3 X-24.786 Y33.583 I78.772 J-11.303
G1 X-24.827 Y32.809
G3 X-24.952 Y29.344 I96.973 J-5.237
G1 X-25.109 Y20.791
G2 X-25.179 Y18.847 I-53.775 J0.982
G3 X-24.756 Y8.521 I54.201 J-2.952
G1 X-20.061 Y-24.973
X-19.784 Y-26.896
G3 X-12.654 Y-47.954 I60.308 J8.686
G1 X-11.895 Y-49.309
G3 X-11.584 Y-49.845 I16.602 J9.286
G1 X-11.499 Y-49.987
G2 X-11.007 Y-50.871 I-12.278 J-7.403
G3 X-10.602 Y-51.609 I12.771 J6.519
G1 X-10.469 Y-51.836
G3 X-9.59 Y-53.138 I10.671 J6.262
G1 X-9.552 Y-53.186
G3 X-8.653 Y-54.228 I10.022 J7.742
G1 X-8.63 Y-54.252
G3 X-6.412 Y-56.065 I8.682 J8.36
G1 X-6.397 Y-56.075
G3 X4.535 Y-56.894 I6.231 J9.805
G1 X4.58 Y-56.873
G3 X5.703 Y-56.296 I-4.374 J9.886
X10.041 Y-52.08 I-6.53 J11.059
G1 X10.244 Y-51.757
G3 X10.684 Y-51.023 I-16.547 J10.418
G1 X11.687 Y-49.273
G3 X20.183 Y-26.035 I-61.291 J35.583
G1 X26.088 Y6.662
G3 X28.022 Y26.111 I-116.237 J21.383
G1 X28.112 Y33.279
G3 X28.036 Y36.641 I-63.7 J0.238
G1 X27.987 Y37.628
G3 X27.785 Y40.045 I-35.068 J-1.722
X6.82 Y60.711 I-23.407 J-2.779
G1 X6.801 Y60.713
G3 X-2.592 Y61.12 I-8.057 J-77.333
G1 X-2.885 Y61.115
G3 X-7.068 Y60.923 I1.254 J-72.935
G1 X-8.312 Y60.83
G3 X-28.917 Y40.752 I1.668 J-22.324
G1 X-28.939 Y40.525
G3 X-29.423 Y33.667 I113.8 J-11.473
G1 X-29.458 Y32.798
G3 X-29.556 Y29.356 I143.22 J-5.783
G1 X-29.697 Y20.732
G2 X-29.748 Y18.907 I-75.714 J1.236
G1 X-29.754 Y18.769
G3 X-29.763 Y14.623 I54.074 J-2.188
X-28.984 Y6.918 I60.022 J2.173
G1 X-23.108 Y-27.692
G3 X-16.873 Y-48.698 I92.377 J15.988
G1 X-16.141 Y-50.404
G3 X-15.853 Y-51.053 I27.37 J11.754
G1 X-15.725 Y-51.331
G2 X-15.373 Y-52.155 I-16.118 J-7.382
G3 X-8.911 Y-60.174 I16.22 J6.457
G1 X-8.58 Y-60.397
G3 X-7.924 Y-60.782 I3.36 J4.985
G1 X-7.38 Y-61.055
G3 X6.746 Y-61.259 I7.273 J14.441
G1 X6.757 Y-61.254
G3 X8.486 Y-60.316 I-6.989 J14.936
G1 X8.823 Y-60.106
G3 X9.829 Y-59.38 I-4.861 J7.805
X15.14 Y-52.502 I-12.63 J15.24
G1 X15.614 Y-51.483
G3 X15.772 Y-51.08 I-3.089 J1.44
G2 X15.904 Y-50.734 I3.248 J-1.037
G1 X17.445 Y-47.264
G3 X18.773 Y-44.073 I-66.858 J29.698
G1 X18.913 Y-43.714
G3 X22.614 Y-31.488 I-77.598 J30.166
G1 X30.525 Y6.584
G3 X32.514 Y24.401 I-91.093 J19.194
G1 X32.593 Y29.724
G3 X32.556 Y38.697 I-236.689 J3.499
G1 X32.535 Y39.567
G3 X7.721 Y65.372 I-26.495 J-0.644
G1 X7.064 Y65.414
G3 X-7.312 Y65.622 I-9.302 J-146.323
G1 X-9.172 Y65.557
G3 X-25.101 Y59.114 I0.868 J-25.057
G1 X-25.564 Y58.697
G3 X-33.693 Y41.766 I16.585 J-18.38
G1 X-33.732 Y41.1
G3 X-34.075 Y33.1 I254.252 J-14.903
G1 X-34.294 Y19.884
X-34.3 Y19.546
X-34.319 Y18.955
G3 X-34.263 Y14.438 I57.735 J-1.547
G1 X-34.254 Y14.256
G3 X-33.106 Y4.952 I65.707 J3.383
G1 X-26.638 Y-27.501
G3 X-19.482 Y-54.177 I217.001 J43.911
X-19.182 Y-54.931 I7.077 J2.381
G1 X-18.842 Y-55.665
G3 X-17.497 Y-58.115 I18.393 J8.506
G1 X-17.461 Y-58.17
G3 X-6.991 Y-66.502 I17.496 J11.244
G1 X-6.574 Y-66.651
G3 X-4.894 Y-67.131 I4.455 J12.412
G1 X-4.718 Y-67.169
G3 X17.321 Y-58.305 I4.462 J20.734
G1 X17.67 Y-57.787
G3 X18.263 Y-56.773 I-7.445 J5.027
X20.413 Y-51.497 I-33.556 J16.752
G1 X20.779 Y-50.358
G3 X26.604 Y-29.276 I-251.359 J80.792
G1 X35.293 Y7.644
G2 X36.056 Y10.823 I168.807 J-38.81
G3 X36.957 Y17.825 I-30.195 J7.445
G1 X37.181 Y34.962
X37.204 Y43.767
G3 X34.581 Y53.21 I-18.17 J0.039
X29.709 Y59.708 I-35.001 J-21.17
G1 X29.466 Y59.972
G3 X27.202 Y62.226 I-26.222 J-24.08
G1 X26.659 Y62.72
G3 X24.408 Y64.593 I-21.692 J-23.779
G1 X24.091 Y64.833
G3 X20.925 Y67.008 I-24.899 J-32.854
X10.637 Y70.064 I-10.739 J-17.309
G1 X0 Y70.28
X-11.609 Y70.379
G3 X-21.405 Y67.776 I-0.203 J-18.972
G1 X-22.594 Y67.08
G3 X-25.232 Y65.341 I15.201 J-25.938
G1 X-25.5 Y65.144
G3 X-37.379 Y51.802 I25.653 J-34.801
X-38.449 Y47.928 I7.05 J-4.031
G1 X-38.848 Y22.145
X-38.921 Y16.695
X-38.92 Y11.34
X-38.904 Y11.121
X-38.874 Y10.891
X-38.824 Y10.64
X-38.3 Y8.436
X-23.719 Y-52.817
X-23.323 Y-54.124
X-22.909 Y-55.46
X-22.751 Y-55.922
X-22.113 Y-57.317
X-21.462 Y-58.708
X-21.359 Y-58.896
X-19.752 Y-61.413
X-19.62 Y-61.591
X-17.831 Y-63.714
X-17.678 Y-63.887
X-17.515 Y-64.053
X-15.771 Y-65.634
X-15.125 Y-66.187
X-13.231 Y-67.493
X-12.631 Y-67.895
X-12.314 Y-68.071
X-10.065 Y-69.207
X-9.71 Y-69.374
X-9.553 Y-69.437
X-6.909 Y-70.355
X-6.664 Y-70.428
X-6.404 Y-70.488
X-3.753 Y-71.027
X-3.511 Y-71.064
X-3.251 Y-71.088
X-0.592 Y-71.266
X-0.343 Y-71.273
X-0.091 Y-71.265
X2.568 Y-71.087
X2.825 Y-71.062
X3.07 Y-71.023
X5.722 Y-70.485
X5.978 Y-70.425
X6.226 Y-70.349
X8.871 Y-69.43
X9.007 Y-69.376
X9.384 Y-69.197
X11.612 Y-68.071
X11.944 Y-67.887
X13.902 Y-66.551
X14.493 Y-66.137
X15.121 Y-65.589
X16.823 Y-64.046
X16.984 Y-63.88
X18.939 Y-61.567
X19.058 Y-61.404
X20.665 Y-58.886
X20.805 Y-58.625
X22.029 Y-55.981
G3 X23.018 Y-52.822 I-58.292 J19.987
G1 X38.848 Y13.693
X38.887 Y13.922
X38.913 Y14.152
X38.924 Y14.393
X38.922 Y47.772
G3 X38.618 Y49.134 I-3.756 J-0.123
G1 X38.321 Y49.737
X36.78 Y52.734
X36.492 Y53.2
X34.896 Y55.705
X34.483 Y56.316
X32.179 Y59.274
X31.915 Y59.566
X29.407 Y62.224
X26.649 Y64.664
X26.443 Y64.842
X25.578 Y65.48
X23.396 Y67.067
X23.127 Y67.254
X20.146 Y69.025
X19.543 Y69.361
X16.238 Y70.923
G3 X14.866 Y71.267 I-1.59 J-3.438
G1 X13.584 Y71.274
X-14.938
X-15.545 Y71.268
G3 X-16.918 Y70.932 I0.194 J-3.769
G1 X-20.25 Y69.343
X-20.846 Y69.039
X-24.16 Y67.024
X-24.468 Y66.824
X-27.414 Y64.599
X-27.922 Y64.198
X-30.797 Y61.53
X-31.024 Y61.31
X-33.719 Y58.252
X-33.875 Y58.064
X-36.307 Y54.663
X-36.473 Y54.4
X-38.469 Y50.902
G3 X-38.924 Y49.154 I3.334 J-1.802
G1 X-38.921 Y16.695
G3 X-38.905 Y16.555 Z-5.984 I0.635
X-38.862 Y16.428 Z-5.937 I0.619 J0.14
X-38.801 Y16.324 Z-5.861 I0.576 J0.267
X-38.736 Y16.248 Z-5.761 I0.515 J0.371
X-38.68 Y16.197 Z-5.641 I0.451 J0.447
G1 X-38.642 Y16.17 Z-5.506
X-38.629 Y16.161 Z-5.365
G0 Z3
X-0.341 Y16.207
Z-3
G1 Z-6.865 F100
Y16.199 Z-6.964
Y16.176 Z-7.061
X-0.342 Y16.138 Z-7.153
X-0.343 Y16.086 Z-7.238
X-0.344 Y16.021 Z-7.314
X-0.345 Y15.945 Z-7.379
X-0.346 Y15.86 Z-7.431
X-0.348 Y15.768 Z-7.469
X-0.35 Y15.672 Z-7.492
X-0.351 Y15.572 Z-7.5
X-0.62 Y-0.405 F500
X-0.951 Y-28.061
X-0.944 Y-28.404
X-0.898 Y-29.331
G3 X-0.628 Y-30.034 I1.204 J0.06
G1 X-0.609 Y-30.056
G3 X-0.091 Y-30.055 I0.259 J0.211
X0.055 Y-29.827 I-0.97 J0.785
G1 X0.076 Y-29.785
G3 X0.249 Y-29.106 I-1.482 J0.739
G1 X1.05 Y5.701
X1.278 Y14.26
G2 X1.484 Y16.724 I21.46 J-0.55
G3 X1.751 Y20.072 I-27.184 J3.855
G1 X1.958 Y31.481
G3 X-1.986 Y31.561 I-1.973 J0.018
G1 X-2.197 Y20.447
G2 X-2.436 Y17.2 I-29.597 J0.547
G3 X-2.664 Y14.446 I29.833 J-3.855
G1 X-2.69 Y13.731
G3 X-2.716 Y12.692 I44.782 J-1.639
G1 X-3.046 Y-12.119
X-3.128 Y-27.478
G3 X-3.03 Y-28.98 I10.997 J-0.032
G1 X-2.96 Y-29.494
G3 X-1.635 Y-32.615 I6.356 J0.858
G1 X-1.407 Y-32.903
G3 X-1.23 Y-33.102 I1.838 J1.454
G1 X-1.213 Y-33.119
G3 X-1.073 Y-33.244 I1.18 J1.174
G1 X-1.039 Y-33.272
G3 X-0.391 Y-33.521 I0.716 J0.895
X-0.066 Y-33.491 I0.063 J1.065
X0.628 Y-33.055 I-0.324 J1.286
G1 X0.872 Y-32.763
G3 X1.572 Y-31.708 I-4.435 J3.706
G1 X1.716 Y-31.431
G3 X2.653 Y-27.953 I-7.559 J3.901
G1 X3.824 Y-6.067
X5.071 Y14.333
G2 X5.288 Y16.234 I17.447 J-1.027
G3 X5.638 Y19.694 I-25.418 J4.318
G1 X6.006 Y30.759
G3 X6.02 Y31.402 I-29.586 J0.984
G1 X6.036 Y32.749
G3 X5.6 Y35.231 I-6.835 J0.079
G1 X5.446 Y35.639
G3 X4.34 Y37.315 I-4.223 J-1.586
G1 X4.299 Y37.353
G3 X2.594 Y38.223 I-2.306 J-2.414
G1 X1.976 Y38.336
G3 X-6.313 Y31.816 I-1.267 J-6.919
G1 X-6.331 Y31.505
G3 X-6.369 Y30.654 I36.204 J-2.056
G1 X-6.647 Y22.303
G2 X-7.013 Y17.219 I-65.881 J2.191
G3 X-7.198 Y14.714 I33.871 J-3.762
G1 X-7.215 Y14.257
G3 X-7.223 Y12.173 I31.549 J-1.164
G1 X-6.756 Y-12.119
X-6.385 Y-26.727
G3 X-6.073 Y-29.714 I19.624 J0.541
G1 X-6.037 Y-29.91
G3 X-3.111 Y-36.397 I14.55 J2.658
G1 X-2.622 Y-37.019
G3 X-2.242 Y-37.45 I3.974 J3.127
G1 X-2.234 Y-37.457
X-2.203 Y-37.488
X-2.171 Y-37.519
X-2.139 Y-37.55
G3 X1.511 Y-37.589 I1.846 J1.942
G1 X1.515 Y-37.585
G3 X1.951 Y-37.132 I-3.17 J3.481
G1 X2.284 Y-36.735
G3 X3.797 Y-34.468 I-9.51 J7.986
G1 X4.171 Y-33.748
G3 X6.195 Y-26.602 I-16.383 J8.5
G1 X8.25 Y-0.183
X9.451 Y14.359
G2 X9.625 Y15.727 I13.583 J-1.031
G3 X10.001 Y19.384 I-24.246 J4.338
G1 X10.311 Y30.606
G3 X10.326 Y31.556 I-41.173 J1.138
G1 X10.333 Y33.028
G3 X10.261 Y34.496 I-13.718 J0.063
G1 X10.21 Y34.988
G3 X9.844 Y36.753 I-8.802 J-0.907
G1 X9.665 Y37.318
G3 X7.458 Y40.882 I-8.146 J-2.58
G1 X7.387 Y40.95
G3 X4.468 Y42.461 I-3.983 J-4.12
G1 X3.765 Y42.594
G3 X-1.463 Y42.955 I-4.141 J-21.922
X-10.86 Y33.7 I0.483 J-9.888
G1 X-10.973 Y31.947
G3 X-11.052 Y30.21 I47.651 J-3.056
G1 X-11.265 Y22.498
G2 X-11.558 Y17.614 I-75.815 J2.094
G1 X-11.58 Y17.382
G3 X-11.729 Y15.083 I42.192 J-3.898
G1 X-11.761 Y14.251
G3 X-11.727 Y12.181 I19.225 J-0.726
G2 X-11.654 Y10.925 I-55.406 J-3.882
G1 X-10.187 Y-17.976
X-9.69 Y-26.798
G3 X-4.601 Y-40.213 I23.82 J1.363
G1 X-3.848 Y-41.168
G3 X-3.261 Y-41.831 I6.1 J4.813
G1 X-3.06 Y-42.026
G3 X-2.46 Y-42.511 I3.353 J3.538
G1 X-2.439 Y-42.525
G3 X1.777 Y-42.608 I2.17 J3.171
X2.421 Y-42.117 I-2.414 J3.839
G1 X2.519 Y-42.027
G3 X3.188 Y-41.329 I-4.892 J5.355
G1 X4.068 Y-40.279
G3 X9.611 Y-27.082 I-18.592 J15.571
G1 X12.353 Y-0.183
X13.649 Y11.895
G2 X14.129 Y15.889 I94.521 J-9.338
G1 X14.162 Y16.123
G3 X14.435 Y19.435 I-28.089 J3.982
G1 X14.695 Y30.448
G3 X14.71 Y31.714 I-51.951 J1.227
G1 X14.709 Y32.996
G3 X14.568 Y35.719 I-26.772 J-0.02
G1 X14.485 Y36.522
G3 X10.613 Y44.49 I-12.857 J-1.324
G1 X10.512 Y44.587
G3 X6.357 Y46.738 I-5.668 J-5.862
G1 X5.358 Y46.927
G3 X-2.082 Y47.441 I-5.893 J-31.195
X-15.459 Y34.304 I0.687 J-14.078
G1 X-15.588 Y32.376
G3 X-15.705 Y29.779 I59.967 J-4.016
G1 X-15.883 Y22.266
G2 X-16.098 Y18.051 I-77.098 J1.82
G3 X-16.1 Y10.734 I46.85 J-3.677
G1 X-13.783 Y-17.977
X-13.052 Y-26.537
G3 X-6.1 Y-44.05 I32.636 J2.818
G1 X-5.08 Y-45.339
G3 X-4.286 Y-46.232 I8.22 J6.507
G1 X-4.271 Y-46.247
X-4.073 Y-46.44
X-4.013 Y-46.496
G3 X-3.203 Y-47.149 I4.517 J4.783
G1 X-3.176 Y-47.167
G3 X2.523 Y-47.267 I2.926 J4.291
X3.393 Y-46.602 I-3.277 J5.19
G1 X3.525 Y-46.481
G3 X4.428 Y-45.536 I-6.633 J7.236
G1 X5.614 Y-44.114
G3 X13.074 Y-26.926 I-25.481 J21.272
G1 X16.809 Y2.394
X18.402 Y14.366
X18.467 Y14.751
X18.529 Y15.114
X18.628 Y15.827
G3 X18.902 Y19.26 I-28.917 J4.035
G1 X19.129 Y30.282
G3 X19.142 Y31.882 I-62.946 J1.298
G1 X19.135 Y33.255
G3 X18.953 Y36.657 I-34.849 J-0.167
X3.382 Y51.817 I-16.855 J-1.735
G1 X2.423 Y51.89
G3 X-2.427 Y51.961 I-3.003 J-39.488
G1 X-3.731 Y51.9
G3 X-19.985 Y35.947 I0.797 J-17.07
G1 X-20.197 Y32.718
G3 X-20.338 Y29.435 I73.266 J-4.795
G1 X-20.5 Y21.559
G2 X-20.634 Y18.5 I-65.985 J1.359
G3 X-20.46 Y9.807 I49.888 J-3.348
G1 X-17.36 Y-18.309
X-16.397 Y-26.727
G3 X-8.856 Y-46.522 I42.639 J4.911
G1 X-7.833 Y-47.974
G3 X-7.151 Y-48.871 I12.497 J8.797
G2 X-6.772 Y-49.353 I-11.819 J-9.698
G1 X-6.747 Y-49.386
G3 X-6.379 Y-49.855 I13.841 J10.458
G1 X-6.316 Y-49.933
G3 X-5.671 Y-50.645 I6.827 J5.537
G1 X-5.631 Y-50.685
G3 X-5.062 Y-51.201 I6.186 J6.252
X4.411 Y-51.348 I4.828 J5.817
G1 X4.428 Y-51.335
G3 X5.743 Y-50.081 I-5.614 J7.208
G1 X5.94 Y-49.852
X6.195 Y-49.548
X6.379 Y-49.322
G3 X7.599 Y-47.746 I-29.786 J24.303
G1 X8.116 Y-47.039
G3 X16.606 Y-26.431 I-37.546 J27.521
G1 X21.423 Y4.897
X22.778 Y13.443
X22.835 Y13.748
X22.912 Y14.188
X23.074 Y15.37
G3 X23.404 Y19.66 I-36.343 J4.96
G1 X23.599 Y30.334
G3 X23.613 Y31.83 I-83.653 J1.529
G1 Y31.928
G3 X23.389 Y37.985 I-81.008 J0.032
G1 X23.365 Y38.309
G3 X16.969 Y51.782 I-20.63 J-1.539
X8.898 Y55.696 I-10.2 J-10.758
G1 X7.914 Y55.839
G3 X-8.305 Y56.084 I-9.057 J-62.397
G1 X-9.663 Y55.929
G3 X-17.464 Y52.587 I1.68 J-14.697
X-24.074 Y40.736 I12.142 J-14.542
G1 X-24.095 Y40.595
G3 X-24.786 Y33.583 I78.772 J-11.303
G1 X-24.827 Y32.809
G3 X-24.952 Y29.344 I96.973 J-5.237
G1 X-25.109 Y20.791
G2 X-25.179 Y18.847 I-53.775 J0.982
G3 X-24.756 Y8.521 I54.201 J-2.952
G1 X-20.061 Y-24.973
X-19.784 Y-26.896
G3 X-12.654 Y-47.954 I60.308 J8.686
G1 X-11.895 Y-49.309
G3 X-11.584 Y-49.845 I16.602 J9.286
G1 X-11.499 Y-49.987
G2 X-11.007 Y-50.871 I-12.278 J-7.403
G3 X-10.602 Y-51.609 I12.771 J6.519
G1 X-10.469 Y-51.836
G3 X-9.59 Y-53.138 I10.671 J6.262
G1 X-9.552 Y-53.186
G3 X-8.653 Y-54.228 I10.022 J7.742
G1 X-8.63 Y-54.252
G3 X-6.412 Y-56.065 I8.682 J8.36
G1 X-6.397 Y-56.075
G3 X4.535 Y-56.894 I6.231 J9.805
G1 X4.58 Y-56.873
G3 X5.703 Y-56.296 I-4.374 J9.886
X10.041 Y-52.08 I-6.53 J11.059
G1 X10.244 Y-51.757
G3 X10.684 Y-51.023 I-16.547 J10.418
G1 X11.687 Y-49.273
G3 X20.183 Y-26.035 I-61.291 J35.583
G1 X26.088 Y6.662
G3 X28.022 Y26.111 I-116.237 J21.383
G1 X28.112 Y33.279
G3 X28.036 Y36.641 I-63.7 J0.238
G1 X27.987 Y37.628
G3 X27.785 Y40.045 I-35.068 J-1.722
X6.82 Y60.711 I-23.407 J-2.779
G1 X6.801 Y60.713
G3 X-2.592 Y61.12 I-8.057 J-77.333
G1 X-2.885 Y61.115
G3 X-7.068 Y60.923 I1.254 J-72.935
G1 X-8.312 Y60.83
G3 X-28.917 Y40.752 I1.668 J-22.324
G1 X-28.939 Y40.525
G3 X-29.423 Y33.667 I113.8 J-11.473
G1 X-29.458 Y32.798
G3 X-29.556 Y29.356 I143.22 J-5.783
G1 X-29.697 Y20.732
G2 X-29.748 Y18.907 I-75.714 J1.236
G1 X-29.754 Y18.769
G3 X-29.763 Y14.623 I54.074 J-2.188
X-28.984 Y6.918 I60.022 J2.173
G1 X-23.108 Y-27.692
G3 X-16.873 Y-48.698 I92.377 J15.988
G1 X-16.141 Y-50.404
G3 X-15.853 Y-51.053 I27.37 J11.754
G1 X-15.725 Y-51.331
G2 X-15.373 Y-52.155 I-16.118 J-7.382
G3 X-8.911 Y-60.174 I16.22 J6.457
G1 X-8.58 Y-60.397
G3 X-7.924 Y-60.782 I3.36 J4.985
G1 X-7.38 Y-61.055
G3 X6.746 Y-61.259 I7.273 J14.441
G1 X6.757 Y-61.254
G3 X8.486 Y-60.316 I-6.989 J14.936
G1 X8.823 Y-60.106
G3 X9.829 Y-59.38 I-4.861 J7.805
X15.14 Y-52.502 I-12.63 J15.24
G1 X15.614 Y-51.483
G3 X15.772 Y-51.08 I-3.089 J1.44
G2 X15.904 Y-50.734 I3.248 J-1.037
G1 X17.445 Y-47.264
G3 X18.773 Y-44.073 I-66.858 J29.698
G1 X18.913 Y-43.714
G3 X22.614 Y-31.488 I-77.598 J30.166
G1 X30.525 Y6.584
G3 X32.514 Y24.401 I-91.093 J19.194
G1 X32.593 Y29.724
G3 X32.556 Y38.697 I-236.689 J3.499
G1 X32.535 Y39.567
G3 X7.721 Y65.372 I-26.495 J-0.644
G1 X7.064 Y65.414
G3 X-7.312 Y65.622 I-9.302 J-146.323
G1 X-9.172 Y65.557
G3 X-25.101 Y59.114 I0.868 J-25.057
G1 X-25.564 Y58.697
G3 X-33.693 Y41.766 I16.585 J-18.38
G1 X-33.732 Y41.1
G3 X-34.075 Y33.1 I254.252 J-14.903
G1 X-34.294 Y19.884
X-34.3 Y19.546
X-34.319 Y18.955
G3 X-34.263 Y14.438 I57.735 J-1.547
G1 X-34.254 Y14.256
G3 X-33.106 Y4.952 I65.707 J3.383
G1 X-26.638 Y-27.501
G3 X-19.482 Y-54.177 I217.001 J43.911
X-19.182 Y-54.931 I7.077 J2.381
G1 X-18.842 Y-55.665
G3 X-17.497 Y-58.115 I18.393 J8.506
G1 X-17.461 Y-58.17
G3 X-6.991 Y-66.502 I17.496 J11.244
G1 X-6.574 Y-66.651
G3 X-4.894 Y-67.131 I4.455 J12.412
G1 X-4.718 Y-67.169
G3 X17.321 Y-58.305 I4.462 J20.734
G1 X17.67 Y-57.787
G3 X18.263 Y-56.773 I-7.445 J5.027
X20.413 Y-51.497 I-33.556 J16.752
G1 X20.779 Y-50.358
G3 X26.604 Y-29.276 I-251.359 J80.792
G1 X35.293 Y7.644
G2 X36.056 Y10.823 I168.807 J-38.81
G3 X36.957 Y17.825 I-30.195 J7.445
G1 X37.181 Y34.962
X37.204 Y43.767
G3 X34.581 Y53.21 I-18.17 J0.039
X29.709 Y59.708 I-35.001 J-21.17
G1 X29.466 Y59.972
G3 X27.202 Y62.226 I-26.222 J-24.08
G1 X26.659 Y62.72
G3 X24.408 Y64.593 I-21.692 J-23.779
G1 X24.091 Y64.833
G3 X20.925 Y67.008 I-24.899 J-32.854
X10.637 Y70.064 I-10.739 J-17.309
G1 X0 Y70.28
X-11.609 Y70.379
G3 X-21.405 Y67.776 I-0.203 J-18.972
G1 X-22.594 Y67.08
G3 X-25.232 Y65.341 I15.201 J-25.938
G1 X-25.5 Y65.144
G3 X-37.379 Y51.802 I25.653 J-34.801
X-38.449 Y47.928 I7.05 J-4.031
G1 X-38.848 Y22.145
X-38.921 Y16.695
X-38.92 Y11.34
X-38.904 Y11.121
X-38.874 Y10.891
X-38.824 Y10.64
X-38.3 Y8.436
X-23.719 Y-52.817
X-23.323 Y-54.124
X-22.909 Y-55.46
X-22.751 Y-55.922
X-22.113 Y-57.317
X-21.462 Y-58.708
X-21.359 Y-58.896
X-19.752 Y-61.413
X-19.62 Y-61.591
X-17.831 Y-63.714
X-17.678 Y-63.887
X-17.515 Y-64.053
X-15.771 Y-65.634
X-15.125 Y-66.187
X-13.231 Y-67.493
X-12.631 Y-67.895
X-12.314 Y-68.071
X-10.065 Y-69.207
X-9.71 Y-69.374
X-9.553 Y-69.437
X-6.909 Y-70.355
X-6.664 Y-70.428
X-6.404 Y-70.488
X-3.753 Y-71.027
X-3.511 Y-71.064
X-3.251 Y-71.088
X-0.592 Y-71.266
X-0.343 Y-71.273
X-0.091 Y-71.265
X2.568 Y-71.087
X2.825 Y-71.062
X3.07 Y-71.023
X5.722 Y-70.485
X5.978 Y-70.425
X6.226 Y-70.349
X8.871 Y-69.43
X9.007 Y-69.376
X9.384 Y-69.197
X11.612 Y-68.071
X11.944 Y-67.887
X13.902 Y-66.551
X14.493 Y-66.137
X15.121 Y-65.589
X16.823 Y-64.046
X16.984 Y-63.88
X18.939 Y-61.567
X19.058 Y-61.404
X20.665 Y-58.886
X20.805 Y-58.625
X22.029 Y-55.981
G3 X23.018 Y-52.822 I-58.292 J19.987
G1 X38.848 Y13.693
X38.887 Y13.922
X38.913 Y14.152
X38.924 Y14.393
X38.922 Y47.772
G3 X38.618 Y49.134 I-3.756 J-0.123
G1 X38.321 Y49.737
X36.78 Y52.734
X36.492 Y53.2
X34.896 Y55.705
X34.483 Y56.316
X32.179 Y59.274
X31.915 Y59.566
X29.407 Y62.224
X26.649 Y64.664
X26.443 Y64.842
X25.578 Y65.48
X23.396 Y67.067
X23.127 Y67.254
X20.146 Y69.025
X19.543 Y69.361
X16.238 Y70.923
G3 X14.866 Y71.267 I-1.59 J-3.438
G1 X13.584 Y71.274
X-14.938
X-15.545 Y71.268
G3 X-16.918 Y70.932 I0.194 J-3.769
G1 X-20.25 Y69.343
X-20.846 Y69.039
X-24.16 Y67.024
X-24.468 Y66.824
X-27.414 Y64.599
X-27.922 Y64.198
X-30.797 Y61.53
X-31.024 Y61.31
X-33.719 Y58.252
X-33.875 Y58.064
X-36.307 Y54.663
X-36.473 Y54.4
X-38.469 Y50.902
G3 X-38.924 Y49.154 I3.334 J-1.802
G1 X-38.921 Y16.695
G3 X-38.905 Y16.555 Z-7.484 I0.635
X-38.862 Y16.428 Z-7.437 I0.619 J0.14
X-38.801 Y16.324 Z-7.361 I0.576 J0.267
X-38.736 Y16.248 Z-7.261 I0.515 J0.371
X-38.68 Y16.197 Z-7.141 I0.451 J0.447
G1 X-38.642 Y16.17 Z-7.006
X-38.629 Y16.161 Z-6.865
G0 Z3
X-27.131 Y-16.724
Z-4.5
G1 Z-8.865 F100
X-27.122 Y-16.737 Z-9.006
X-27.112 Y-16.75 Z-9.051
X-27.103 Y-16.762 Z-9.096
X-27.093 Y-16.774 Z-9.141
G3 X-27.04 Y-16.829 Z-9.261 I0.485 J0.41
X-26.962 Y-16.891 Z-9.361 I0.432 J0.465
X-26.856 Y-16.949 Z-9.437 I0.354 J0.527
X-26.728 Y-16.988 Z-9.484 I0.248 J0.585
X-26.587 Y-16.999 Z-9.5 I0.12 J0.624
G2 X-25.916 Y-16.993 I0.466 J-14.303 F500
G3 X-25.039 Y-16.998 I0.816 J56.918
X-25.041 Y-14.346 I-0.001 J1.326
G1 X-26.973
G3 X-28.001 Y-15.647 J-1.057
G1 X-27.871 Y-16.196
G3 X-26.793 Y-17.007 I1.028 J0.245
G1 X-26.587 Y-16.999
G3 X-26.447 Y-16.981 Z-9.484 I-0.009 J0.635
X-26.321 Y-16.936 Z-9.437 I-0.149 J0.617
X-26.218 Y-16.874 Z-9.361 I-0.275 J0.572
X-26.142 Y-16.808 Z-9.261 I-0.378 J0.51
X-26.093 Y-16.751 Z-9.141 I-0.454 J0.444
G1 X-26.066 Y-16.713 Z-9.006
X-26.057 Y-16.699 Z-8.865
G0 Z-3
X-0.336 Y-45.645
Z-4.5
G1 Z-8.865 F100
Y-45.653 Z-8.964
Y-45.676 Z-9.061
X-0.337 Y-45.714 Z-9.153
X-0.339 Y-45.766 Z-9.238
X-0.34 Y-45.831 Z-9.314
X-0.342 Y-45.907 Z-9.379
X-0.344 Y-45.992 Z-9.431
X-0.346 Y-46.084 Z-9.469
X-0.349 Y-46.18 Z-9.492
X-0.351 Y-46.28 Z-9.5
X-0.368 Y-46.96 F500
G2 X-0.557 Y-47.228 I-0.294 J0.007
G3 X-0.551 Y-48.355 I0.215 J-0.563
G1 X-0.173 Y-48.494
G3 X0.632 Y-48.484 I0.389 J1.056
G1 X0.78 Y-48.425
G3 X1.564 Y-47.736 I-0.573 J1.442
G1 X1.697 Y-47.495
G3 X1.422 Y-45.181 I-1.742 J0.966
G1 X1.227 Y-44.968
G2 X0.477 Y-43.788 I2.918 J2.682
G1 X0.29 Y-43.33
G3 X-1.707 Y-42.956 I-1.12 J-0.458
G1 X-2.134 Y-43.405
G2 X-2.806 Y-43.909 I-1.83 J1.739
G3 X-3.165 Y-44.134 I1.166 J-2.259
G1 X-3.292 Y-44.23
G3 X-4.596 Y-45.802 I2.634 J-3.51
G1 X-4.606 Y-45.823
G3 X-5.03 Y-47.175 I4.151 J-2.043
X-5.084 Y-47.894 I4.736 J-0.72
X-5.012 Y-48.724 I4.79
G1 X-5.009 Y-48.74
G3 X-3.509 Y-51.516 I4.918 J0.865
G1 X-3.49 Y-51.534
G3 X-2.833 Y-52.06 I3.656 J3.894
X-2.079 Y-52.488 I3.028 J4.457
G1 X-2.059 Y-52.497
G3 X-0.341 Y-52.983 I2.362 J5.073
X0.318 Y-53.021 I0.659 J5.661
G1 X0.566 Y-53.015
G3 X1.471 Y-52.904 I-0.247 J5.712
G1 X1.492 Y-52.899
G3 X3.304 Y-52.205 I-1.205 J5.858
G1 X3.32 Y-52.196
G3 X4.811 Y-50.973 I-3.087 J5.284
G1 X4.83 Y-50.951
G3 X5.917 Y-49.244 I-4.795 J4.254
X6.266 Y-48.214 I-6.064 J2.628
G1 X6.269 Y-48.203
G3 X6.45 Y-46.117 I-6.475 J1.613
G1 X6.449 Y-46.1
G3 X6.283 Y-45.004 I-6.938 J-0.493
G1 X6.279 Y-44.99
G3 X5.426 Y-42.921 I-6.814 J-1.599
G1 X5.419 Y-42.91
G3 X4.736 Y-41.975 I-6.216 J-3.825
X3.892 Y-41.14 I-5.572 J-4.789
G1 X1.428 Y-39.039
G3 X-2.43 Y-38.679 I-2.185 J-2.554
X-4.946 Y-40.13 I51.611 J-92.323
X-8.055 Y-52.802 I4.709 J-7.873
G1 X-7.861 Y-53.117
G3 X-7.424 Y-53.716 I3.91 J2.4
G1 X-7.402 Y-53.741
G3 X8.409 Y-53.52 I7.813 J6.746
X10.119 Y-50.577 I-8.383 J6.839
G1 X10.121 Y-50.572
G3 X10.629 Y-48.853 I-10.314 J3.981
G1 X10.63 Y-48.845
G3 X10.8 Y-45.379 I-10.849 J2.268
G1 X10.798 Y-45.365
G3 X10.458 Y-43.58 I-11.274 J-1.226
G1 X10.453 Y-43.563
G3 X8.952 Y-40.269 I-11.028 J-3.036
G1 X8.948 Y-40.262
G3 X7.793 Y-38.795 I-9.715 J-6.456
G1 X7.787 Y-38.789
G3 X4.869 Y-36.496 I-8.641 J-7.997
G1 X4.858 Y-36.49
G3 X3.156 Y-35.711 I-5.802 J-10.432
G1 X1.865 Y-35.239
G2 X1.682 Y-35.173 I0.534 J1.758
G1 X1.501 Y-35.096
G2 X1.321 Y-35.008 I0.717 J1.692
G1 X1.14 Y-34.907
G2 X0.951 Y-34.785 I0.898 J1.603
G1 X0.754 Y-34.64
G2 X0.585 Y-34.499 I1.088 J1.481
G1 X0.442 Y-34.366
G2 X0.305 Y-34.223 I1.257 J1.34
G1 X0.175 Y-34.071
G2 X0.038 Y-33.891 I1.394 J1.198
G1 X-0.102 Y-33.68
G2 X-0.229 Y-33.456 I1.53 J1.017
G1 X-0.343 Y-33.217
X-0.351 Y-33.2
X-0.367 Y-33.24
G2 X-0.489 Y-33.49 I-1.708 J0.678
G1 X-0.628 Y-33.726
G2 X-0.786 Y-33.956 I-1.586 J0.929
G1 X-0.965 Y-34.176
G2 X-1.155 Y-34.377 I-1.427 J1.158
G1 X-1.355 Y-34.559
G2 X-1.566 Y-34.725 I-1.237 J1.359
G1 X-1.788 Y-34.873
G2 X-1.995 Y-34.994 I-1.025 J1.525
G1 X-2.186 Y-35.089
X-2.33 Y-35.153
X-2.425 Y-35.19
X-2.566 Y-35.24
X-4.765 Y-35.906
X-6.507 Y-36.748
X-8.063 Y-37.834
X-9.471 Y-39.187
X-10.621 Y-40.716
X-11.52 Y-42.411
X-12.152 Y-44.27
X-12.47 Y-46.12
X-12.497 Y-48.051
X-12.214 Y-49.979
X-11.626 Y-51.835
X-10.774 Y-53.54
X-9.674 Y-55.076
X-9.333 Y-55.427
X-8.308 Y-56.465
X-6.759 Y-57.602
X-5.046 Y-58.483
X-3.187 Y-59.088
X-1.299 Y-59.387
X0.618 Y-59.386
X2.495 Y-59.087
X4.349 Y-58.481
X6.076 Y-57.588
X7.627 Y-56.445
X8.944 Y-55.113
X10.086 Y-53.519
X10.926 Y-51.836
X11.514 Y-49.979
X11.797 Y-48.049
X11.775 Y-46.172
X11.452 Y-44.268
X10.82 Y-42.411
X9.933 Y-40.734
X8.767 Y-39.183
X7.373 Y-37.841
X5.808 Y-36.748
X4.085 Y-35.913
X1.865 Y-35.239
G3 X1.46 Y-35.489 I-0.092 J-0.304
G1 X-0.279 Y-45.467
X-0.281 Y-45.481
X-0.282 Y-45.496
Z-10.865 F100
X-0.283 Y-45.504 Z-10.964
X-0.285 Y-45.527 Z-11.061
X-0.288 Y-45.565 Z-11.153
X-0.292 Y-45.617 Z-11.238
X-0.298 Y-45.681 Z-11.314
X-0.304 Y-45.757 Z-11.379
X-0.311 Y-45.841 Z-11.431
X-0.318 Y-45.933 Z-11.469
X-0.326 Y-46.03 Z-11.492
X-0.334 Y-46.129 Z-11.5
X-0.4 Y-46.939 F500
G2 X-0.564 Y-47.122 I-0.202 J0.017
G3 X-0.908 Y-48.124 I0.118 J-0.601
G1 X-0.662 Y-48.407
G3 X1.069 Y-48.501 I0.911 J0.79
G1 X1.489 Y-48.112
G3 X1.961 Y-46.146 I-1.24 J1.337
G1 X1.658 Y-45.321
G3 X1.258 Y-44.728 I-1.406 J-0.516
G2 X0.784 Y-43.706 I0.97 J1.07
G1 X0.776 Y-43.458
G3 X-1.269 Y-42.746 I-1.16 J-0.039
G1 X-1.611 Y-43.149
G2 X-2.154 Y-43.626 I-1.895 J1.608
G1 X-2.844 Y-44.074
G3 X-3.526 Y-51.58 I2.607 J-4.021
X-2.862 Y-52.112 I3.61 J3.825
G1 X-2.849 Y-52.121
G3 X-2.076 Y-52.557 I3.06 J4.526
G1 X-2.065 Y-52.562
G3 X-0.353 Y-53.04 I2.342 J5.08
G1 X-0.336 Y-53.042
G3 X1.486 Y-52.959 I0.651 J5.74
G1 X1.505 Y-52.955
G3 X3.31 Y-52.264 I-1.218 J5.882
G1 X3.335 Y-52.249
G3 X4.875 Y-50.987 I-3.159 J5.424
X5.49 Y-50.168 I-4.792 J4.243
G1 X5.494 Y-50.163
G3 X5.975 Y-49.25 I-5.474 J3.467
X6.307 Y-48.269 I-5.981 J2.568
G1 X6.315 Y-48.235
G3 X6.502 Y-46.071 I-6.607 J1.661
X6.334 Y-44.984 I-6.931 J-0.513
G1 X6.284 Y-44.771
G3 X6.045 Y-44.039 I-4.5 J-1.065
X3.831 Y-41.031 I-7.38 J-3.112
G1 X3.768 Y-40.977
G2 X3.201 Y-40.462 I6.68 J7.914
G1 X2.32 Y-39.598
G3 X1.223 Y-38.668 I-7.029 J-7.176
G1 X0.839 Y-38.388
G2 X0.499 Y-38.1 I1.897 J2.591
G1 X0.451 Y-38.054
G2 X0.335 Y-37.93 I1.259 J1.297
G1 X0.279 Y-37.864
G3 X0.099 Y-37.697 I-0.806 J-0.687
G1 X0.004 Y-37.628
G3 X-0.896 Y-37.631 I-0.448 J-0.612
G2 X-2.924 Y-38.957 I-11.995 J16.126
G1 X-4.19 Y-39.68
G3 X2.846 Y-57.085 I4.698 J-8.226
X5.878 Y-55.77 I-2.561 J10.054
G1 X5.9 Y-55.755
G3 X8.411 Y-53.517 I-5.727 J8.949
X9.38 Y-52.113 I-8.35 J6.803
G1 X9.383 Y-52.108
G3 X10.125 Y-50.556 I-9.385 J5.438
X10.613 Y-48.903 I-10.136 J3.89
G1 X10.621 Y-48.865
G3 X10.459 Y-43.592 I-10.938 J2.303
G1 X10.4 Y-43.379
G3 X9.911 Y-42.034 I-8.645 J-2.382
G1 X9.854 Y-41.91
G3 X4.864 Y-36.505 I-10.738 J-4.907
G1 X4.855 Y-36.5
G3 X3.196 Y-35.737 I-5.732 J-10.285
G1 X2.863 Y-35.615
X1.943 Y-35.337
X1.797 Y-35.286
X1.553 Y-35.19
G2 X1.336 Y-35.087 I0.676 J1.709
G1 X1.145 Y-34.981
G2 X0.962 Y-34.865 I0.893 J1.606
G1 X0.788 Y-34.738
G2 X0.612 Y-34.594 I1.076 J1.49
G1 X0.437 Y-34.432
G2 X0.261 Y-34.243 I1.251 J1.345
G1 X0.086 Y-34.026
G2 X-0.053 Y-33.831 I1.428 J1.156
G1 X-0.158 Y-33.66
G2 X-0.262 Y-33.464 I1.566 J0.961
G1 X-0.348 Y-33.275
X-0.364 Y-33.31
X-0.38 Y-33.344
X-0.438 Y-33.466
G2 X-0.523 Y-33.625 I-1.659 J0.79
G1 X-0.639 Y-33.817
G2 X-0.781 Y-34.02 I-1.574 J0.949
G1 X-0.951 Y-34.232
G2 X-1.122 Y-34.416 I-1.431 J1.152
G1 X-1.289 Y-34.574
G2 X-1.457 Y-34.715 I-1.261 J1.336
G1 X-1.625 Y-34.839
G2 X-1.814 Y-34.962 I-1.093 J1.477
G1 X-2.025 Y-35.081
G2 X-2.248 Y-35.188 I-0.904 J1.6
G1 X-2.482 Y-35.281
X-2.63 Y-35.333
X-4.764 Y-35.979
X-6.457 Y-36.802
X-8.034 Y-37.899
X-8.092 Y-37.951
X-9.438 Y-39.257
X-10.583 Y-40.786
X-11.462 Y-42.451
X-11.476 Y-42.486
X-12.082 Y-44.269
X-12.405 Y-46.153
X-12.406 Y-46.178
X-12.427 Y-48.047
X-12.142 Y-49.98
X-11.575 Y-51.781
X-11.558 Y-51.817
X-10.703 Y-53.52
X-9.613 Y-55.041
X-9.546 Y-55.113
X-8.256 Y-56.417
X-6.716 Y-57.546
X-4.995 Y-58.427
X-3.169 Y-59.02
X-1.3 Y-59.318
X0.618 Y-59.316
X2.468 Y-59.021
X4.295 Y-58.427
X5.994 Y-57.557
X7.574 Y-56.399
X8.903 Y-55.055
X10.019 Y-53.496
X10.872 Y-51.789
X11.442 Y-49.98
X11.727 Y-48.047
X11.706 Y-46.175
X11.69 Y-46.064
X11.382 Y-44.27
X10.776 Y-42.488
X10.445 Y-41.85
X9.88 Y-40.781
X9.83 Y-40.711
X8.726 Y-39.241
X7.351 Y-37.911
X5.776 Y-36.811
X4.081 Y-35.988
X2.863 Y-35.615
G3 X2.464 Y-35.831 I-0.093 J-0.304
G1 X-0.309 Y-45.57
G3 X-0.321 Y-45.644 I0.305 J-0.087
G1 Z-12.865 F100
Y-45.652 Z-12.964
X-0.322 Y-45.675 Z-13.061
X-0.323 Y-45.713 Z-13.153
X-0.326 Y-45.765 Z-13.238
X-0.328 Y-45.83 Z-13.314
X-0.331 Y-45.906 Z-13.379
X-0.334 Y-45.991 Z-13.431
X-0.338 Y-46.083 Z-13.469
X-0.342 Y-46.179 Z-13.492
X-0.346 Y-46.279 Z-13.5
X-0.382 Y-47.196 F500
G3 X1.439 Y-47.874 I1.022 J-0.041
G1 X1.453 Y-47.857
G3 X1.741 Y-45.678 I-1.663 J1.328
X1.543 Y-45.311 I-2.316 J-1.01
G1 X1.501 Y-45.246
G3 X1.316 Y-44.996 I-2.239 J-1.456
G2 X0.979 Y-44.478 I2.047 J1.701
G1 X0.416 Y-43.343
G3 X-1.707 Y-43.026 I-1.172 J-0.582
G1 X-2.104 Y-43.445
G2 X-2.788 Y-43.961 I-1.872 J1.769
G3 X-3.142 Y-44.183 I1.196 J-2.302
G1 X-3.248 Y-44.262
G3 X-3.737 Y-44.689 I2.525 J-3.386
G1 X-3.744 Y-44.696
G3 X-4.186 Y-45.224 I3.108 J-3.051
G1 X-4.192 Y-45.231
G3 X-4.806 Y-46.471 I3.584 J-2.547
G1 X-4.812 Y-46.493
G3 X-5.022 Y-47.925 I4.425 J-1.378
G1 X-5.021 Y-47.94
G3 X-4.763 Y-49.443 I4.824 J0.056
X-4.434 Y-50.195 I4.684 J1.599
G1 X-4.428 Y-50.206
G3 X-3.451 Y-51.477 I4.417 J2.385
G1 X-3.434 Y-51.493
G3 X-2.059 Y-52.427 I3.602 J3.826
G1 X-2.046 Y-52.433
G3 X-0.349 Y-52.914 I2.326 J4.972
G1 X-0.335 Y-52.915
G3 X1.454 Y-52.836 I0.647 J5.615
G1 X1.476 Y-52.831
G3 X3.237 Y-52.162 I-1.197 J5.8
X4.034 Y-51.614 I-3.01 J5.227
G1 X4.046 Y-51.604
G3 X5.37 Y-50.114 I-3.916 J4.813
G1 X5.38 Y-50.098
G3 X6.177 Y-48.247 I-5.401 J3.425
G1 X6.183 Y-48.227
G3 X6.371 Y-46.137 I-6.434 J1.634
G1 X6.37 Y-46.12
G3 X5.867 Y-43.972 I-6.853 J-0.471
X5.359 Y-42.973 I-6.481 J-2.669
G1 X5.356 Y-42.968
G3 X4.694 Y-42.06 I-6.031 J-3.703
G1 X4.675 Y-42.037
G3 X3.888 Y-41.249 I-5.661 J-4.861
G1 X3.841 Y-41.209
G3 X2.971 Y-40.552 I-5.42 J-6.282
G1 X2.871 Y-40.487
G2 X1.947 Y-39.736 I3.216 J4.905
G1 X1.065 Y-38.857
G3 X-1.895 Y-38.473 I-1.731 J-1.736
G1 X-4.401 Y-39.925
G3 X-0.332 Y-57.268 I4.67 J-8.053
X2.798 Y-56.978 I0.649 J10.039
G1 X2.816 Y-56.974
G3 X5.805 Y-55.68 I-2.534 J9.957
G1 X5.81 Y-55.677
G3 X7.127 Y-54.683 I-5.611 J8.801
G1 X7.137 Y-54.674
G3 X9.272 Y-52.06 I-7.019 J7.91
G1 X9.28 Y-52.044
G3 X10.491 Y-48.898 I-9.32 J5.392
G1 X10.495 Y-48.878
G3 X10.675 Y-45.412 I-10.761 J2.296
G1 X10.673 Y-45.396
G3 X9.729 Y-41.939 I-11.176 J-1.195
G1 X9.726 Y-41.932
G3 X8.852 Y-40.354 I-10.382 J-4.72
X7.733 Y-38.925 I-9.551 J-6.322
G1 X7.725 Y-38.916
G3 X6.38 Y-37.667 I-8.546 J-7.856
G1 X6.37 Y-37.659
G3 X4.855 Y-36.641 I-7.299 J-9.229
G1 X4.606 Y-36.501
G3 X3.36 Y-35.927 I-4.103 J-7.269
G1 X1.873 Y-35.385
G2 X1.669 Y-35.31 I0.533 J1.759
G1 X1.435 Y-35.207
G2 X1.202 Y-35.085 I0.738 J1.683
G1 X0.973 Y-34.942
G2 X0.762 Y-34.79 I0.97 J1.561
G1 X0.571 Y-34.629
G2 X0.393 Y-34.459 I1.181 J1.408
G1 X0.229 Y-34.278
G2 X0.09 Y-34.106 I1.359 J1.237
G1 X-0.025 Y-33.944
G2 X-0.141 Y-33.759 I1.497 J1.065
G1 X-0.254 Y-33.552
G2 X-0.338 Y-33.377 I1.613 J0.88
G1 X-0.351 Y-33.345
X-0.383 Y-33.421
G2 X-0.5 Y-33.652 I-1.695 J0.71
G1 X-0.646 Y-33.897
G2 X-0.784 Y-34.098 I-1.579 J0.94
G1 X-0.91 Y-34.257
G2 X-1.064 Y-34.428 I-1.44 J1.141
G1 X-1.248 Y-34.608
G2 X-1.433 Y-34.767 I-1.286 J1.312
G1 X-1.616 Y-34.904
G2 X-1.822 Y-35.038 I-1.101 J1.471
G1 X-2.049 Y-35.165
G2 X-2.24 Y-35.257 I-0.896 J1.604
G1 X-2.391 Y-35.32
G2 X-2.558 Y-35.38 I-0.705 J1.697
G1 X-4.76 Y-36.054
X-6.454 Y-36.879
X-8 Y-37.962
X-9.365 Y-39.281
X-10.509 Y-40.801
X-11.405 Y-42.496
X-12.008 Y-44.27
X-12.335 Y-46.167
X-12.337 Y-46.19
X-12.357 Y-48.048
X-12.077 Y-49.955
X-11.51 Y-51.751
X-10.652 Y-53.471
X-9.528 Y-55.033
X-8.223 Y-56.351
X-8.14 Y-56.416
X-6.651 Y-57.502
X-5.006 Y-58.347
X-3.194 Y-58.943
X-3.084 Y-58.964
X-1.3 Y-59.248
X0.618 Y-59.245
X2.456 Y-58.952
X4.277 Y-58.36
X4.307 Y-58.346
X5.965 Y-57.495
X7.493 Y-56.377
X8.843 Y-55.017
X9.954 Y-53.469
X10.81 Y-51.752
X11.37 Y-49.977
X11.657 Y-48.073
X11.637 Y-46.2
X11.318 Y-44.305
X11.31 Y-44.276
X10.705 Y-42.495
X9.818 Y-40.814
X8.683 Y-39.299
X7.319 Y-37.976
X5.771 Y-36.89
X4.63 Y-36.33
X4.074 Y-36.06
X3.532 Y-35.888
X1.873 Y-35.385
G3 X1.469 Y-35.633 I-0.092 J-0.304
G1 X-0.335 Y-45.615
G3 X-0.34 Y-45.666 I0.312 J-0.056
G1 Z-14.865 F100
Y-45.674 Z-14.964
Y-45.697 Z-15.061
X-0.341 Y-45.735 Z-15.153
X-0.342 Y-45.787 Z-15.238
X-0.343 Y-45.852 Z-15.314
X-0.344 Y-45.928 Z-15.379
X-0.346 Y-46.013 Z-15.431
X-0.348 Y-46.105 Z-15.469
X-0.349 Y-46.202 Z-15.492
X-0.351 Y-46.301 Z-15.5
X-0.365 Y-47.065 F500
G2 X-0.484 Y-47.217 I-0.16 J0.003
G3 X-0.478 Y-48.341 I0.149 J-0.561
G1 X-0.035 Y-48.453
G3 X1.112 Y-48.179 I0.313 J1.229
G1 X1.216 Y-48.089
G3 X1.847 Y-46.095 I-1.324 J1.516
X1.72 Y-45.716 I-2.31 J-0.564
G1 X1.713 Y-45.699
G3 X1.519 Y-45.334 I-2.377 J-1.027
G1 X1.511 Y-45.321
G2 X0.173 Y-42.968 I22.438 J14.318
G1 X0.121 Y-42.865
G3 X-1.295 Y-42.65 I-0.784 J-0.395
G1 X-2.103 Y-43.486
G2 X-2.764 Y-43.981 I-1.847 J1.783
G3 X-3.134 Y-44.215 I1.193 J-2.292
G1 X-3.25 Y-44.303
G3 X-3.718 Y-44.715 I2.6 J-3.424
X-4.158 Y-45.24 I3.085 J-3.03
G1 X-4.163 Y-45.248
G3 X-4.779 Y-46.492 I3.587 J-2.55
G1 X-4.784 Y-46.507
G3 X-4.988 Y-47.917 I4.351 J-1.351
G1 Y-47.939
G3 X-4.421 Y-50.149 I4.829 J0.062
G1 X-4.416 Y-50.157
G3 X-3.425 Y-51.454 I4.434 J2.364
G1 X-3.411 Y-51.467
G3 X-2.055 Y-52.385 I3.527 J3.749
G1 X-2.022 Y-52.401
G3 X-0.341 Y-52.875 I2.309 J4.965
G1 X-0.335 Y-52.876
G3 X1.46 Y-52.796 I0.65 J5.633
G1 X1.467 Y-52.795
G3 X2.364 Y-52.533 I-1.179 J5.717
X3.213 Y-52.13 I-2.084 J5.484
G1 X3.225 Y-52.123
G3 X4.017 Y-51.577 I-3.016 J5.222
X4.718 Y-50.907 I-3.833 J4.713
G1 X4.728 Y-50.896
G3 X5.335 Y-50.095 I-4.678 J4.171
X5.807 Y-49.204 I-5.306 J3.387
G1 X5.815 Y-49.187
G3 X6.317 Y-47.205 I-5.902 J2.55
G1 X6.318 Y-47.195
G3 X6.168 Y-45.061 I-6.763 J0.599
G1 X6.093 Y-44.735
G3 X5.96 Y-44.317 I-2.65 J-0.615
G1 X5.853 Y-44.059
G3 X3.823 Y-41.259 I-6.783 J-2.783
G1 X1.178 Y-38.978
G2 X0.374 Y-38.163 I4.731 J5.473
G3 X-1.182 Y-38.021 I-0.85 J-0.715
G1 X-1.41 Y-38.207
G2 X-1.76 Y-38.442 I-2.018 J2.627
G1 X-4.385 Y-39.971
G3 X-0.329 Y-57.206 I4.659 J-7.998
X2.803 Y-56.916 I0.653 J10.008
X4.348 Y-56.387 I-2.507 J9.847
X5.77 Y-55.63 I-4.06 J9.343
G1 X5.785 Y-55.621
G3 X7.099 Y-54.626 I-5.597 J8.765
X8.24 Y-53.438 I-6.927 J7.791
G1 X8.25 Y-53.426
G3 X9.212 Y-52.038 I-8.218 J6.726
X9.943 Y-50.513 I-9.207 J5.356
G1 X9.949 Y-50.499
G3 X10.658 Y-47.157 I-10.083 J3.886
G1 X10.659 Y-47.146
G3 X10.61 Y-45.41 I-11.044 J0.556
G1 X10.609 Y-45.4
G3 X10.289 Y-43.691 I-11.12 J-1.193
G1 X10.141 Y-43.142
G3 X9.891 Y-42.452 I-4.524 J-1.253
X2.68 Y-35.755 I-11.625 J-5.285
G1 X1.84 Y-35.445
G2 X1.601 Y-35.353 I0.538 J1.757
G1 X1.347 Y-35.234
G2 X1.15 Y-35.128 I0.777 J1.665
G1 X1.009 Y-35.04
G2 X0.844 Y-34.923 I0.973 J1.559
G1 X0.657 Y-34.776
G2 X0.47 Y-34.606 I1.138 J1.442
G1 X0.283 Y-34.411
G2 X0.128 Y-34.227 I1.326 J1.272
G1 X0.003 Y-34.056
G2 X-0.124 Y-33.858 I1.481 J1.088
G1 X-0.249 Y-33.633
G2 X-0.352 Y-33.414 I1.608 J0.89
G1 X-0.39 Y-33.506
G2 X-0.493 Y-33.714 I-1.695 J0.708
G1 X-0.591 Y-33.885
G2 X-0.703 Y-34.056 I-1.593 J0.916
G1 X-0.828 Y-34.227
G2 X-0.983 Y-34.411 I-1.481 J1.088
G1 X-1.17 Y-34.606
G2 X-1.357 Y-34.776 I-1.326 J1.272
G1 X-1.544 Y-34.923
G2 X-1.74 Y-35.059 I-1.138 J1.442
G1 X-1.945 Y-35.181
G2 X-2.134 Y-35.28 I-0.942 J1.578
G1 X-2.304 Y-35.356
G2 X-2.518 Y-35.437 I-0.754 J1.676
G1 X-4.733 Y-36.117
X-6.432 Y-36.946
X-7.966 Y-38.024
X-9.321 Y-39.336
X-9.413 Y-39.453
X-10.46 Y-40.853
X-11.337 Y-42.517
X-11.381 Y-42.636
X-11.951 Y-44.323
X-12.268 Y-46.199
X-12.286 Y-48.047
X-12.008 Y-49.946
X-11.437 Y-51.749
X-10.602 Y-53.417
X-9.491 Y-54.971
X-8.148 Y-56.324
X-6.62 Y-57.44
X-4.981 Y-58.281
X-3.134 Y-58.885
X-1.3 Y-59.178
X0.617 Y-59.175
X2.455 Y-58.882
X4.248 Y-58.296
X4.286 Y-58.279
X5.935 Y-57.432
X7.462 Y-56.314
X8.784 Y-54.978
X9.891 Y-53.438
X10.737 Y-51.749
X11.299 Y-49.972
X11.462 Y-48.926
X11.586 Y-48.051
X11.568 Y-46.199
X11.256 Y-44.348
X10.789 Y-42.951
X10.654 Y-42.555
X10.592 Y-42.429
X9.77 Y-40.867
X8.635 Y-39.35
X7.276 Y-38.031
X5.75 Y-36.959
X5.624 Y-36.893
X4.042 Y-36.121
X4.008 Y-36.109
X1.84 Y-35.445
G3 X1.434 Y-35.693 I-0.093 J-0.304
G1 X-0.336 Y-45.621
G3 X-0.341 Y-45.671 I0.313 J-0.056
G1 Z-16.865 F100
Y-45.679 Z-16.964
X-0.342 Y-45.702 Z-17.061
Y-45.741 Z-17.153
X-0.343 Y-45.793 Z-17.238
X-0.344 Y-45.857 Z-17.314
X-0.345 Y-45.933 Z-17.379
X-0.347 Y-46.018 Z-17.431
X-0.348 Y-46.11 Z-17.469
X-0.35 Y-46.207 Z-17.492
X-0.351 Y-46.306 Z-17.5
X-0.364 Y-47.093 F500
G3 X1.559 Y-47.611 I1.027 J-0.016
X1.305 Y-45.166 I-1.86 J1.042
G1 X1.183 Y-45.026
G2 X0.461 Y-43.867 I3.207 J2.802
G1 X0.017 Y-42.806
G3 X-1.189 Y-42.578 I-0.678 J-0.283
G1 X-2.097 Y-43.517
G2 X-2.753 Y-44.008 I-1.848 J1.787
G1 X-2.77 Y-44.017
G3 X-3.131 Y-44.244 I1.253 J-2.396
G1 X-3.221 Y-44.31
G3 X-3.706 Y-44.734 I2.458 J-3.303
G1 X-3.714 Y-44.742
G3 X-4.144 Y-45.257 I3.049 J-2.985
X-4.497 Y-45.847 I3.521 J-2.504
G1 X-4.501 Y-45.855
G3 X-4.76 Y-46.503 I3.975 J-1.965
X-4.918 Y-47.204 I4.291 J-1.34
G1 X-4.923 Y-47.234
G3 X-4.9 Y-48.654 I4.464 J-0.64
G1 X-4.895 Y-48.685
G3 X-3.961 Y-50.831 I4.911 J0.861
G1 X-3.856 Y-50.97
G3 X-3.514 Y-51.348 I2.314 J1.749
G1 X-3.496 Y-51.364
G3 X2.348 Y-52.5 I3.837 J4.139
X3.989 Y-51.554 I-2.119 J5.568
X4.678 Y-50.896 I-3.793 J4.665
G1 X4.691 Y-50.881
G3 X5.761 Y-49.209 I-4.64 J4.148
G1 X5.77 Y-49.189
G3 X6.278 Y-47.19 I-5.938 J2.574
G1 X6.279 Y-47.184
G3 X6.289 Y-46.131 I-6.575 J0.587
X6.129 Y-45.079 I-6.622 J-0.465
G1 X6.123 Y-45.055
G3 X5.295 Y-43.038 I-6.708 J-1.576
G1 X5.292 Y-43.032
G3 X4.65 Y-42.145 I-6.004 J-3.668
G1 X4.642 Y-42.135
G3 X3.812 Y-41.307 I-5.483 J-4.658
G1 X1.201 Y-39.05
G2 X0.362 Y-38.201 I5.073 J5.849
G3 X-1.183 Y-38.07 I-0.838 J-0.709
G1 X-1.382 Y-38.232
G2 X-1.778 Y-38.5 I-2.295 J2.974
G1 X-4.826 Y-40.29
G3 X-6.999 Y-53.867 I4.657 J-7.708
G1 X-6.818 Y-54.078
G3 X-6.149 Y-54.739 I4.371 J3.756
X8.19 Y-53.401 I6.508 J7.762
X9.871 Y-50.523 I-8.173 J6.704
G1 X9.878 Y-50.505
G3 X10.594 Y-47.154 I-10.04 J3.898
G1 X10.595 Y-47.144
G3 X10.546 Y-45.411 I-10.941 J0.556
X10.219 Y-43.691 I-10.9 J-1.177
G1 X10.212 Y-43.665
G3 X9.612 Y-41.999 I-10.894 J-2.984
G1 X9.434 Y-41.606
G3 X9.002 Y-40.822 I-5.119 J-2.313
X2.722 Y-35.843 I-10.743 J-7.099
G1 X1.838 Y-35.516
G2 X1.601 Y-35.425 I0.54 J1.756
G1 X1.347 Y-35.306
G2 X1.139 Y-35.193 I0.777 J1.665
G1 X0.978 Y-35.09
G2 X0.812 Y-34.972 I0.984 J1.552
G1 X0.644 Y-34.837
G2 X0.475 Y-34.684 I1.149 J1.434
G1 X0.308 Y-34.511
G2 X0.162 Y-34.341 I1.318 J1.28
G1 X0.035 Y-34.174
G2 X-0.077 Y-34.007 I1.464 J1.11
G1 X-0.177 Y-33.84
G2 X-0.27 Y-33.664 I1.577 J0.943
G1 X-0.349 Y-33.491
G2 X-0.419 Y-33.643 I-1.702 J0.693
G1 X-0.508 Y-33.813
G2 X-0.609 Y-33.985 I-1.632 J0.845
G1 X-0.722 Y-34.155
G2 X-0.851 Y-34.327 I-1.531 J1.016
G1 X-0.995 Y-34.498
G2 X-1.161 Y-34.669 I-1.402 J1.187
G1 X-1.349 Y-34.84
G2 X-1.552 Y-35 I-1.237 J1.359
G1 X-1.769 Y-35.148
G2 X-2.005 Y-35.284 I-1.034 J1.519
G1 X-2.26 Y-35.407
G2 X-2.516 Y-35.508 I-0.797 J1.655
G1 X-4.72 Y-36.187
X-6.394 Y-37.007
X-6.463 Y-37.052
X-7.924 Y-38.081
X-8.238 Y-38.378
X-9.294 Y-39.41
X-10.413 Y-40.908
X-11.286 Y-42.57
X-11.886 Y-44.351
X-12.199 Y-46.199
X-12.216 Y-48.051
X-12.091 Y-48.93
X-11.942 Y-49.915
X-11.909 Y-50.031
X-11.361 Y-51.747
X-10.53 Y-53.404
X-9.444 Y-54.917
X-9.397 Y-54.969
X-8.134 Y-56.243
X-7.654 Y-56.601
X-6.591 Y-57.377
X-4.929 Y-58.23
X-3.135 Y-58.815
X-1.3 Y-59.107
X0.617 Y-59.104
X2.454 Y-58.81
X4.217 Y-58.233
X5.906 Y-57.368
X7.414 Y-56.263
X8.721 Y-54.943
X9.824 Y-53.413
X10.661 Y-51.746
X11.237 Y-49.94
X11.242 Y-49.913
X11.516 Y-48.079
X11.499 Y-46.199
X11.186 Y-44.352
X10.576 Y-42.552
X9.72 Y-40.92
X9.685 Y-40.87
X8.597 Y-39.413
X7.244 Y-38.095
X5.709 Y-37.014
X4.032 Y-36.193
X3.997 Y-36.18
X1.838 Y-35.516
G3 X1.432 Y-35.764 I-0.093 J-0.303
G1 X-0.312 Y-45.632
X-0.314 Y-45.644
X-0.315 Y-45.657
X-0.316 Y-45.669
Z-18.865 F100
Y-45.677 Z-18.964
X-0.318 Y-45.7 Z-19.061
X-0.32 Y-45.738 Z-19.153
X-0.323 Y-45.79 Z-19.238
X-0.326 Y-45.855 Z-19.314
X-0.331 Y-45.931 Z-19.379
X-0.335 Y-46.015 Z-19.431
X-0.34 Y-46.107 Z-19.469
X-0.346 Y-46.204 Z-19.492
X-0.351 Y-46.303 Z-19.5
X-0.397 Y-47.123 F500
G2 X-0.495 Y-47.216 I-0.098 J0.005
G3 X-0.801 Y-47.514 I-0.005 J-0.301
G1 X-0.806 Y-47.896
G3 X-0.761 Y-48.067 I0.333 J-0.004
X1.098 Y-48.214 I0.981 J0.567
G1 X1.463 Y-47.765
G3 X1.825 Y-46.17 I-1.432 J1.163
G1 X1.812 Y-46.115
G3 X1.387 Y-45.299 I-1.852 J-0.446
G1 X1.174 Y-45.058
G2 X0.459 Y-43.908 I3.037 J2.686
G1 X0.073 Y-42.966
G3 X-1.296 Y-42.702 I-0.771 J-0.316
G1 X-2.111 Y-43.541
G2 X-2.686 Y-43.989 I-1.894 J1.84
G1 X-2.771 Y-44.038
G3 X-3.096 Y-44.252 I1.684 J-2.918
G1 X-3.16 Y-44.299
G3 X-4.882 Y-47.189 I2.61 J-3.512
G1 X-4.885 Y-47.215
G3 X-4.864 Y-48.68 I4.629 J-0.665
X-4.675 Y-49.417 I4.689 J0.811
X-4.364 Y-50.128 I4.532 J1.556
G1 X-4.358 Y-50.139
G3 X-3.932 Y-50.8 I4.361 J2.342
X-3.392 Y-51.401 I3.972 J3.027
G1 X-3.388 Y-51.406
G3 X-2.751 Y-51.918 I3.485 J3.684
G1 X-2.739 Y-51.925
G3 X-1.224 Y-52.632 I2.945 J4.339
G1 X-1.203 Y-52.638
G3 X0.537 Y-52.839 I1.492 J5.265
G1 X0.554
G3 X2.333 Y-52.468 I-0.258 J5.687
G1 X2.347 Y-52.462
G3 X3.941 Y-51.541 I-2.089 J5.453
G1 X3.959 Y-51.526
G3 X5.264 Y-50.063 I-3.882 J4.777
X5.726 Y-49.194 I-5.225 J3.338
G1 X5.731 Y-49.184
G3 X6.058 Y-48.231 I-5.822 J2.528
G1 X6.06 Y-48.222
G3 X6.237 Y-47.186 I-6.255 J1.602
G1 X6.238 Y-47.174
G3 X6.247 Y-46.135 I-6.579 J0.579
X6.091 Y-45.097 I-6.597 J-0.46
G1 X6.09 Y-45.089
G3 X5.771 Y-44.084 I-6.541 J-1.521
G1 X5.761 Y-44.061
G3 X4.64 Y-42.197 I-6.478 J-2.63
G1 X4.631 Y-42.187
G3 X3.775 Y-41.326 I-5.526 J-4.636
G1 X1.291 Y-39.176
G3 X-2.283 Y-38.842 I-2.02 J-2.326
G1 X-4.07 Y-39.885
G3 X4.256 Y-56.295 I4.646 J-7.96
G1 X4.306 Y-56.273
G3 X6.977 Y-54.572 I-4.058 J9.318
G1 X6.991 Y-54.559
G3 X9.096 Y-51.993 I-6.885 J7.793
G1 X9.099 Y-51.988
G3 X9.816 Y-50.495 I-9.108 J5.296
G1 X9.82 Y-50.485
G3 X10.302 Y-48.873 I-9.952 J3.852
G1 X10.304 Y-48.865
G3 X10.53 Y-47.144 I-10.536 J2.262
G1 X10.531 Y-47.133
G3 X10.164 Y-43.728 I-10.896 J0.548
G1 X10.162 Y-43.721
G3 X9.581 Y-42.097 I-10.621 J-2.882
G1 X9.57 Y-42.073
G3 X7.629 Y-39.111 I-10.248 J-4.599
G1 X7.619 Y-39.101
G3 X4.766 Y-36.828 I-8.478 J-7.717
G1 X4.761 Y-36.825
G3 X3.103 Y-36.057 I-5.697 J-10.118
G1 X1.836 Y-35.586
G2 X1.601 Y-35.496 I0.542 J1.756
G1 X1.347 Y-35.377
G2 X1.117 Y-35.25 I0.777 J1.665
G1 X0.914 Y-35.116
G2 X0.712 Y-34.964 I1.006 J1.538
G1 X0.515 Y-34.792
G2 X0.351 Y-34.63 I1.207 J1.385
G1 X0.218 Y-34.481
G2 X0.073 Y-34.296 I1.371 J1.223
G1 X-0.08 Y-34.073
G2 X-0.214 Y-33.842 I1.516 J1.038
G1 X-0.33 Y-33.605
X-0.341 Y-33.583
X-0.351 Y-33.56
X-0.379 Y-33.627
G2 X-0.492 Y-33.852 I-1.696 J0.707
G1 X-0.633 Y-34.092
G2 X-0.769 Y-34.292 I-1.584 J0.932
G1 X-0.894 Y-34.452
G2 X-1.036 Y-34.613 I-1.448 J1.131
G1 X-1.195 Y-34.774
G2 X-1.33 Y-34.897 I-1.306 J1.292
G1 X-1.438 Y-34.987
G2 X-1.588 Y-35.098 I-1.171 J1.416
G1 X-1.782 Y-35.228
G2 X-2.005 Y-35.356 I-1.021 J1.528
G1 X-2.26 Y-35.478
G2 X-2.514 Y-35.578 I-0.797 J1.655
G1 X-4.681 Y-36.249
X-5.213 Y-36.501
X-6.363 Y-37.069
X-7.769 Y-38.056
X-7.911 Y-38.158
X-9.244 Y-39.457
X-10.36 Y-40.954
X-11.215 Y-42.586
X-11.821 Y-44.376
X-12.128 Y-46.199
X-12.146 Y-48.062
X-12.121 Y-48.258
X-11.872 Y-49.91
X-11.831 Y-50.047
X-11.305 Y-51.705
X-10.471 Y-53.368
X-9.39 Y-54.872
X-9.341 Y-54.927
X-8.066 Y-56.213
X-6.561 Y-57.314
X-4.896 Y-58.167
X-3.135 Y-58.743
X-1.274 Y-59.04
X0.588 Y-59.038
X2.452 Y-58.737
X4.214 Y-58.159
X5.875 Y-57.304
X7.344 Y-56.229
X8.671 Y-54.896
X8.716 Y-54.837
X9.77 Y-53.368
X10.602 Y-51.711
X11.165 Y-49.94
X11.447 Y-48.081
X11.428 Y-46.199
X11.121 Y-44.379
X10.534 Y-42.632
X9.659 Y-40.952
X8.559 Y-39.477
X7.209 Y-38.156
X5.688 Y-37.083
X5.674 Y-37.075
X4.009 Y-36.258
X1.836 Y-35.586
G3 X1.429 Y-35.835 I-0.094 J-0.303
G1 X-0.291 Y-45.672
Z-20.865 F100
X-0.292 Y-45.68 Z-20.964
X-0.294 Y-45.703 Z-21.061
X-0.298 Y-45.741 Z-21.153
X-0.302 Y-45.793 Z-21.238
X-0.309 Y-45.857 Z-21.314
X-0.316 Y-45.933 Z-21.379
X-0.324 Y-46.017 Z-21.431
X-0.333 Y-46.109 Z-21.469
X-0.342 Y-46.206 Z-21.492
X-0.351 Y-46.304 Z-21.5
X-0.429 Y-47.112 F500
G2 X-0.521 Y-47.22 I-0.123 J0.012
G3 X-0.666 Y-48.163 I0.127 J-0.502
G1 X-0.384 Y-48.337
G3 X0.358 Y-48.44 I0.488 J0.792
G1 X0.717 Y-48.338
G3 X1.665 Y-47.292 I-0.365 J1.284
G1 X1.752 Y-46.811
G3 X1.489 Y-45.383 I-2.024 J0.366
G1 X1.428 Y-45.281
G3 X1.28 Y-45.074 I-1.356 J-0.818
G2 X0.908 Y-44.51 I2.13 J1.806
G1 X0.172 Y-43.028
G3 X-1.361 Y-42.786 I-0.853 J-0.424
G1 X-2.134 Y-43.575
G2 X-2.649 Y-43.988 I-1.942 J1.9
G1 X-2.781 Y-44.069
G3 X-3.082 Y-44.274 I2.102 J-3.406
G1 X-3.134 Y-44.313
G3 X-4.905 Y-47.927 I2.659 J-3.544
X-4.641 Y-49.419 I4.768 J0.075
G1 X-4.638 Y-49.426
G3 X-3.915 Y-50.778 I4.644 J1.616
G1 X-3.822 Y-50.901
G3 X-3.415 Y-51.349 I2.705 J2.048
G1 X-3.411 Y-51.353
G3 X1.432 Y-52.696 I3.732 J4.052
X2.305 Y-52.442 I-1.147 J5.565
G1 X2.316 Y-52.438
G3 X3.157 Y-52.038 I-2.07 J5.445
X3.929 Y-51.506 I-2.922 J5.068
G1 X3.942 Y-51.496
G3 X5.204 Y-50.083 I-3.803 J4.67
G1 X5.226 Y-50.049
G3 X6.021 Y-48.224 I-5.235 J3.367
X6.054 Y-45.118 I-6.338 J1.62
G1 X6.048 Y-45.092
G3 X5.233 Y-43.097 I-6.635 J-1.548
G1 X5.229 Y-43.091
G3 X4.612 Y-42.233 I-5.957 J-3.626
G1 X4.592 Y-42.208
G3 X3.705 Y-41.32 I-5.56 J-4.669
G1 X1.202 Y-39.151
G2 X0.371 Y-38.311 I5.241 J6.019
G3 X-1.195 Y-38.18 I-0.849 J-0.724
G1 X-1.284 Y-38.255
X-1.313 Y-38.279
X-1.342 Y-38.302
X-1.372 Y-38.325
X-1.388 Y-38.338
G2 X-1.779 Y-38.601 I-2.229 J2.897
G1 X-4.296 Y-40.065
G3 X-4.751 Y-40.34 I7.535 J-12.951
G1 X-4.92 Y-40.447
G3 X-6.924 Y-53.782 I4.747 J-7.531
G1 X-6.821 Y-53.901
G3 X-5.963 Y-54.748 I5.567 J4.786
X2.808 Y-56.736 I6.327 J7.569
G1 X3.18 Y-56.641
G3 X3.858 Y-56.409 I-1.117 J4.367
G1 X4.166 Y-56.275
G3 X10.243 Y-48.852 I-4.176 J9.618
X10.421 Y-45.448 I-10.546 J2.257
X10.103 Y-43.758 I-10.749 J-1.148
G1 X10.095 Y-43.729
G3 X7.598 Y-39.177 I-10.712 J-2.914
G1 X7.572 Y-39.149
G3 X4.758 Y-36.903 I-8.388 J-7.624
G1 X4.748 Y-36.897
G3 X3.076 Y-36.12 I-5.751 J-10.184
G1 X1.834 Y-35.658
G2 X1.601 Y-35.568 I0.544 J1.755
G1 X1.347 Y-35.449
G2 X1.138 Y-35.335 I0.777 J1.665
G1 X0.975 Y-35.231
G2 X0.815 Y-35.117 I0.985 J1.551
G1 X0.658 Y-34.992
G2 X0.509 Y-34.86 I1.145 J1.437
G1 X0.368 Y-34.72
G2 X0.219 Y-34.553 I1.294 J1.304
G1 X0.065 Y-34.357
G2 X-0.052 Y-34.191 I1.443 J1.137
G1 X-0.133 Y-34.06
G2 X-0.227 Y-33.89 I1.559 J0.972
G1 X-0.329 Y-33.68
X-0.34 Y-33.658
X-0.35 Y-33.636
X-0.403 Y-33.749
X-0.512 Y-33.963
G2 X-0.641 Y-34.177 I-1.636 J0.837
G1 X-0.79 Y-34.391
G2 X-0.931 Y-34.567 I-1.507 J1.052
G1 X-1.059 Y-34.71
G2 X-1.196 Y-34.847 I-1.366 J1.229
G1 X-1.342 Y-34.979
G2 X-1.53 Y-35.127 I-1.229 J1.366
G1 X-1.762 Y-35.286
G2 X-2.005 Y-35.427 I-1.041 J1.514
G1 X-2.26 Y-35.55
G2 X-2.513 Y-35.65 I-0.797 J1.655
G1 X-4.676 Y-36.321
X-5.308 Y-36.626
X-6.351 Y-37.143
X-7.89 Y-38.235
X-9.211 Y-39.528
X-10.298 Y-40.989
X-10.324 Y-41.034
X-11.158 Y-42.63
X-11.18 Y-42.685
X-11.758 Y-44.421
X-12.057 Y-46.202
X-12.07 Y-47.166
X-12.076 Y-48.06
X-12.051 Y-48.257
X-11.794 Y-49.932
X-11.236 Y-51.687
X-10.388 Y-53.365
X-9.328 Y-54.839
X-8.037 Y-56.142
X-7.421 Y-56.599
X-6.508 Y-57.263
X-4.895 Y-58.09
X-3.131 Y-58.67
X-1.295 Y-58.967
X0.572 Y-58.97
X0.597 Y-58.967
X2.391 Y-58.681
X2.507 Y-58.646
X4.152 Y-58.108
X4.276 Y-58.049
X5.826 Y-57.252
X7.301 Y-56.174
X7.393 Y-56.086
X8.628 Y-54.839
X9.688 Y-53.365
X10.526 Y-51.707
X10.855 Y-50.689
X11.101 Y-49.904
X11.376 Y-48.083
X11.361 Y-46.237
X11.358 Y-46.211
X11.056 Y-44.407
X10.456 Y-42.626
X9.606 Y-40.999
X8.513 Y-39.531
X7.192 Y-38.236
X6.461 Y-37.712
X5.661 Y-37.148
X3.989 Y-36.326
X1.834 Y-35.658
G3 X1.427 Y-35.906 I-0.094 J-0.303
G1 X-0.282 Y-45.669
Z-22.865 F100
X-0.283 Y-45.676 Z-22.964
X-0.285 Y-45.699 Z-23.061
X-0.289 Y-45.737 Z-23.153
X-0.295 Y-45.789 Z-23.238
X-0.302 Y-45.853 Z-23.314
X-0.311 Y-45.929 Z-23.379
X-0.32 Y-46.013 Z-23.431
X-0.331 Y-46.105 Z-23.469
X-0.341 Y-46.201 Z-23.492
X-0.352 Y-46.3 Z-23.5
X-0.455 Y-47.213 F500
G3 X1.167 Y-48.062 I0.976 J-0.109
G1 X1.172 Y-48.058
G3 X1.783 Y-46.136 I-1.281 J1.466
X1.661 Y-45.768 I-2.243 J-0.54
G1 X1.655 Y-45.754
G3 X1.463 Y-45.392 I-2.288 J-0.98
G1 X1.459 Y-45.385
G2 X0.276 Y-43.274 I17.394 J11.138
G1 X0.263 Y-43.248
G3 X-1.501 Y-42.977 I-0.976 J-0.474
G1 X-2.08 Y-43.589
G2 X-2.723 Y-44.076 I-1.789 J1.692
G3 X-3.062 Y-44.291 I1.153 J-2.195
G1 X-3.178 Y-44.379
G3 X-4.079 Y-45.311 I2.504 J-3.321
G1 X-4.083 Y-45.317
G3 X-4.677 Y-46.529 I3.551 J-2.492
X-4.831 Y-47.213 I4.214 J-1.305
G1 X-4.832 Y-47.223
G3 X-4.877 Y-47.935 I4.489 J-0.639
X-4.808 Y-48.655 I4.58 J0.07
G1 X-4.806 Y-48.668
G3 X-4.316 Y-50.084 I4.642 J0.813
G1 X-4.307 Y-50.101
G3 X-2.723 Y-51.854 I4.339 J2.329
G1 X-2.696 Y-51.872
G3 X-0.374 Y-52.735 I2.939 J4.355
G1 X-0.35 Y-52.738
G3 X1.404 Y-52.664 I0.649 J5.492
X2.293 Y-52.407 I-1.13 J5.558
G1 X2.302 Y-52.403
G3 X3.134 Y-52.007 I-2.061 J5.409
G1 X3.139 Y-52.005
G3 X3.906 Y-51.476 I-2.927 J5.073
X4.59 Y-50.823 I-3.704 J4.558
G1 X4.61 Y-50.801
G3 X5.658 Y-49.156 I-4.582 J4.077
G1 X5.662 Y-49.146
G3 X6.156 Y-47.203 I-5.82 J2.515
G1 X6.157 Y-47.194
G3 X6.169 Y-46.17 I-6.459 J0.585
G1 X6.168 Y-46.163
G3 X6.015 Y-45.131 I-6.562 J-0.445
G1 X6.013 Y-45.118
G3 X5.69 Y-44.098 I-6.57 J-1.514
G1 X5.584 Y-43.836
G3 X5.338 Y-43.35 I-3.054 J-1.239
X3.549 Y-41.258 I-7.514 J-4.615
G1 X1.197 Y-39.197
G2 X0.377 Y-38.363 I5.338 J6.074
G3 X-1.202 Y-38.231 I-0.856 J-0.728
G1 X-1.288 Y-38.303
X-1.318 Y-38.328
X-1.349 Y-38.352
X-1.38 Y-38.376
X-1.396 Y-38.389
G2 X-1.777 Y-38.647 I-2.298 J2.98
G1 X-4.261 Y-40.118
G3 X-0.276 Y-56.983 I4.624 J-7.811
G1 X0.11 Y-57.01
G3 X0.754 Y-57.003 I0.277 J3.924
G1 X0.919 Y-56.987
G3 X10.407 Y-47.115 I-0.978 J10.435
G1 X10.433 Y-46.625
G3 X10.417 Y-45.999 I-3.911 J0.211
X2.706 Y-36.055 I-11.905 J-1.27
G1 X1.831 Y-35.728
G2 X1.601 Y-35.639 I0.547 J1.754
G1 X1.347 Y-35.52
G2 X1.13 Y-35.401 I0.777 J1.665
G1 X0.949 Y-35.285
G2 X0.763 Y-35.148 I0.994 J1.546
G1 X0.573 Y-34.988
G2 X0.432 Y-34.857 I1.18 J1.409
G1 X0.336 Y-34.758
X0.242 Y-34.653
X0.148 Y-34.539
G2 X0.025 Y-34.372 I1.416 J1.171
G1 X-0.123 Y-34.145
G2 X-0.25 Y-33.917 I1.539 J1.004
G1 X-0.351 Y-33.7
X-0.419 Y-33.854
G2 X-0.505 Y-34.024 I-1.679 J0.747
G1 X-0.577 Y-34.148
G2 X-0.678 Y-34.305 I-1.593 J0.916
G1 X-0.813 Y-34.492
G2 X-0.952 Y-34.664 I-1.491 J1.074
G1 X-1.096 Y-34.819
G2 X-1.257 Y-34.975 I-1.352 J1.245
G1 X-1.438 Y-35.128
G2 X-1.616 Y-35.262 I-1.19 J1.4
G1 X-1.791 Y-35.377
G2 X-2.005 Y-35.499 I-1.012 J1.534
G1 X-2.26 Y-35.621
G2 X-2.511 Y-35.72 I-0.797 J1.655
G1 X-4.667 Y-36.392
X-6.333 Y-37.213
X-7.819 Y-38.265
X-9.137 Y-39.549
X-9.512 Y-40.046
X-10.261 Y-41.062
X-11.111 Y-42.698
X-11.69 Y-44.432
X-11.993 Y-46.243
X-12.006 Y-48.08
X-12.004 Y-48.107
X-11.732 Y-49.899
X-11.174 Y-51.654
X-10.356 Y-53.283
X-9.266 Y-54.805
X-7.969 Y-56.112
X-6.49 Y-57.193
X-4.813 Y-58.048
X-3.098 Y-58.609
X-3.07 Y-58.614
X-1.297 Y-58.896
X0.552 Y-58.9
X0.746 Y-58.873
X2.372 Y-58.614
X4.133 Y-58.042
X5.789 Y-57.194
X7.274 Y-56.107
X8.557 Y-54.815
X8.597 Y-54.763
X9.656 Y-53.283
X10.473 Y-51.658
X11.033 Y-49.889
X11.306 Y-48.085
X11.293 Y-46.264
X11.263 Y-46.067
X10.99 Y-44.432
X10.408 Y-42.688
X10.393 Y-42.656
X9.564 Y-41.068
X9.312 Y-40.721
X8.436 Y-39.549
X7.124 Y-38.268
X5.642 Y-37.219
X3.986 Y-36.4
X1.831 Y-35.728
G3 X1.425 Y-35.974 I-0.094 J-0.303
G1 X-0.333 Y-45.611
G3 X-0.338 Y-45.66 I0.312 J-0.057
G1 Z-24.865 F100
Y-45.668 Z-24.964
X-0.339 Y-45.692 Z-25.061
X-0.34 Y-45.73 Z-25.153
X-0.341 Y-45.782 Z-25.238
X-0.343 Y-45.846 Z-25.314
X-0.345 Y-45.922 Z-25.379
X-0.347 Y-46.007 Z-25.431
X-0.349 Y-46.099 Z-25.469
X-0.351 Y-46.196 Z-25.492
X-0.354 Y-46.295 Z-25.5
X-0.373 Y-47.103 F500
G3 X1.493 Y-47.622 I0.998 J-0.024
G1 X1.503 Y-47.603
G3 X1.444 Y-45.397 I-1.848 J1.054
G1 X1.384 Y-45.305
G2 X0.388 Y-43.533 I14.15 J9.115
G3 X-1.708 Y-43.216 I-1.157 J-0.561
G1 X-2.074 Y-43.608
G2 X-2.725 Y-44.105 I-1.801 J1.682
G3 X-3.053 Y-44.312 I1.159 J-2.195
G1 X-3.155 Y-44.389
G3 X-4.06 Y-45.323 I2.452 J-3.278
G1 X-4.07 Y-45.339
G3 X-4.646 Y-46.53 I3.417 J-2.386
G1 X-4.654 Y-46.559
G3 X-4.778 Y-48.652 I4.377 J-1.31
X-4.593 Y-49.373 I4.602 J0.798
G1 X-4.591 Y-49.378
G3 X-4.282 Y-50.085 I4.477 J1.539
G1 X-4.278 Y-50.092
G3 X-3.852 Y-50.749 I4.251 J2.291
G1 X-3.847 Y-50.755
G3 X-3.323 Y-51.334 I3.9 J3.006
G1 X-3.319 Y-51.338
G3 X-2.695 Y-51.837 I3.427 J3.639
G1 X-2.69 Y-51.841
G3 X-1.976 Y-52.244 I2.845 J4.201
G1 X-1.958 Y-52.253
G3 X-0.384 Y-52.701 I2.216 J4.788
G1 X-0.115 Y-52.734
G3 X0.225 Y-52.748 I0.252 J2.054
G1 X0.485 Y-52.737
G3 X3.864 Y-51.461 I-0.245 J5.762
X4.557 Y-50.801 I-3.707 J4.587
G1 X4.571 Y-50.785
G3 X5.614 Y-49.157 I-4.55 J4.062
G1 X5.617 Y-49.149
G3 X5.943 Y-48.198 I-5.745 J2.501
X6.113 Y-47.22 I-6.113 J1.564
X6.141 Y-46.629 I-6.317 J0.592
G1 X6.127 Y-46.21
X6.124 Y-46.174
G3 X5.661 Y-44.144 I-6.584 J-0.436
X5.177 Y-43.173 I-6.314 J-2.543
X4.537 Y-42.283 I-5.837 J-3.518
G1 X4.526 Y-42.27
G3 X3.739 Y-41.478 I-5.362 J-4.547
G1 X1.278 Y-39.318
G3 X-2.252 Y-38.986 I-1.993 J-2.26
G1 X-4.242 Y-40.166
G3 X1.162 Y-56.897 I4.597 J-7.754
X5.577 Y-55.395 I-0.885 J9.842
G1 X5.585 Y-55.39
G3 X6.845 Y-54.443 I-5.381 J8.467
G1 X6.854 Y-54.435
G3 X7.975 Y-53.274 I-6.737 J7.629
G1 X7.988 Y-53.258
G3 X8.937 Y-51.899 I-8.06 J6.635
G1 X9.169 Y-51.502
G3 X9.47 Y-50.877 I-3.725 J2.181
G1 X9.547 Y-50.679
G3 X7.414 Y-39.172 I-10.407 J4.022
G1 X7.145 Y-38.875
G3 X6.589 Y-38.352 I-3.516 J-3.181
X2.628 Y-36.1 I-9.082 J-11.365
G1 X1.828 Y-35.799
G2 X1.601 Y-35.711 I0.55 J1.753
G1 X1.347 Y-35.592
G2 X1.122 Y-35.467 I0.777 J1.665
G1 X0.926 Y-35.34
G2 X0.743 Y-35.204 I1.002 J1.541
G1 X0.572 Y-35.06
G2 X0.406 Y-34.901 I1.185 J1.404
G1 X0.245 Y-34.726
G2 X0.097 Y-34.543 I1.351 J1.245
G1 X-0.038 Y-34.353
G2 X-0.156 Y-34.162 I1.499 J1.062
G1 X-0.259 Y-33.972
G2 X-0.34 Y-33.8 I1.618 J0.871
G1 X-0.352 Y-33.773
X-0.398 Y-33.881
G2 X-0.512 Y-34.106 I-1.691 J0.72
G1 X-0.64 Y-34.319
G2 X-0.746 Y-34.477 I-1.576 J0.944
G1 X-0.826 Y-34.584
X-0.914 Y-34.692
X-1.011 Y-34.803
X-1.116 Y-34.913
X-1.231 Y-35.023
G2 X-1.391 Y-35.162 I-1.276 J1.322
G1 X-1.602 Y-35.323
G2 X-1.794 Y-35.451 I-1.116 J1.46
G1 X-1.964 Y-35.55
G2 X-2.134 Y-35.637 I-0.924 J1.588
G1 X-2.304 Y-35.714
G2 X-2.509 Y-35.792 I-0.754 J1.676
G1 X-4.664 Y-36.465
X-6.319 Y-37.287
X-7.792 Y-38.333
X-7.825 Y-38.363
X-9.119 Y-39.635
X-10.206 Y-41.107
X-11.052 Y-42.74
X-11.617 Y-44.431
X-11.924 Y-46.279
X-11.936 Y-48.08
X-11.933 Y-48.107
X-11.662 Y-49.888
X-11.109 Y-51.626
X-10.28 Y-53.277
X-9.192 Y-54.781
X-7.898 Y-56.077
X-6.426 Y-57.149
X-4.797 Y-57.98
X-3.052 Y-58.546
X-1.295 Y-58.826
X0.003 Y-58.831
X0.536
X2.373 Y-58.543
X4.113 Y-57.975
X5.734 Y-57.145
X7.202 Y-56.074
X8.494 Y-54.778
X9.586 Y-53.266
X10.393 Y-51.663
X10.493 Y-51.362
X10.962 Y-49.888
X11.232 Y-48.112
X11.234 Y-47.83
X11.224 Y-46.28
X10.917 Y-44.431
X10.352 Y-42.74
X9.511 Y-41.117
X8.423 Y-39.641
X7.11 Y-38.348
X7.062 Y-38.312
X5.631 Y-37.296
X3.982 Y-36.475
X1.828 Y-35.799
G3 X1.417 Y-36.073 I-0.095 J-0.303
G1 X0.44 Y-46.699
G2 X-0.189 Y-46.726 I-0.316 J0.029
G1 Z-25.865 F100
X-0.19 Y-46.719 Z-25.964
X-0.194 Y-46.696 Z-26.061
X-0.201 Y-46.658 Z-26.153
X-0.21 Y-46.607 Z-26.238
X-0.222 Y-46.543 Z-26.314
X-0.235 Y-46.469 Z-26.379
X-0.25 Y-46.385 Z-26.431
X-0.266 Y-46.294 Z-26.469
X-0.283 Y-46.199 Z-26.492
X-0.301 Y-46.101 Z-26.5
X-0.303 Y-46.092 F500
G3 X-0.369 Y-46.093 I-0.033 J-0.006
G1 X-0.455 Y-46.729
G2 X-0.724 Y-47.175 I-0.65 J0.088
G3 X-0.451 Y-48.486 I0.426 J-0.596
G1 X-0.042 Y-48.574
G3 X1.216 Y-48.227 I0.296 J1.383
G1 X1.314 Y-48.135
G3 X1.913 Y-46.058 I-1.428 J1.537
X1.568 Y-45.291 I-2.51 J-0.668
X1.295 Y-44.945 I-2.234 J-1.48
G1 X1.29 Y-44.939
G2 X0.756 Y-43.602 I1.457 J1.357
G1 Y-43.594
G3 X-1.563 Y-42.786 I-1.305 J-0.013
G1 X-2.109 Y-43.461
G2 X-2.806 Y-44.037 I-1.773 J1.436
G3 X-3.111 Y-44.232 I1.089 J-2.035
G1 X-3.223 Y-44.317
G3 X-3.707 Y-44.748 I2.472 J-3.262
G1 X-3.719 Y-44.761
G3 X-4.734 Y-46.512 I3.089 J-2.959
G1 X-4.742 Y-46.54
G3 X-4.857 Y-48.687 I4.474 J-1.317
X-4.664 Y-49.422 I4.698 J0.845
G1 X-4.662 Y-49.427
G3 X-3.933 Y-50.774 I4.563 J1.601
G1 X-3.916 Y-50.795
G3 X-2.746 Y-51.896 I3.983 J3.062
G1 X-2.734 Y-51.904
G3 X-1.194 Y-52.618 I2.984 J4.416
X-0.36 Y-52.783 I1.449 J5.147
X0.265 Y-52.819 I0.625 J5.362
G1 X0.5 Y-52.814
X0.528 Y-52.813
G3 X3.125 Y-52.056 I-0.248 J5.687
G1 X3.146 Y-52.044
G3 X4.626 Y-50.841 I-3.001 J5.201
G1 X4.635 Y-50.83
G3 X5.695 Y-49.166 I-4.585 J4.091
X6.013 Y-48.228 I-5.713 J2.456
G1 X6.018 Y-48.209
G3 X6.187 Y-47.218 I-6.276 J1.58
X6.199 Y-46.197 I-6.445 J0.59
G1 X6.197 Y-46.162
G3 X5.718 Y-44.092 I-6.627 J-0.443
G1 X5.714 Y-44.082
G3 X4.58 Y-42.219 I-6.397 J-2.615
X3.793 Y-41.43 I-5.344 J-4.546
G1 X3.672 Y-41.327
G2 X3.076 Y-40.769 I5.866 J6.868
G1 X1.822 Y-39.485
G3 X1.771 Y-39.439 I-0.404 J-0.394
G1 X0.424 Y-38.359
G2 X0.277 Y-38.218 I0.742 J0.925
G1 X0.166 Y-38.093
G3 X-0.939 Y-38.024 I-0.587 J-0.518
G1 X-1.188 Y-38.241
G2 X-1.771 Y-38.647 I-2.288 J2.665
G3 X-4.278 Y-40.141 I50.555 J-87.717
X1.172 Y-56.927 I4.636 J-7.773
X5.567 Y-55.436 I-0.889 J9.842
G1 X5.592 Y-55.42
G3 X8.025 Y-53.265 I-5.432 J8.585
X8.954 Y-51.927 I-8.004 J6.549
G1 X9.176 Y-51.547
G3 X9.509 Y-50.856 I-4.17 J2.432
G1 X9.575 Y-50.685
G3 X3.138 Y-36.265 I-10.378 J4.014
G1 X2.844 Y-36.153
X1.782 Y-35.817
G2 X1.536 Y-35.719 I0.555 J1.752
G1 X1.312 Y-35.61
G2 X1.103 Y-35.491 I0.802 J1.653
G1 X0.911 Y-35.365
G2 X0.723 Y-35.223 I1.01 J1.535
G1 X0.541 Y-35.067
G2 X0.364 Y-34.893 I1.198 J1.393
G1 X0.193 Y-34.7
G2 X0.05 Y-34.516 I1.375 J1.219
G1 X-0.068 Y-34.344
G2 X-0.172 Y-34.171 I1.518 J1.035
G1 X-0.264 Y-33.998
G2 X-0.352 Y-33.807 I1.623 J0.862
G1 X-0.388 Y-33.894
G2 X-0.497 Y-34.114 I-1.696 J0.707
G1 X-0.611 Y-34.309
G2 X-0.705 Y-34.455 I-1.587 J0.926
G1 X-0.776 Y-34.553
G2 X-0.89 Y-34.696 I-1.493 J1.072
G1 X-1.053 Y-34.882
G2 X-1.223 Y-35.05 I-1.378 J1.215
G1 X-1.396 Y-35.202
G2 X-1.579 Y-35.342 I-1.209 J1.384
G1 X-1.768 Y-35.47
G2 X-1.979 Y-35.593 I-1.027 J1.524
G1 X-2.212 Y-35.708
G2 X-2.452 Y-35.806 I-0.816 J1.646
G1 X-2.822 Y-35.928
X-2.849 Y-35.937
X-4.665 Y-36.504
X-6.29 Y-37.309
X-7.78 Y-38.367
X-9.083 Y-39.644
X-10.179 Y-41.129
X-11.016 Y-42.741
X-11.58 Y-44.432
X-11.889 Y-46.28
X-11.901 Y-48.078
X-11.898 Y-48.105
X-11.627 Y-49.887
X-11.076 Y-51.617
X-11.059 Y-51.655
X-10.253 Y-53.256
X-9.2 Y-54.718
X-7.906 Y-56.027
X-7.869 Y-56.056
X-6.446 Y-57.096
X-4.786 Y-57.948
X-3.045 Y-58.513
X-1.263 Y-58.796
X0.536
X2.363 Y-58.509
X4.103 Y-57.942
X5.698 Y-57.125
X7.199 Y-56.033
X8.471 Y-54.753
X8.53 Y-54.676
X9.557 Y-53.246
X10.36 Y-51.652
X10.482 Y-51.283
X10.927 Y-49.887
X11.197 Y-48.111
X11.199 Y-47.829
X11.189 Y-46.28
X10.88 Y-44.432
X10.316 Y-42.742
X9.456 Y-41.093
X8.384 Y-39.646
X7.082 Y-38.37
X5.602 Y-37.318
X3.982 Y-36.513
X2.844 Y-36.153
G3 X2.705 Y-36.126 Z-26.484 I-0.191 J-0.605
X2.571 Y-36.129 Z-26.437 I-0.053 J-0.633
X2.454 Y-36.156 Z-26.361 I0.081 J-0.63
X2.361 Y-36.194 Z-26.261 I0.198 J-0.603
X2.296 Y-36.233 Z-26.141 I0.291 J-0.564
G1 X2.259 Y-36.261 Z-26.006
X2.246 Y-36.271 Z-25.865
G0 Z-3
X25.361 Y-16.69
Z-4.5
G1 Z-8.865 F100
X25.369 Y-16.704 Z-9.006
X25.378 Y-16.717 Z-9.051
X25.387 Y-16.73 Z-9.096
X25.396 Y-16.743 Z-9.141
G3 X25.444 Y-16.801 Z-9.261 I0.51 J0.378
X25.519 Y-16.868 Z-9.361 I0.462 J0.436
X25.62 Y-16.932 Z-9.437 I0.387 J0.503
X25.746 Y-16.979 Z-9.484 I0.286 J0.567
X25.885 Y-17 Z-9.5 I0.16 J0.614
G1 X26.095 Y-17.008 F500
G3 X27.17 Y-16.196 I0.047 J1.056
G1 X27.301 Y-15.647
G3 X26.272 Y-14.345 I-1.028 J0.245
G1 X23.902 Y-14.347
G3 X22.846 Y-15.405 I0.001 J-1.057
G1 X22.847 Y-15.943
G3 X23.902 Y-16.999 I1.057 J0.001
X24.999 Y-16.992 I0.085 J67.899
G2 X25.885 Y-17 I0.277 J-18.61
G3 X26.026 Y-16.985 Z-9.484 I0.007 J0.635
X26.153 Y-16.944 Z-9.437 I-0.134 J0.621
X26.257 Y-16.884 Z-9.361 I-0.261 J0.579
X26.335 Y-16.82 Z-9.261 I-0.365 J0.519
X26.386 Y-16.764 Z-9.141 I-0.443 J0.455
G1 X26.414 Y-16.726 Z-9.006
X26.423 Y-16.713 Z-8.865
G0 Z-3
X-0.992 Y32.071
Z-4.5
G1 Z-8.865 F100
X-0.988 Y32.064 Z-8.964
X-0.976 Y32.044 Z-9.061
X-0.957 Y32.011 Z-9.153
X-0.93 Y31.967 Z-9.238
X-0.897 Y31.911 Z-9.314
X-0.859 Y31.846 Z-9.379
X-0.816 Y31.772 Z-9.431
X-0.769 Y31.693 Z-9.469
X-0.72 Y31.61 Z-9.492
X-0.669 Y31.524 Z-9.5
X-0.344 Y30.974 F500
G3 X0.364 Y30.833 I0.417 J0.246
G1 X0.831 Y31.186
G3 X1.358 Y32.301 I-0.802 J1.062
G1 X1.356 Y32.371
G3 X1.096 Y33.17 I-1.547 J-0.062
G1 X0.917 Y33.436
G3 X-2.383 Y34.359 I-2.188 J-1.464
G1 X-2.526 Y34.292
G3 X-3.334 Y33.766 I1.447 J-3.105
G1 X-3.619 Y33.516
G3 X-4.472 Y29.729 I2.167 J-2.478
G1 X-4.333 Y29.407
G3 X-3.037 Y28.035 I2.54 J1.101
G2 X-2.709 Y27.841 I-1.295 J-2.573
G1 X-2.302 Y27.564
X-1.939 Y27.299
X-1.886 Y27.257
G3 X-0.386 Y26.606 I2.003 J2.563
X2.533 Y27.3 I0.613 J3.913
G1 X2.746 Y27.452
G3 X4.17 Y28.792 I-4.272 J5.965
G1 X4.261 Y28.905
G3 X5.121 Y34.517 I-4.359 J3.539
G1 X5.082 Y34.613
G3 X3.801 Y36.411 I-4.292 J-1.704
G1 X3.545 Y36.642
X2.686 Y37.463
G3 X-3.686 Y38.179 I-3.657 J-3.831
G1 X-4.116 Y37.923
X-4.509 Y37.681
X-4.657 Y37.588
G3 X-6.881 Y35.805 I6.83 J-10.798
G1 X-7.245 Y35.439
G3 X-7.973 Y34.578 I4.917 J-4.896
G1 X-8.092 Y34.411
G3 X-8.175 Y27.807 I4.702 J-3.362
X-6.942 Y26.445 I5.442 J3.687
G1 X-5.929 Y25.601
G3 X-4.823 Y24.758 I10.249 J12.297
G1 X-4.253 Y24.359
G3 X3.639 Y23.596 I4.602 J6.401
G1 X3.646 Y23.599
G3 X6.542 Y25.787 I-3.524 J7.674
G2 X8.617 Y28.141 I77.603 J-66.312
G1 X9.351 Y28.949
G3 X9.746 Y33.96 I-3.037 J2.761
G1 X9.653 Y34.108
X8.24 Y36.446
X8.038 Y36.792
G3 X5.738 Y39.491 I-7.988 J-4.477
G1 X5.275 Y39.867
G2 X2.831 Y42.203 I14.004 J17.101
G1 X2.203 Y42.902
G3 X-2.724 Y43.375 I-2.721 J-2.443
X-3.837 Y42.498 I19.622 J-26.064
G2 X-5.95 Y41.015 I-13.47 J16.93
G3 X-9.983 Y37.612 I9.382 J-15.211
G1 X-10.318 Y37.231
G2 X-10.86 Y36.629 I-27.585 J24.281
G1 X-11.567 Y35.86
G2 X-12.171 Y35.242 I-10.57 J9.725
G1 X-12.973 Y34.469
G3 X-13.206 Y27.966 I3.249 J-3.372
G1 X-11.729 Y26.31
G3 X-9.023 Y23.546 I25.423 J22.191
G1 X-8.758 Y23.305
G3 X-6.828 Y21.71 I17.674 J19.415
G1 X-6.762 Y21.661
G3 X9.398 Y23.503 I7.105 J9.481
G1 X9.502 Y23.625
G3 X10.076 Y24.385 I-6.879 J5.803
G2 X10.388 Y24.817 I7.459 J-5.047
G1 X11.854 Y26.73
G2 X13.97 Y28.914 I10.471 J-8.025
G1 X14.383 Y29.252
G3 X14.694 Y33.418 I-1.826 J2.231
G1 X13.439 Y34.804
G2 X12.598 Y35.94 I5.328 J4.825
G1 X12.137 Y36.711
G2 X11.54 Y37.858 I9.384 J5.612
G3 X11.024 Y38.868 I-9.984 J-4.466
G1 X11.005 Y38.902
G3 X7.987 Y42.33 I-10.076 J-5.827
G1 X6.573 Y43.382
G2 X4.734 Y44.904 I12.495 J16.965
G1 X4.069 Y45.522
G2 X2.344 Y47.501 I8.472 J9.127
G1 X1.868 Y48.18
G3 X-2.179 Y48.524 I-2.167 J-1.519
G1 X-3.945 Y46.743
G2 X-4.906 Y45.939 I-4.763 J4.721
G1 X-5.881 Y45.268
G2 X-7.055 Y44.521 I-10.987 J15.964
G1 X-7.366 Y44.338
G3 X-12.987 Y39.508 I10.544 J-17.957
G1 X-13.711 Y38.621
G2 X-15.908 Y36.164 I-35.218 J29.279
G1 X-16.243 Y35.815
G2 X-17.167 Y34.899 I-19.907 J19.133
G1 X-18.576 Y33.565
G3 X-19.058 Y33.024 I2.989 J-3.156
X-18.877 Y28.405 I2.917 J-2.199
G1 X-18.357 Y27.818
G3 X-17.777 Y27.253 I4.111 J3.639
G1 X-16.825 Y26.453
G2 X-14.113 Y23.716 I-13.565 J-16.15
G1 X-13.591 Y23.082
G3 X-9.902 Y19.469 I18.74 J15.443
G1 X-9.186 Y18.903
G3 X-8.261 Y18.214 I12.598 J15.949
G1 X-8.238 Y18.198
G3 X5.763 Y16.528 I8.555 J12.193
X7.168 Y17.162 I-5.695 J14.496
G1 X7.231 Y17.194
G3 X11.234 Y20.095 I-7.358 J14.366
X13.335 Y22.65 I-11.453 J11.558
G1 X14.471 Y24.376
G2 X17.827 Y28.259 I16.368 J-10.755
G1 X18.104 Y28.506
G2 X19.106 Y29.308 I8.283 J-9.318
G1 X19.573 Y29.644
G3 X19.778 Y33.085 I-1.298 J1.804
G1 X18.478 Y34.281
X18.222 Y34.531
X17.705 Y35.069
G2 X14.923 Y39.166 I10.616 J10.2
G1 X14.9 Y39.217
G3 X9.888 Y45.44 I-14.657 J-6.677
X9.145 Y45.971 I-12.679 J-16.955
G1 X9.025 Y46.053
G2 X5.708 Y48.71 I15.691 J22.989
G1 X4.305 Y50.022
G2 X2.168 Y52.544 I9.749 J10.428
G1 X1.742 Y53.183
G3 X1.46 Y53.549 I-2.759 J-1.835
G1 X1.427 Y53.586
G3 X-2.217 Y53.676 I-1.864 J-1.656
X-2.507 Y53.337 I2.322 J-2.279
G1 X-3.101 Y52.538
G2 X-5.21 Y50.212 I-12.886 J9.568
X-8.693 Y47.698 I-13.028 J14.379
G1 X-9.179 Y47.424
G3 X-15.774 Y41.689 I10.746 J-19.018
G1 X-16.579 Y40.637
G2 X-22.006 Y34.7 I-35.18 J26.711
G1 X-22.722 Y34.048
G3 X-23.529 Y33.273 I14.324 J-15.717
G1 X-24.026 Y32.77
G3 X-23.868 Y28.038 I2.32 J-2.291
G1 X-23.478 Y27.693
G3 X-22.569 Y26.922 I18.617 J21.018
G1 X-20.617 Y25.324
G2 X-16.532 Y21.119 I-16.847 J-20.454
G3 X-12.037 Y16.504 I22.755 J17.664
G1 X-11.592 Y16.139
G3 X-10.225 Y15.105 I13.998 J17.078
G1 X-10.099 Y15.017
G3 X-0.364 Y11.805 I10.243 J14.689
X7.214 Y13.159 I0.536 J18.883
X8.972 Y13.971 I-7.127 J17.749
G1 X9.018 Y13.995
G3 X13.833 Y17.529 I-9.289 J17.706
G1 X13.922 Y17.617
G3 X15.131 Y18.939 I-13.382 J13.447
G1 X15.214 Y19.039
G3 X17.188 Y22.095 I-11.692 J9.717
G2 X18.069 Y23.676 I14.717 J-7.173
G1 X18.133 Y23.776
G2 X20.078 Y26.329 I15.619 J-9.883
G1 X20.108 Y26.363
G2 X23.772 Y29.464 I13.661 J-12.424
G1 X24.764 Y30.103
G3 X24.874 Y32.795 I-0.892 J1.385
G1 X23.444 Y33.891
G2 X22.99 Y34.293 I2.614 J3.413
G1 X21.389 Y35.925
G2 X18.378 Y40.287 I11.056 J10.849
G3 X10.433 Y49.423 I-19.637 J-9.055
G1 X9.938 Y49.741
G2 X7.936 Y51.14 I17.102 J26.609
G1 X6.809 Y51.994
G2 X1.997 Y57.437 I11.13 J14.688
G1 X1.406 Y58.457
G3 X1.207 Y58.755 I-2.438 J-1.413
G1 X0.874 Y59.19
G3 X-1.603 Y59.224 I-1.252 J-0.957
G1 X-1.97 Y58.77
G3 X-2.163 Y58.5 I2.223 J-1.797
G1 X-2.749 Y57.574
G2 X-3.451 Y56.531 I-18.366 J11.612
G1 X-3.668 Y56.229
G2 X-7.144 Y52.73 I-12.543 J8.987
G1 X-7.895 Y52.185
G2 X-9.339 Y51.36 I-4.508 J6.209
G3 X-9.965 Y51.052 I3.075 J-7.057
G1 X-10.765 Y50.614
G3 X-18.731 Y43.625 I11.753 J-21.433
G1 X-19.177 Y43.017
G3 X-19.741 Y42.228 I33.935 J-24.858
G1 X-20.113 Y41.694
G2 X-21.132 Y40.315 I-26.034 J18.164
G1 X-21.417 Y39.95
G2 X-22.712 Y38.441 I-17.066 J13.333
G1 X-22.781 Y38.368
G2 X-26.156 Y35.551 I-13.343 J12.557
G1 X-27.519 Y34.667
G3 X-29.946 Y30.251 I2.896 J-4.467
G1 X-29.972 Y27.624
G3 X-29.143 Y26.437 I1.247 J-0.012
G1 X-29.131 Y26.433
G2 X-19.548 Y19.286 I-6.819 J-19.144
G1 X-19.447 Y19.149
G3 X-14.289 Y13.623 I25.598 J18.724
G1 X-13.988 Y13.369
G3 X-12.2 Y12 I15.563 J18.465
G1 X-12.155 Y11.968
G3 X-0.358 Y8.127 I12.284 J17.687
X4.183 Y8.484 I0.51 J22.538
X8.669 Y9.791 I-4.036 J22.206
X10.776 Y10.779 I-8.562 J21.001
G1 X10.81 Y10.797
G3 X12.779 Y11.973 I-11.023 J20.678
G1 X12.799 Y11.987
G3 X14.714 Y13.405 I-13.271 J19.922
G1 X14.722 Y13.412
G3 X16.459 Y14.984 I-15.321 J18.668
G1 X16.479 Y15.005
G3 X20.729 Y21.02 I-15.244 J15.278
G1 X20.763 Y21.091
G2 X21.14 Y21.855 I24.845 J-11.805
G1 X21.547 Y22.646
G2 X22.793 Y24.737 I17.127 J-8.798
X28.373 Y29.601 I12.206 J-8.369
G1 X29.192 Y30.011
G3 X29.423 Y30.142 I-1.132 J2.261
G1 X30.586 Y30.887
G3 Y32.13 I-0.398 J0.621
G1 X28.65 Y33.367
G3 X27.956 Y33.783 I-11.593 J-18.608
G2 X22.073 Y40.776 I7.106 J11.949
G3 X21.453 Y42.243 I-20.966 J-7.999
G1 X21.388 Y42.383
G3 X12.459 Y52.389 I-21.039 J-9.788
G1 X11.481 Y52.987
G3 X9.605 Y54.067 I-21.141 J-34.553
G1 X8.935 Y54.429
G2 X2.924 Y60.92 I6.527 J12.073
G1 X2.822 Y61.15
G2 X2.563 Y61.771 I13.043 J5.808
G1 X2.022 Y63.158
G2 X1.9 Y63.634 I1.886 J0.735
G1 X1.889 Y63.718
G3 X0.353 Y65.096 I-1.568 J-0.203
G1 X-1.325 Y65.13
G3 X-2.708 Y64.003 I-0.028 J-1.378
G2 X-2.743 Y63.854 I-1.633 J0.303
G1 X-2.908 Y63.268
G2 X-3.455 Y61.684 I-14.271 J4.036
G1 X-3.507 Y61.555
G2 X-9.941 Y54.972 I-11.334 J4.641
G1 X-9.998 Y54.947
G3 X-21.943 Y45.208 I11.496 J-26.295
X-22.876 Y43.825 I31.232 J-22.06
G1 X-23.292 Y43.178
G2 X-23.772 Y42.452 I-26.428 J16.989
G1 X-24.204 Y41.82
G2 X-31.592 Y37.531 I-8.182 J5.586
G1 X-31.718 Y37.521
G3 X-33.9 Y35.209 I0.19 J-2.365
G1 X-34.138 Y24.652
G3 X-32.129 Y22.489 I2.117 J-0.048
G1 X-30.262 Y22.394
G2 X-23.248 Y18.482 I-0.464 J-9.076
G1 X-22.389 Y17.239
G3 X-20.758 Y15.078 I26.261 J18.134
G1 X-19.71 Y13.806
G3 X-15.258 Y9.778 I25.594 J23.816
X-4.239 Y5.118 I14.662 J19.31
X3.53 Y5.117 I3.888 J25.579
X13.417 Y8.81 I-3.852 J25.393
X21.095 Y16.051 I-14.822 J23.411
X23.411 Y20.424 I-14.798 J10.635
G2 X25.45 Y24.933 I31.453 J-11.507
X28.499 Y27.999 I6.772 J-3.688
X32.686 Y29.079 I4.196 J-7.612
G3 X34.613 Y31.008 I-0.002 J1.929
G1 Y31.987
G3 X32.685 Y33.919 I-1.932
G2 X24.552 Y39.934 I0.02 J8.532
G3 X19.648 Y48.782 I-23.546 J-7.269
X14.368 Y53.323 I-17.904 J-15.478
X8.196 Y56.55 I-23.013 J-36.496
G2 X4.435 Y60.117 I2.888 J6.811
X3.617 Y65.235 I7.993 J3.901
G3 X2.111 Y66.964 I-1.506 J0.208
G1 X-2.807
G3 X-4.313 Y65.236 J-1.52
G2 X-4.612 Y61.367 I-9.074 J-1.246
X-6.644 Y58.061 I-7.215 J2.156
X-9.088 Y56.506 I-5.212 J5.494
G3 X-11.743 Y55.349 I14.492 J-36.902
X-23.098 Y44.958 I11.493 J-23.958
G2 X-25.265 Y41.481 I-83.703 J49.74
X-28.391 Y38.832 I-6.008 J3.921
X-30.507 Y38.307 I-2.589 J5.901
X-32.686 Y38.226 I-2.191 J29.814
G3 X-34.612 Y36.299 I0.001 J-1.927
G1 X-34.611 Y24.055
G3 X-32.682 Y22.114 I1.942
G1 X-29.452 Y22.093
G2 X-26.39 Y21.257 I-0.039 J-6.169
X-24.739 Y20.072 I-5.317 J-9.145
X-23.407 Y18.537 I-4.897 J-5.593
G3 X-19.71 Y13.806 I29.291 J19.085
G2 X-18.996 Y9.785 I-2.754 J-2.563
G3 X-17.787 Y5.884 I2.926 J-1.231
G1 X-15.734 Y4.563
X-12.849 Y3.112
X-9.718 Y1.93
X-6.613 Y1.119
X-3.121 Y0.588
G2 X-2.959 Y0.556 I-0.276 J-1.817
G1 X-2.739 Y0.502
G2 X-2.52 Y0.433 I-0.438 J-1.784
G1 X-2.3 Y0.349
G2 X-2.131 Y0.274 I-0.658 J-1.716
G1 X-2.011 Y0.213
G2 X-1.848 Y0.121 I-0.827 J-1.641
G1 X-1.645 Y-0.009
G2 X-1.462 Y-0.143 I-0.99 J-1.548
G1 X-1.298 Y-0.279
G2 X-1.144 Y-0.423 I-1.174 J-1.414
G1 X-1 Y-0.573
G2 X-0.85 Y-0.751 I-1.328 J-1.27
G1 X-0.697 Y-0.957
G2 X-0.586 Y-1.127 I-1.477 J-1.092
G1 X-0.511 Y-1.256
G2 X-0.419 Y-1.437 I-1.589 J-0.923
G1 X-0.351 Y-1.59
G2 X-0.253 Y-1.379 I1.71 J-0.672
G1 X-0.137 Y-1.167
G2 X-0.001 Y-0.955 I1.612 J-0.883
G1 X0.156 Y-0.743
G2 X0.311 Y-0.561 I1.476 J-1.095
G1 X0.46 Y-0.407
G2 X0.621 Y-0.259 I1.321 J-1.277
G1 X0.792 Y-0.119
G2 X0.976 Y0.012 I1.16 J-1.425
G1 X1.172 Y0.135
G2 X1.382 Y0.249 I0.976 J-1.557
G1 X1.607 Y0.352
G2 X1.835 Y0.438 I0.766 J-1.67
G1 X2.065 Y0.509
G2 X2.314 Y0.566 I0.538 J-1.757
G1 X3.108 Y0.693
X3.122 Y0.695
X5.914 Y1.119
X9.121 Y1.962
X12.166 Y3.118
X15.134 Y4.621
X17.876 Y6.4
X20.456 Y8.493
X22.792 Y10.845
X24.821 Y13.373
X26.631 Y16.198
X28.083 Y19.099
X29.365 Y22.511
G2 X29.471 Y22.744 I1.72 J-0.646
G1 X29.591 Y22.965
G2 X29.714 Y23.16 I1.614 J-0.879
G1 X29.837 Y23.331
G2 X29.943 Y23.464 I1.491 J-1.074
G1 X30.027 Y23.561
X30.123 Y23.663
X30.229 Y23.768
G2 X30.373 Y23.895 I1.29 J-1.309
G1 X30.556 Y24.041
G2 X30.763 Y24.185 I1.146 J-1.436
G1 X30.995 Y24.322
G2 X31.238 Y24.444 I0.939 J-1.579
G1 X31.493 Y24.548
G2 X31.749 Y24.631 I0.696 J-1.701
G1 X32.003 Y24.694
G2 X32.217 Y24.733 I0.44 J-1.784
G1 X32.387 Y24.754
G2 X32.611 Y24.768 I0.227 J-1.823
