%
(shoeMount)
(T1  D=6.35 CR=0 - ZMIN=-20 - flat end mill)
G90 G94
G17
G21
G28 G91 Z0
G90

(Drill1)
M9
T1 M6
S10000 M3
G54
M9
G0 X-25.063 Y10.441
Z15
Z5
Z4
Z1
G1 Z-2.587 F100
G0 Z4
Z-0.587
G1 Z-4.175 F100
G0 Z4
Z-2.175
G1 Z-5.762 F100
G0 Z4
Z-3.762
G1 Z-7.35 F100
G0 Z4
Z-5.35
G1 Z-8.937 F100
G0 Z4
Z-6.937
G1 Z-10.525 F100
G0 Z4
Z-8.525
G1 Z-12.112 F100
G0 Z4
Z-10.112
G1 Z-13.7 F100
G0 Z4
Z-11.7
G1 Z-15.287 F100
G0 Z4
Z-13.287
G1 Z-16.875 F100
G0 Z4
Z-14.875
G1 Z-18.462 F100
G0 Z4
Z-16.462
G1 Z-20 F100
G0 Z5
X24.941
Z4
Z1
G1 Z-2.587 F100
G0 Z4
Z-0.587
G1 Z-4.175 F100
G0 Z4
Z-2.175
G1 Z-5.762 F100
G0 Z4
Z-3.762
G1 Z-7.35 F100
G0 Z4
Z-5.35
G1 Z-8.937 F100
G0 Z4
Z-6.937
G1 Z-10.525 F100
G0 Z4
Z-8.525
G1 Z-12.112 F100
G0 Z4
Z-10.112
G1 Z-13.7 F100
G0 Z4
Z-11.7
G1 Z-15.287 F100
G0 Z4
Z-13.287
G1 Z-16.875 F100
G0 Z4
Z-14.875
G1 Z-18.462 F100
G0 Z4
Z-16.462
G1 Z-20 F100
G0 Z5
Z15

(Pocket1)
M9
X-39.898 Y-10.04
Z15
Z2
G1 Z0.135 F100
X-39.896 Y-10.032 Z0.036
X-39.89 Y-10.01 Z-0.061
X-39.88 Y-9.973 Z-0.153
X-39.867 Y-9.922 Z-0.238
X-39.85 Y-9.86 Z-0.314
X-39.831 Y-9.787 Z-0.379
X-39.809 Y-9.704 Z-0.431
X-39.786 Y-9.616 Z-0.469
X-39.761 Y-9.522 Z-0.492
X-39.735 Y-9.426 Z-0.5
X-39.679 Y-9.212 F200
X-39.284 Y-7.764
G2 X-37.853 Y-5.8 I3.295 J-0.898
X-37.252 Y-5.416 I14.123 J-21.421
G1 X-36.81 Y-5.127
X-36.374 Y-4.827
X-35.388 Y-4.133
G3 X-33.376 Y-2.615 I-23.529 J33.292
G1 X-33.093 Y-2.385
G3 X-31.495 Y-1.001 I-30.164 J36.437
G1 X-31.253 Y-0.781
G3 X-30.677 Y-0.241 I-15.42 J17.017
G1 X-30.093 Y0.326
G3 X-29.508 Y0.921 I-14.742 J15.085
G1 X-29.4 Y1.035
G3 X-27.808 Y2.786 I-44.443 J42.015
G1 X-27.312 Y3.371
G3 X-26.324 Y4.616 I-19.642 J16.585
G1 X-25.404 Y5.857
G3 X-24.62 Y6.948 I-38.234 J28.334
G2 X-23.964 Y7.898 I480.197 J-330.662
G1 X-23.725 Y8.252
X-23.557 Y8.509
G2 X-23.067 Y8.863 I0.711 J-0.467
X-20.802 Y9.463 I14.905 J-51.743
G1 X-17.786 Y10.109
G2 X-13.666 Y10.862 I16.168 J-76.846
G1 X-13.394 Y10.904
G2 X-8.834 Y11.488 I13.191 J-84.955
G1 X-7.193 Y11.652
X-6.774 Y11.688
X-6.649 Y11.697
G2 X-5.782 Y11.75 I2.401 J-32.012
G1 X-3.133 Y11.876
G2 X-2.181 Y11.909 I1.701 J-35.809
G1 X-2.162
G2 X-1.651 Y11.915 I0.517 J-24.766
G1 X1.633 Y11.893
G2 X2.169 Y11.88 I-0.342 J-25.776
X2.742 Y11.857 I-0.755 J-25.828
G1 X5.78 Y11.673
G2 X6.64 Y11.608 I-1.923 J-31.144
G1 X6.769 Y11.596
X7.183 Y11.555
X8.77 Y11.373
G2 X13.407 Y10.704 I-9.665 J-83.487
G1 X13.787 Y10.639
G2 X17.509 Y9.889 I-11.58 J-67.058
G1 X20.111 Y9.295
G2 X20.978 Y9.067 I-6.769 J-27.526
X21.975 Y8.771 I-8.491 J-30.441
X23.877 Y7.36 I-1.005 J-3.342
X24.212 Y6.848 I-40.256 J-26.707
G3 X25.141 Y5.499 I29.317 J19.208
G1 X25.665 Y4.776
G3 X27.22 Y2.793 I30.063 J21.964
G1 X27.45 Y2.52
X27.466 Y2.501
X27.869 Y2.033
G3 X28.781 Y1.02 I32.554 J28.401
G1 X29.139 Y0.635
G3 X29.879 Y-0.133 I22.128 J20.597
G1 X30.154 Y-0.41
G3 X30.823 Y-1.069 I25.56 J25.254
X33.215 Y-3.216 I27.147 J27.837
G1 X33.732 Y-3.645
X34.256 Y-4.065
X34.787 Y-4.475
X35.324 Y-4.877
X35.746 Y-5.188
G3 X36.917 Y-6.02 I19.893 J26.752
G1 X36.982 Y-6.065
G2 X38.717 Y-8.525 I-2.452 J-3.57
X38.935 Y-9.363 I-23.506 J-6.565
G3 X39.959 Y-10.17 I1.024 J0.246
G1 X39.992
G3 X40.432 Y-9.778 J0.443
G1 X40.476 Y-9.404
G3 X40.452 Y-9.011 I-1.125 J0.13
G1 X40.184 Y-7.869
G3 X37.871 Y-4.714 I-4.856 J-1.135
G2 X37.01 Y-4.171 I9.518 J16.06
G1 X36.308 Y-3.702
G2 X32.901 Y-1.12 I20.199 J30.198
X31.913 Y-0.234 I12.227 J14.624
X30.969 Y0.679 I24.936 J26.705
G1 X30.701 Y0.949
G2 X30.234 Y1.44 I11.844 J11.728
G1 X29.709 Y2.018
G2 X28.654 Y3.245 I22.927 J20.772
G1 X28.121 Y3.918
G2 X27.019 Y5.446 I20.936 J16.266
G1 X26.24 Y6.623
G2 X25.481 Y7.865 I19.713 J12.91
G3 X22.123 Y10.409 I-4.651 J-2.651
G1 X21.397 Y10.589
X20.952 Y10.696
X20.648 Y10.767
G3 X20.042 Y10.9 I-7.63 J-33.09
G1 X18.863 Y11.144
G3 X8.537 Y12.742 I-21.139 J-102.446
X5.009 Y13.023 I-7.546 J-72.615
G1 X4.565 Y13.047
G3 X0.001 Y13.188 I-5.182 J-94.003
G1 X-1.69 Y13.198
X-2.149 Y13.194
X-2.266 Y13.192
G3 X-3.165 Y13.165 I0.651 J-37.294
G1 X-5.199 Y13.081
G3 X-8.335 Y12.876 I2.766 J-66.497
G1 X-9.1 Y12.808
G3 X-13.604 Y12.299 I8.48 J-95.241
G1 X-15.379 Y12.055
G3 X-15.945 Y11.97 I4.504 J-31.765
G1 X-16.021 Y11.957
G3 X-17.117 Y11.768 I7.032 J-43.94
X-20.511 Y11.134 I23.801 J-136.846
G1 X-22.322 Y10.738
G3 X-25.858 Y8.093 I1.193 J-5.28
G1 X-25.96 Y7.908
G2 X-26.424 Y7.141 I-11.1 J6.184
G1 X-27.318 Y5.783
G2 X-28.465 Y4.198 I-22.324 J14.934
X-28.981 Y3.552 I-19.571 J15.114
X-30.019 Y2.36 I-22.969 J18.956
G1 X-30.699 Y1.624
X-30.726 Y1.596
X-30.754 Y1.568
X-31.776 Y0.574
X-32.072 Y0.303
X-32.615 Y-0.174
G2 X-33.951 Y-1.275 I-19.195 J21.921
G1 X-33.971 Y-1.291
X-34.353 Y-1.581
X-35.086 Y-2.111
G2 X-35.969 Y-2.703 I-11.412 J16.058
G1 X-36.022 Y-2.737
G2 X-36.701 Y-3.156 I-20.418 J32.289
G1 X-37.664 Y-3.738
G3 X-41.156 Y-8.543 I3.947 J-6.54
G1 X-41.209 Y-8.77
G3 X-41.246 Y-9.239 I1.53 J-0.357
G1 X-41.183 Y-10.126
G3 X-40.366 Y-10.907 I0.839 J0.06
X-38.049 Y-9.326 I0.062 J2.397
G1 X-38.019 Y-9.243
G2 X-35.853 Y-6.411 I5.577 J-2.021
G1 X-34.952 Y-5.777
G3 X-34.179 Y-5.214 I-15.667 J22.289
G1 X-34.117 Y-5.167
G3 X-33.13 Y-4.379 I-14.626 J19.328
X-31.505 Y-2.988 I-57.802 J69.212
X-30.792 Y-2.351 I-23.781 J27.308
G1 X-30.226 Y-1.831
G3 X-29.71 Y-1.342 I-17.537 J19.011
G1 X-28.992 Y-0.648
G3 X-28.381 Y-0.042 I-21.689 J22.456
G1 X-28.144 Y0.2
G3 X-26.86 Y1.552 I-47.265 J46.203
X-25.91 Y2.587 I-86.45 J80.276
X-24.951 Y3.7 I-20.054 J18.261
G1 X-24.857 Y3.815
G3 X-24.35 Y4.454 I-22.149 J18.074
G1 X-23.447 Y5.615
X-23.281 Y5.838
X-22.998 Y6.235
G2 X-21.318 Y7.497 I2.815 J-2
G1 X-20.983 Y7.613
G2 X-20.624 Y7.717 I1.157 J-3.323
G3 X-20.134 Y7.828 I-11.107 J50.074
G1 X-19.883 Y7.885
X-19.501 Y7.967
X-19.035 Y8.067
X-18.886 Y8.097
G3 X-16.648 Y8.582 I-17.029 J83.897
G2 X-15.054 Y8.926 I8.6 J-36.034
G1 X-11.394 Y9.56
X-11.319 Y9.572
X-11.243 Y9.583
G2 X-9.411 Y9.815 I7.631 J-52.999
G1 X-6.486 Y10.122
X-6.043 Y10.155
X-2.707 Y10.32
G2 X-2.136 Y10.336 I0.98 J-24.171
G1 X-1.662 Y10.34
X1.634 Y10.299
X2.128 Y10.283
X2.328 Y10.274
X2.7 Y10.252
X6.09 Y9.997
X6.403 Y9.965
X9.343 Y9.575
G2 X11.201 Y9.284 I-6.683 J-48.766
G1 X14.982 Y8.504
G2 X16.5 Y8.12 I-7.72 J-33.684
G3 X18.791 Y7.542 I18.771 J69.554
G1 X18.908 Y7.514
X19.388 Y7.395
X19.657 Y7.329
X20.077 Y7.217
X20.462 Y7.099
G2 X20.808 Y6.969 I-0.796 J-2.658
G1 X21.128 Y6.825
G2 X22.672 Y5.464 I-1.44 J-3.19
G3 X22.952 Y5.051 I4.737 J2.904
G1 X23.727 Y4.008
G3 X24.234 Y3.346 I16.102 J11.801
G1 X24.329 Y3.226
G3 X25.14 Y2.262 I19.721 J15.759
X26.251 Y1.021 I142.166 J126.183
X27.702 Y-0.555 I67.97 J61.09
G1 X27.722 Y-0.576
G3 X28.479 Y-1.359 I30.317 J28.561
G1 X28.904 Y-1.794
G3 X29.497 Y-2.4 I29.705 J28.504
X31.063 Y-3.917 I27.871 J27.199
G2 X32.812 Y-5.554 I-196.463 J-211.579
G3 X33.208 Y-5.905 I4.6 J4.803
G1 X33.499 Y-6.142
G3 X33.971 Y-6.51 I8.566 J10.5
G1 X34.095 Y-6.604
G2 X34.523 Y-6.938 I-12.235 J-16.115
G1 X34.984 Y-7.307
G3 X35.481 Y-7.676 I5.034 J6.273
G2 X36.627 Y-9.229 I-1.652 J-2.418
G1 X36.767 Y-9.683
G3 X40.345 Y-12.344 I3.606 J1.113
G1 X40.747 Y-12.347
G3 X42.568 Y-10.843 I0.014 J1.837
G1 X42.745 Y-9.883
G3 X42.802 Y-8.962 I-3.775 J0.696
G1 X42.797 Y-8.887
G3 X42.732 Y-8.345 I-4.41 J-0.259
G1 X42.38 Y-6.451
G3 X39.249 Y-2.538 I-5.225 J-0.972
G1 X38.867 Y-2.363
G2 X38.14 Y-1.99 I12.641 J25.538
X35.698 Y-0.544 I11.37 J21.975
G1 X35.673 Y-0.527
G2 X35.077 Y-0.105 I8.803 J13.083
X34.306 Y0.492 I14.256 J19.206
G1 X34.207 Y0.572
G2 X33.664 Y1.033 I8.943 J11.074
G1 X33.437 Y1.236
G2 X32.31 Y2.311 I16.003 J17.904
G1 X32.086 Y2.543
X31.812 Y2.842
X31.2 Y3.555
G2 X30.297 Y4.694 I15.793 J13.446
G1 X30.264 Y4.739
X30.069 Y5.012
X29.666 Y5.613
G2 X28.955 Y6.796 I14.557 J9.546
G1 X28.863 Y6.963
G2 X28.386 Y7.878 I22.592 J12.373
G1 X28.3 Y8.052
G2 X27.719 Y9.378 I13.356 J6.634
G3 X23.754 Y12.766 I-5.085 J-1.937
X20.828 Y13.357 I-16.909 J-76.133
G1 X16.159 Y14.143
X16.088 Y14.153
X16.017 Y14.163
X15.946 Y14.173
X10.777 Y14.81
X6.129 Y15.194
X1.535 Y15.395
X-3.109 Y15.422
X-7.788 Y15.273
X-12.482 Y14.954
X-17.403 Y14.441
X-22.424 Y13.739
X-24.374 Y13.391
G3 X-28.418 Y9.981 I0.928 J-5.204
G1 X-28.459 Y9.868
G2 X-28.998 Y8.597 I-11.892 J4.29
G1 X-29.092 Y8.405
G2 X-29.578 Y7.466 I-21.423 J10.492
G1 X-29.646 Y7.341
G2 X-30.346 Y6.173 I-14.869 J8.118
X-31.863 Y4.177 I-15.004 J9.827
X-32.429 Y3.536 I-22.969 J19.725
G1 X-32.696 Y3.256
X-32.808 Y3.144
X-32.812 Y3.139
X-33.576 Y2.421
X-33.83 Y2.203
X-34.248 Y1.863
G2 X-36.776 Y0.132 I-12.437 J15.445
G1 X-36.951 Y0.033
G3 X-37.005 Y-0.003 I0.218 J-0.39
G2 X-37.051 Y-0.033 I-0.273 J0.354
X-37.619 Y-0.32 I-2.747 J4.746
X-38.559 Y-0.741 I-6.416 J13.051
G1 X-39.401 Y-1.083
G2 X-39.97 Y-1.287 I-2.64 J6.495
G1 X-40.059 Y-1.314
X-40.433 Y-1.434
G3 X-43.716 Y-5.162 I1.541 J-4.666
G1 X-43.905 Y-6.133
G3 X-44.157 Y-10.319 I15.649 J-3.042
G1 X-44.057 Y-11.708
G3 X-43.982 Y-12.172 I2.632 J0.189
X-42.082 Y-13.903 I2.264 J0.576
G1 X-40.378 Y-14.172
G3 X-39.086 Y-14.202 I0.761 J4.818
G1 X-38.932 Y-14.186
G3 X-35.427 Y-11.344 I-0.454 J4.143
G2 X-33.259 Y-8.352 I5.76 J-1.893
G1 X-33.183 Y-8.296
G3 X-32.315 Y-7.596 I-7.427 J10.098
G1 X-32.064 Y-7.375
G3 X-31.557 Y-6.904 I-9.258 J10.488
G1 X-29.609 Y-5.046
G3 X-28.986 Y-4.456 I-31.179 J33.577
G1 X-28.439 Y-3.929
G3 X-27.808 Y-3.307 I-28.494 J29.555
G1 X-27.03 Y-2.549
G3 X-26.304 Y-1.845 I-35.2 J37.045
G1 X-25.797 Y-1.344
G3 X-25.125 Y-0.667 I-34.83 J35.231
G2 X-24.371 Y0.088 I28.81 J-28.042
G1 X-23.393 Y1.05
X-23.051 Y1.394
X-22.883 Y1.569
G3 X-21.747 Y2.85 I-16.267 J15.571
G1 X-20.972 Y3.794
X-20.852 Y3.932
X-20.804 Y3.985
G3 X-20.616 Y4.219 I-1.662 J1.524
G2 X-19.944 Y4.711 I1.054 J-0.734
G1 X-19.511 Y4.837
G2 X-19.069 Y4.945 I1.125 J-3.639
G1 X-19.061 Y4.947
X-18.839 Y4.995
X-18.417 Y5.094
X-18.361 Y5.105
G3 X-15.904 Y5.709 I-7.795 J37.022
G2 X-14.393 Y6.112 I11.169 J-38.863
X-13.035 Y6.422 I8.548 J-34.281
X-10.02 Y7.025 I15.069 J-67.49
G1 X-9.612 Y7.088
X-6.595 Y7.491
G2 X-5.082 Y7.624 I3.348 J-29.591
X-2.183 Y7.796 I6.683 J-88.114
X-1.618 Y7.805 I0.54 J-14.769
G1 X1.711 Y7.767
X2.044 Y7.754
X2.224 Y7.744
X2.57 Y7.72
X5.334 Y7.487
G2 X5.974 Y7.423 I-1.942 J-22.923
G1 X6.069 Y7.412
X9.58 Y6.863
X9.997 Y6.786
X10.211 Y6.743
X10.245 Y6.737
X10.279 Y6.73
X13.001 Y6.098
G2 X14.332 Y5.75 I-7.218 J-30.364
X16.784 Y4.995 I-16.943 J-59.33
G3 X17.858 Y4.712 I3.369 J10.629
G2 X21.087 Y2.707 I-1.146 J-5.448
G1 X21.207 Y2.555
G3 X22.377 Y1.191 I16.614 J13.074
G1 X22.53 Y1.028
G3 X22.907 Y0.638 I11.622 J10.866
G1 X23.859 Y-0.321
G2 X24.626 Y-1.112 I-24.585 J-24.627
G1 X24.632 Y-1.118
G3 X25.292 Y-1.807 I36.692 J34.497
G1 X26.087 Y-2.62
G3 X26.506 Y-3.04 I22.437 J21.987
G1 X31.068 Y-7.725
G3 X31.658 Y-8.298 I8.04 J7.688
X32.351 Y-8.881 I8.735 J9.685
G1 X32.408 Y-8.926
G2 X34.313 Y-11.685 I-3.471 J-4.432
G1 X34.347 Y-11.797
G3 X38.728 Y-15.489 I5.079 J1.58
G1 X38.934 Y-15.517
G3 X40.535 Y-15.524 I0.83 J6.267
G1 X42.374 Y-15.298
G3 X45.321 Y-12.531 I-0.417 J3.397
G1 X45.733 Y-10.328
G3 X45.853 Y-8.509 I-7.518 J1.408
G1 X45.837 Y-8.21
G3 X45.734 Y-7.23 I-9.716 J-0.524
G1 X45.147 Y-3.474
G3 X42.056 Y0.026 I-4.287 J-0.67
X41.13 Y0.279 I-8.384 J-28.843
G2 X40.137 Y0.566 I4.078 J15.955
G1 X39.968 Y0.621
G2 X35.369 Y3.136 I4.333 J13.388
G1 X35.287 Y3.203
G2 X33.933 Y4.473 I9.007 J10.964
G1 X33.852 Y4.562
X33.756 Y4.675
X33.458 Y5.037
X33.151 Y5.422
G2 X31.861 Y7.376 I10.158 J8.106
X31.48 Y8.168 I8.629 J4.638
G1 X31.447 Y8.246
G2 X30.453 Y11.364 I15.924 J6.796
G1 X30.296 Y12.041
G3 X26.611 Y15.528 I-4.516 J-1.081
G1 X24.713 Y15.873
G3 X20.454 Y16.524 I-13.643 J-75.003
G1 X16.012 Y17.045
X11.068 Y17.484
X6.274 Y17.773
X1.535 Y17.929
X-3.235 Y17.959
X-8.057 Y17.861
X-12.886 Y17.641
X-17.969 Y17.283
X-20.738 Y17.033
G3 X-24.617 Y16.581 I6.596 J-73.495
G1 X-27.127 Y16.221
G3 X-31.061 Y12.612 I0.671 J-4.68
G1 X-31.261 Y11.685
G2 X-32.247 Y8.546 I-15.721 J3.212
X-32.756 Y7.532 I-8.934 J3.851
G1 X-32.788 Y7.477
G2 X-33.122 Y6.942 I-7.917 J4.571
X-33.441 Y6.491 I-9.63 J6.484
G1 X-33.447 Y6.484
G2 X-33.792 Y6.042 I-9.626 J7.17
G1 X-34.199 Y5.545
X-34.387 Y5.325
X-34.427 Y5.28
X-34.591 Y5.102
X-34.747 Y4.944
G2 X-35.889 Y3.959 I-7.765 J7.845
G1 X-36.139 Y3.772
G2 X-40.348 Y1.782 I-6.965 J9.286
G1 X-40.479 Y1.75
G2 X-41.39 Y1.57 I-2.512 J10.279
G1 X-42.763 Y1.329
G3 X-46.6 Y-2.664 I0.922 J-4.725
G1 X-47.127 Y-6.089
G3 X-47.275 Y-9.112 I14.456 J-2.224
G1 X-47.101 Y-12.29
G3 X-42.679 Y-17.083 I5.113 J0.28
G1 X-40.904 Y-17.325
G3 X-38.561 Y-17.342 I1.237 J9.083
G1 X-37.23 Y-17.18
G3 X-33.913 Y-15.15 I-0.566 J4.649
G1 X-33.217 Y-14.117
G3 X-32.561 Y-12.816 I-4.783 J3.227
G1 X-32.471 Y-12.563
G2 X-30.97 Y-10.413 I4.644 J-1.644
G1 X-30.676 Y-10.153
X-30.665 Y-10.143
X-30.485 Y-9.966
X-30.07 Y-9.544
G3 X-29.436 Y-8.881 I-25.472 J25
G1 X-28.531 Y-7.905
G2 X-27.91 Y-7.265 I13.656 J-12.626
G1 X-24.811 Y-4.188
X-23.148 Y-2.59
G2 X-22.187 Y-1.693 I17.7 J-18.015
G1 X-21.675 Y-1.24
G3 X-20.741 Y-0.392 I-34.668 J39.123
G1 X-20.261 Y0.058
X-20.041 Y0.272
X-20.038 Y0.276
X-19.81 Y0.516
X-19.794 Y0.533
X-19.595 Y0.743
X-19.462 Y0.878
G2 X-16.875 Y2.324 I3.804 J-3.766
G3 X-16.078 Y2.549 I-2.037 J8.726
G1 X-13.648 Y3.351
G2 X-12.79 Y3.594 I4.527 J-14.345
G1 X-10.02 Y4.271
G2 X-8.826 Y4.505 I3.789 J-16.162
G1 X-6.034 Y4.944
X-5.628 Y4.998
X-2.331 Y5.248
X-2.253 Y5.253
X-2.175 Y5.258
X-2.097 Y5.262
X1.697 Y5.24
G2 X2.328 Y5.2 I-0.323 J-10.219
G1 X5.605 Y4.883
X5.997 Y4.822
X8.774 Y4.322
G2 X9.945 Y4.064 I-2.82 J-15.561
G1 X12.704 Y3.316
G2 X13.506 Y3.065 I-3.606 J-12.93
G1 X16.002 Y2.16
X16.37 Y2.037
X16.441 Y2.015
G2 X19.165 Y0.463 I-2.046 J-6.757
G1 X19.269 Y0.368
G2 X19.592 Y0.039 I-2.909 J-3.175
G1 X19.705 Y-0.085
X19.746 Y-0.128
X19.974 Y-0.357
X20.472 Y-0.835
G3 X21.342 Y-1.643 I35.794 J37.667
G1 X21.825 Y-2.081
G2 X22.757 Y-2.977 I-15.389 J-16.959
G1 X25.528 Y-5.763
X27.507 Y-7.859
G2 X27.992 Y-8.394 I-9.413 J-9.015
G1 X29.086 Y-9.666
G3 X29.495 Y-10.117 I9.725 J8.413
G2 X31.92 Y-13.802 I-8.997 J-8.561
G1 X31.937 Y-13.843
G3 X32.25 Y-14.462 I4.902 J2.093
G1 X32.966 Y-15.672
G3 X37.321 Y-18.457 I4.932 J2.914
X42.15 Y-18.511 I2.713 J26.792
G1 X42.198 Y-18.507
G3 X44.255 Y-18.267 I-2.163 J27.443
G1 X44.303 Y-18.26
G3 X48.239 Y-14.304 I-0.722 J4.655
G1 X48.652 Y-11.548
G3 X48.804 Y-6.334 I-21.575 J3.237
G1 X48.569 Y-3.75
G3 X48.038 Y0.219 I-47.268 J-4.302
X45.909 Y2.573 I-2.942 J-0.521
G1 X45.566 Y2.67
X45.161 Y2.771
X43.772 Y3.072
G3 X41.903 Y3.413 I-6.131 J-28.293
G1 X41.337 Y3.492
G2 X40.55 Y3.626 I1.353 J10.349
G1 X40.493 Y3.638
G2 X39.025 Y4.073 I1.926 J9.193
G1 X38.879 Y4.129
G2 X38.398 Y4.346 I1.634 J4.267
G1 X38.364 Y4.364
X38.319 Y4.387
X38.275 Y4.411
X38.232 Y4.435
X38.218 Y4.443
X38.032 Y4.551
X38.025 Y4.555
G2 X37.562 Y4.86 I3.715 J6.135
G1 X37.185 Y5.136
G2 X35.357 Y6.956 I5.474 J7.327
G1 X35.22 Y7.138
X35.029 Y7.4
X35.009 Y7.429
X34.804 Y7.737
X34.585 Y8.11
X34.552 Y8.173
G2 X34.267 Y8.809 I4.099 J2.217
G1 X34.249 Y8.858
G2 X33.645 Y11.528 I10.451 J3.769
G1 X33.613 Y11.823
G3 X33.295 Y13.877 I-24.536 J-2.739
G1 X33.171 Y14.504
G3 X28.995 Y18.647 I-5.156 J-1.02
G1 X28.923 Y18.661
G3 X27.574 Y18.863 I-3.288 J-17.328
G1 X24.156 Y19.241
G3 X21.36 Y19.506 I-9.836 J-88.956
G1 X14.331 Y19.994
X6.281 Y20.353
X-2.051 Y20.495
X-8.057 Y20.459
X-17.004 Y20.22
X-23.171 Y19.933
X-24.955 Y19.808
G3 X-31.009 Y19.209 I7.426 J-105.974
X-31.849 Y18.927 I0.287 J-2.246
G1 X-32.123 Y18.77
G3 X-33.72 Y16.538 I1.645 J-2.865
G1 X-34.025 Y14.978
G3 X-34.505 Y11.813 I37.049 J-7.236
G1 X-34.535 Y11.532
G2 X-35.112 Y9.035 I-10.028 J1.004
G1 X-35.131 Y8.985
G2 X-35.403 Y8.411 I-3.402 J1.26
G1 X-35.41 Y8.398
X-35.592 Y8.112
X-35.762 Y7.875
X-36.342 Y7.122
X-36.49 Y6.944
X-36.571 Y6.857
X-36.626 Y6.801
X-36.723 Y6.707
G2 X-37.391 Y6.16 I-4.141 J4.374
X-38.027 Y5.716 I-12.255 J16.885
G1 X-38.259 Y5.571
X-38.62 Y5.376
X-38.689 Y5.342
X-38.716 Y5.329
X-38.743 Y5.316
G2 X-39.01 Y5.214 I-0.931 J2.037
G1 X-39.26 Y5.135
G2 X-40.468 Y4.846 I-2.334 J7.085
G1 X-40.662 Y4.817
G2 X-41.25 Y4.751 I-1.087 J7.114
G1 X-42.348 Y4.664
G3 X-43.632 Y4.513 I2.009 J-22.558
G1 X-44.453 Y4.392
G3 X-49.879 Y-1.041 I0.935 J-6.36
X-50.045 Y-2.477 I24.083 J-3.508
G1 X-50.372 Y-6.303
G3 X-50.459 Y-11.354 I37.07 J-3.167
G1 X-50.43 Y-11.92
G3 X-50.258 Y-14.22 I47.476 J2.408
X-43.965 Y-20.35 I6.79 J0.676
G1 X-42.535 Y-20.454
G3 X-36.926 Y-20.541 I3.567 J48.988
G1 X-35.66 Y-20.489
G3 X-34.67 Y-20.375 I-0.285 J6.853
X-32.779 Y-19.417 I-0.708 J3.743
G1 X-32.759 Y-19.398
G3 X-32.154 Y-18.67 I-2.555 J2.737
G1 X-32.143 Y-18.652
G3 X-31.67 Y-17.855 I-12.739 J8.099
G1 X-30.374 Y-15.512
G3 X-29.727 Y-14.249 I-19.959 J11.031
G1 X-29.519 Y-13.81
G2 X-28.185 Y-11.875 I6.633 J-3.144
G1 X-28.015 Y-11.686
X-26.626 Y-10.021
G2 X-25.464 Y-8.713 I17.49 J-14.36
G1 X-23.815 Y-6.964
X-23.594 Y-6.738
X-21.064 Y-4.391
X-21.03 Y-4.358
X-20.995 Y-4.327
X-20.96 Y-4.295
X-20.921 Y-4.261
X-20.767 Y-4.131
X-18.544 Y-2.342
X-18.319 Y-2.146
G2 X-17.855 Y-1.759 I4.472 J-4.877
G1 X-17.147 Y-1.22
G2 X-16.434 Y-0.811 I1.919 J-2.52
G1 X-16.416 Y-0.803
X-16.229 Y-0.722
X-15.901 Y-0.576
G2 X-15.235 Y-0.327 I2.841 J-6.562
G1 X-14.928 Y-0.218
X-12.447 Y0.741
G2 X-11.814 Y0.948 I2.532 J-6.652
G1 X-8.875 Y1.778
X-8.53 Y1.856
X-5.574 Y2.396
X-5.239 Y2.452
X-5.174 Y2.46
X-2.021 Y2.736
G2 X-1.403 Y2.753 I0.465 J-5.621
X1.677 Y2.723 I0.352 J-122.433
G1 X2.02 Y2.698
X5.156 Y2.364
X5.189 Y2.36
X5.222 Y2.354
X5.528 Y2.297
X8.486 Y1.695
X8.818 Y1.611
X11.719 Y0.721
G2 X12.334 Y0.502 I-2.039 J-6.688
G1 X14.791 Y-0.522
X15.087 Y-0.637
G2 X15.656 Y-0.873 I-1.991 J-5.597
G3 X16.233 Y-1.152 I13.939 J28.054
G2 X16.936 Y-1.576 I-1.542 J-3.354
G1 X17.693 Y-2.155
G2 X18.079 Y-2.483 I-3.087 J-4.03
G1 X18.301 Y-2.68
X20.497 Y-4.488
X20.654 Y-4.624
G2 X23.163 Y-7.021 I-91.197 J-97.986
G1 X23.269 Y-7.132
G2 X25.489 Y-9.593 I-146.288 J-134.238
G1 X25.722 Y-9.869
X27.238 Y-11.836
G2 X29.087 Y-14.776 I-11.823 J-9.486
G3 X30.615 Y-17.913 I161.517 J76.723
X31.442 Y-19.436 I18.534 J9.085
X31.933 Y-20.047 I2.468 J1.479
G1 X32.179 Y-20.279
G3 X33.216 Y-20.998 I2.868 J3.032
G1 X33.565 Y-21.168
G3 X34.168 Y-21.373 I1.105 J2.264
G1 X34.318 Y-21.404
G3 X35.794 Y-21.587 I1.924 J9.453
G1 X36.978 Y-21.642
G3 X44.399 Y-21.626 I3.542 J76.225
G1 X46.149 Y-21.537
G3 X47.864 Y-21.334 I-0.656 J12.891
X48.7 Y-21.066 I-0.646 J3.459
G1 X48.738 Y-21.049
X49.173 Y-20.83
X49.199 Y-20.816
G3 X49.886 Y-20.319 I-1.546 J2.858
G1 X50.029 Y-20.184
G3 X51.428 Y-17.63 I-3.259 J3.446
X51.622 Y-16.297 I-14.974 J2.867
G1 X51.643 Y-16.091
G3 X51.934 Y-11.896 I-66.086 J6.682
G1 X51.958 Y-11.24
G3 X51.988 Y-6.358 I-77.801 J2.915
G1 X51.913 Y-3.412
G3 X51.785 Y-0.098 I-122.342 J-3.092
G1 X51.732 Y0.907
G3 X51.572 Y2.263 I-10.469 J-0.549
X51.199 Y3.38 I-4.175 J-0.771
G1 X50.932 Y3.918
G3 X50.674 Y4.309 I-1.719 J-0.854
X48.738 Y5.825 I-4.69 J-3.995
X47.957 Y6.09 I-1.346 J-2.688
G1 X47.908 Y6.099
G3 X46.062 Y6.354 I-3.397 J-17.782
G1 X43.824 Y6.541
G3 X41.903 Y6.674 I-6.12 J-74.336
G1 X41.685 Y6.686
G2 X40.199 Y6.849 I0.732 J13.533
G1 X39.726 Y6.928
G2 X39.385 Y7.001 I0.627 J3.781
G1 X39.367 Y7.005
G2 X39.01 Y7.157 I0.334 J1.279
G1 X38.86 Y7.258
X38.633 Y7.418
G2 X37.511 Y8.539 I2.625 J3.75
G1 X37.369 Y8.741
G2 X37.053 Y9.419 I1.752 J1.23
G1 X37.004 Y9.602
G2 X36.848 Y10.476 I5.128 J1.367
G1 X36.842 Y10.54
G2 X36.818 Y11.016 I5.433 J0.508
G1 X36.814 Y11.303
X36.801 Y11.823
G3 X36.72 Y13.86 I-86.382 J-2.399
G1 X36.593 Y16.333
G3 X36.423 Y17.84 I-12.379 J-0.636
G1 X36.413 Y17.896
G3 X36.092 Y18.911 I-3.97 J-0.697
X34.861 Y20.666 I-5.638 J-2.645
G1 X34.794 Y20.733
G3 X33.968 Y21.336 I-2.338 J-2.334
G1 X33.544 Y21.554
G3 X32.397 Y21.956 I-2.019 J-3.925
X30.929 Y22.152 I-2.207 J-10.944
G1 X30.245 Y22.197
G3 X26.258 Y22.409 I-9.987 J-150.613
G1 X16.053 Y22.734
X1.535 Y22.979
X-17.969 Y23.062
X-30.917 Y23.013
G3 X-32.419 Y22.878 I0.11 J-9.624
X-34.017 Y22.355 I0.956 J-5.626
G1 X-34.116 Y22.305
G3 X-36.799 Y19.689 I2.757 J-5.511
G1 X-36.869 Y19.557
G3 X-37.412 Y17.962 I4.64 J-2.469
X-37.597 Y16.203 I13.928 J-2.348
G1 X-37.772 Y10.909
X-37.782 Y10.654
X-37.792 Y10.479
G2 X-37.898 Y9.781 I-3.809 J0.222
G1 X-37.909 Y9.736
G2 X-38.229 Y9.041 I-1.988 J0.494
G1 X-38.513 Y8.642
G2 X-38.553 Y8.597 I-0.234 J0.167
G1 X-38.562 Y8.589
X-38.578 Y8.575
X-38.59 Y8.563
G2 X-38.728 Y8.455 I-0.654 J0.692
G1 X-39.121 Y8.201
G2 X-39.659 Y7.983 I-0.836 J1.295
X-40.664 Y7.879 I-1.067 J5.411
G1 X-46.463 Y7.867
G3 X-51.659 Y5.731 I0.024 J-7.445
X-52.513 Y4.57 I3.178 J-3.232
G1 X-52.665 Y4.272
G3 X-53.282 Y2.423 I5.701 J-2.929
X-53.437 Y0.835 I10.95 J-1.871
G1 X-53.622 Y-9.426
X-53.683 Y-16.094
G3 X-53.546 Y-18.046 I12.348 J-0.114
X-53.001 Y-19.786 I5.864 J0.882
G1 X-52.966 Y-19.856
G3 X-51.708 Y-21.638 I6.277 J3.094
G1 X-51.656 Y-21.692
G3 X-50.096 Y-22.866 I4.549 J4.421
G1 X-50.041 Y-22.895
G3 X-47.868 Y-23.625 I3.254 J6.092
X-46.378 Y-23.756 I1.692 J10.671
G1 X-45.375 Y-23.775
X-35.196 Y-23.773
G3 X-33.276 Y-23.476 I-0.883 J12.056
G1 X-33.038 Y-23.395
G3 X-31.396 Y-22.58 I-5.239 J12.613
G1 X-31.161 Y-22.406
X-30.911 Y-22.193
X-30.251 Y-21.569
G3 X-29.482 Y-20.594 I-2.67 J2.897
G1 X-28.962 Y-19.654
X-28.838 Y-19.391
X-27.508 Y-16.341
G2 X-27.422 Y-16.168 I1.684 J-0.734
G1 X-25.927 Y-13.534
G2 X-25.822 Y-13.37 I1.598 J-0.907
G1 X-24.037 Y-10.882
G2 X-23.917 Y-10.732 I1.493 J-1.071
G1 X-21.959 Y-8.529
X-21.863 Y-8.429
X-21.704 Y-8.274
X-21.684 Y-8.256
X-21.664 Y-8.237
X-19.536 Y-6.3
G2 X-19.386 Y-6.177 I1.237 J-1.359
G1 X-16.917 Y-4.364
G2 X-16.755 Y-4.258 I1.087 J-1.481
G1 X-14.146 Y-2.738
G2 X-13.975 Y-2.65 I0.925 J-1.588
G1 X-11.192 Y-1.398
G2 X-11.01 Y-1.327 I0.754 J-1.676
G1 X-8.078 Y-0.368
G2 X-7.889 Y-0.317 I0.571 J-1.746
G1 X-4.904 Y0.319
G2 X-4.714 Y0.349 I0.383 J-1.797
G1 X-1.729 Y0.665
G2 X-1.535 Y0.676 I0.194 J-1.827
G1 X1.535
G2 X1.729 Y0.665 J-1.837
G1 X4.714 Y0.349
G2 X4.904 Y0.319 I-0.194 J-1.827
G1 X7.889 Y-0.317
G2 X8.078 Y-0.368 I-0.383 J-1.797
G1 X11.01 Y-1.327
G2 X11.192 Y-1.398 I-0.571 J-1.746
G1 X13.975 Y-2.65
G2 X14.146 Y-2.738 I-0.754 J-1.676
G1 X16.755 Y-4.258
G2 X16.917 Y-4.364 I-0.925 J-1.588
G1 X19.386 Y-6.177
G2 X19.536 Y-6.3 I-1.087 J-1.481
G1 X21.743 Y-8.31
G2 X21.874 Y-8.441 I-1.237 J-1.359
G1 X22.698 Y-9.36
X22.705 Y-9.369
X23.963 Y-10.789
G2 X24.083 Y-10.94 I-1.376 J-1.218
G1 X25.855 Y-13.423
G2 X25.958 Y-13.584 I-1.496 J-1.067
G1 X27.423 Y-16.169
G2 X27.508 Y-16.341 I-1.599 J-0.906
G1 X28.838 Y-19.391
X28.962 Y-19.654
X29.482 Y-20.594
G3 X30.285 Y-21.601 I3.461 J1.936
G1 X30.913 Y-22.195
G3 X31.888 Y-22.854 I2.633 J2.846
G1 X32.728 Y-23.265
G3 X33.488 Y-23.529 I1.606 J3.388
X35.196 Y-23.773 I2.757 J13.216
G1 X46.727 Y-23.775
X46.997 Y-23.77
X47.215 Y-23.754
X48.461 Y-23.562
G3 X49.408 Y-23.262 I-0.662 J3.735
G1 X49.997 Y-22.965
X50.6 Y-22.649
X50.821 Y-22.509
X51.058 Y-22.333
G3 X52.337 Y-21.057 I-10.209 J11.505
G1 X52.51 Y-20.819
G3 X53.456 Y-18.924 I-9.643 J5.995
G1 X53.513 Y-18.692
X53.563 Y-18.455
X53.754 Y-17.208
X53.77 Y-17.005
X53.775 Y-14
Y1.007
X53.764 Y1.599
X53.743 Y1.813
X53.543 Y3.06
G3 X53.269 Y3.893 I-3.694 J-0.75
G1 X52.736 Y4.946
G3 X52.035 Y5.888 I-3.382 J-1.783
G1 X51.385 Y6.538
G3 X50.604 Y7.147 I-2.723 J-2.691
G1 X49.765 Y7.583
G3 X48.461 Y8.063 I-2.083 J-3.653
G1 X47.215 Y8.254
X47.01 Y8.269
X45.375 Y8.275
X40.174
G2 X38.894 Y8.794 J1.838
G1 X38.833 Y8.853
G2 X38.275 Y10.172 I1.279 J1.319
G1 Y16.719
X38.271 Y16.991
X38.254 Y17.208
X38.063 Y18.455
G3 X37.775 Y19.38 I-3.733 J-0.655
G1 X37.467 Y19.993
X37.149 Y20.6
G3 X36.332 Y21.591 I-3.706 J-2.223
X35.424 Y22.44 I-5.836 J-5.334
G1 X35.253 Y22.555
X35.081 Y22.661
X34.963 Y22.727
X33.894 Y23.269
G3 X33.074 Y23.54 I-1.586 J-3.424
G1 X32.147 Y23.692
X31.593 Y23.763
X31.028 Y23.775
X-31.028
X-31.593 Y23.763
X-32.147 Y23.692
X-33.074 Y23.539
G3 X-33.894 Y23.269 I0.765 J-3.695
G1 X-34.963 Y22.727
G3 X-35.905 Y22.018 I1.806 J-3.382
G1 X-36.553 Y21.37
G3 X-37.148 Y20.602 I2.702 J-2.706
G1 X-37.599 Y19.735
G3 X-38.064 Y18.455 I3.597 J-2.031
G1 X-38.254 Y17.208
X-38.27 Y17.005
X-38.275 Y14
Y10.172
G2 X-38.833 Y8.853 I-1.837
G1 X-38.894 Y8.794
G2 X-40.174 Y8.275 I-1.279 J1.319
G1 X-46.727
X-46.997 Y8.27
X-47.215 Y8.254
X-48.461 Y8.062
G3 X-49.385 Y7.773 I0.66 J-3.731
G1 X-49.998 Y7.465
X-50.602 Y7.148
G3 X-51.593 Y6.33 I2.226 J-3.708
X-52.449 Y5.41 I5.086 J-5.595
G1 X-52.56 Y5.246
X-52.661 Y5.081
X-52.736 Y4.946
X-53.269 Y3.893
G3 X-53.543 Y3.06 I3.421 J-1.584
G1 X-53.743 Y1.813
X-53.764 Y1.599
X-53.775 Y1.007
Y-16.719
X-53.771 Y-16.991
X-53.754 Y-17.208
X-53.563 Y-18.455
G3 X-53.263 Y-19.406 I3.737 J0.657
G1 X-52.967 Y-19.992
X-52.651 Y-20.597
X-52.511 Y-20.818
X-52.335 Y-21.056
G3 X-51.06 Y-22.334 I11.523 J10.218
G1 X-50.822 Y-22.508
G3 X-48.928 Y-23.454 I6.004 J9.651
G1 X-48.697 Y-23.512
X-48.461 Y-23.562
X-47.215 Y-23.754
X-47.01 Y-23.769
X-45.375 Y-23.775
Z-1.5 F100
X-35.196 Y-23.773 F200
X-34.963 Y-23.759
G3 X-33.276 Y-23.477 I-1.722 J15.5
G1 X-33.038 Y-23.395
G3 X-31.396 Y-22.58 I-5.239 J12.613
G1 X-31.161 Y-22.406
X-30.911 Y-22.193
X-30.251 Y-21.569
G3 X-29.482 Y-20.594 I-2.67 J2.897
G1 X-28.962 Y-19.654
X-28.838 Y-19.391
X-27.508 Y-16.341
G2 X-27.422 Y-16.168 I1.684 J-0.734
G1 X-25.927 Y-13.534
G2 X-25.822 Y-13.37 I1.598 J-0.907
G1 X-24.037 Y-10.882
G2 X-23.917 Y-10.732 I1.493 J-1.071
G1 X-21.959 Y-8.529
X-21.863 Y-8.429
X-21.704 Y-8.274
X-21.684 Y-8.256
X-21.664 Y-8.237
X-19.536 Y-6.3
G2 X-19.386 Y-6.177 I1.237 J-1.359
G1 X-16.917 Y-4.364
G2 X-16.755 Y-4.258 I1.087 J-1.481
G1 X-14.146 Y-2.738
G2 X-13.975 Y-2.65 I0.925 J-1.588
G1 X-11.192 Y-1.398
G2 X-11.01 Y-1.327 I0.754 J-1.676
G1 X-8.078 Y-0.368
G2 X-7.889 Y-0.317 I0.571 J-1.746
G1 X-4.904 Y0.319
G2 X-4.714 Y0.349 I0.383 J-1.797
G1 X-1.729 Y0.665
G2 X-1.535 Y0.676 I0.194 J-1.827
G1 X1.535
G2 X1.729 Y0.665 J-1.837
G1 X4.714 Y0.349
G2 X4.904 Y0.319 I-0.194 J-1.827
G1 X7.889 Y-0.317
G2 X8.078 Y-0.368 I-0.383 J-1.797
G1 X11.01 Y-1.327
G2 X11.192 Y-1.398 I-0.571 J-1.746
G1 X13.975 Y-2.65
G2 X14.146 Y-2.738 I-0.754 J-1.676
G1 X16.755 Y-4.258
G2 X16.917 Y-4.364 I-0.925 J-1.588
G1 X19.386 Y-6.177
G2 X19.536 Y-6.3 I-1.087 J-1.481
G1 X21.743 Y-8.31
G2 X21.874 Y-8.441 I-1.237 J-1.359
G1 X22.698 Y-9.36
X22.705 Y-9.369
X23.963 Y-10.789
G2 X24.083 Y-10.94 I-1.376 J-1.218
G1 X25.855 Y-13.423
G2 X25.958 Y-13.584 I-1.496 J-1.067
G1 X27.423 Y-16.169
G2 X27.508 Y-16.341 I-1.599 J-0.906
G1 X28.838 Y-19.391
X28.962 Y-19.654
X29.482 Y-20.594
G3 X30.285 Y-21.601 I3.461 J1.936
G1 X30.913 Y-22.195
G3 X31.888 Y-22.854 I2.633 J2.846
G1 X32.728 Y-23.265
G3 X33.488 Y-23.529 I1.606 J3.388
X35.196 Y-23.773 I2.757 J13.216
G1 X46.727 Y-23.775
X46.997 Y-23.77
X47.215 Y-23.754
X48.461 Y-23.562
G3 X49.408 Y-23.262 I-0.662 J3.735
G1 X49.997 Y-22.965
X50.6 Y-22.649
X50.821 Y-22.509
X51.058 Y-22.333
G3 X52.337 Y-21.057 I-10.209 J11.505
G1 X52.51 Y-20.819
G3 X53.456 Y-18.924 I-9.643 J5.995
G1 X53.513 Y-18.692
X53.563 Y-18.455
X53.754 Y-17.208
X53.77 Y-17.005
X53.775 Y-14
Y1.007
X53.764 Y1.599
X53.743 Y1.813
X53.543 Y3.06
G3 X53.269 Y3.893 I-3.694 J-0.75
G1 X52.736 Y4.946
G3 X52.035 Y5.888 I-3.382 J-1.783
G1 X51.385 Y6.538
G3 X50.604 Y7.147 I-2.723 J-2.691
G1 X49.765 Y7.583
G3 X48.461 Y8.063 I-2.083 J-3.653
G1 X47.215 Y8.254
X47.01 Y8.269
X45.375 Y8.275
X40.174
G2 X38.894 Y8.794 J1.838
G1 X38.833 Y8.853
G2 X38.275 Y10.172 I1.279 J1.319
G1 Y16.719
X38.271 Y16.991
X38.254 Y17.208
X38.063 Y18.455
G3 X37.775 Y19.38 I-3.733 J-0.655
G1 X37.467 Y19.993
X37.149 Y20.6
G3 X36.332 Y21.591 I-3.706 J-2.223
X35.424 Y22.44 I-5.836 J-5.334
G1 X35.253 Y22.555
X35.081 Y22.661
X34.963 Y22.727
X33.894 Y23.269
G3 X33.074 Y23.54 I-1.586 J-3.424
G1 X32.147 Y23.692
X31.593 Y23.763
X31.028 Y23.775
X-31.028
X-31.593 Y23.763
X-32.147 Y23.692
X-33.074 Y23.539
G3 X-33.894 Y23.269 I0.765 J-3.695
G1 X-34.963 Y22.727
G3 X-35.905 Y22.018 I1.806 J-3.382
G1 X-36.553 Y21.37
G3 X-37.148 Y20.602 I2.702 J-2.706
G1 X-37.599 Y19.735
G3 X-38.064 Y18.455 I3.597 J-2.031
G1 X-38.254 Y17.208
X-38.27 Y17.005
X-38.275 Y14
Y10.172
G2 X-38.833 Y8.853 I-1.837
G1 X-38.894 Y8.794
G2 X-40.174 Y8.275 I-1.279 J1.319
G1 X-46.727
X-46.997 Y8.27
X-47.215 Y8.254
X-48.461 Y8.062
G3 X-49.385 Y7.773 I0.66 J-3.731
G1 X-49.998 Y7.465
X-50.602 Y7.148
G3 X-51.593 Y6.33 I2.226 J-3.708
X-52.449 Y5.41 I5.086 J-5.595
G1 X-52.56 Y5.246
X-52.661 Y5.081
X-52.736 Y4.946
X-53.269 Y3.893
G3 X-53.543 Y3.06 I3.421 J-1.584
G1 X-53.743 Y1.813
X-53.764 Y1.599
X-53.775 Y1.007
Y-16.719
X-53.771 Y-16.991
X-53.754 Y-17.208
X-53.563 Y-18.455
G3 X-53.263 Y-19.406 I3.737 J0.657
G1 X-52.967 Y-19.992
X-52.651 Y-20.597
X-52.511 Y-20.818
X-52.335 Y-21.056
G3 X-51.06 Y-22.334 I11.523 J10.218
G1 X-50.822 Y-22.508
G3 X-48.928 Y-23.454 I6.004 J9.651
G1 X-48.697 Y-23.512
X-48.461 Y-23.562
X-47.215 Y-23.754
X-47.01 Y-23.769
X-45.375 Y-23.775
X-45.37 Y-23.724
X-45.349 Y-23.695
G3 X-45.365 Y-23.673 I-0.016 J0.005
G1 X-46.914
G2 X-47.087 Y-23.665 J1.837
G1 X-47.258 Y-23.648
X-47.379 Y-23.633
X-48.518 Y-23.448
G2 X-48.758 Y-23.392 I0.295 J1.814
G1 X-48.991 Y-23.321
G2 X-49.164 Y-23.259 I0.535 J1.758
G1 X-49.28 Y-23.21
X-49.404 Y-23.153
G2 X-50.534 Y-22.572 I9.823 J20.482
X-50.708 Y-22.464 I0.88 J1.613
G1 X-50.89 Y-22.336
G2 X-51.06 Y-22.201 I1.055 J1.505
G1 X-51.298 Y-21.984
X-52.073 Y-21.204
G2 X-52.216 Y-21.042 I1.303 J1.295
G1 X-52.35 Y-20.872
G2 X-52.444 Y-20.739 I1.446 J1.134
G1 X-52.503 Y-20.649
G2 X-52.598 Y-20.486 I1.54 J1.002
G1 X-53.154 Y-19.401
G2 X-53.241 Y-19.204 I1.635 J0.839
G1 X-53.327 Y-18.973
G2 X-53.397 Y-18.741 I1.722 J0.642
G1 X-53.45 Y-18.51
X-53.474 Y-18.381
X-53.646 Y-17.271
G2 X-53.667 Y-17.043 I1.816 J0.281
G1 X-53.674 Y-16.787
X-53.675 Y-16.76
Y-16.733
X-53.671 Y1.452
G2 X-53.655 Y1.689 I1.837
X-53.447 Y3.023 I21.808 J-2.724
X-53.387 Y3.274 I1.813 J-0.296
G1 X-53.309 Y3.526
G2 X-53.245 Y3.698 I1.754 J-0.548
G1 X-53.205 Y3.794
X-53.15 Y3.91
X-52.619 Y4.95
G2 X-52.503 Y5.146 I1.636 J-0.836
G1 X-52.357 Y5.361
G2 X-52.234 Y5.522 I1.52 J-1.032
G1 X-52.139 Y5.633
X-52.039 Y5.741
X-51.211 Y6.567
G2 X-51.029 Y6.726 I1.297 J-1.301
G1 X-50.808 Y6.894
G2 X-50.592 Y7.036 I1.115 J-1.46
X-49.362 Y7.672 I8.383 J-14.716
X-49.136 Y7.768 I0.828 J-1.64
G1 X-48.88 Y7.857
G2 X-48.665 Y7.917 I0.602 J-1.736
G1 X-48.389 Y7.973
X-47.28 Y8.145
G2 X-47.058 Y8.166 I0.282 J-1.816
G1 X-46.802 Y8.174
X-46.772 Y8.175
X-46.743
X-38.175
X-38.173 Y16.905
G2 X-38.166 Y17.07 I1.837
G1 X-38.15 Y17.24
X-38.135 Y17.366
X-37.957 Y18.476
G2 X-37.908 Y18.694 I1.814 J-0.291
G1 X-37.835 Y18.95
G2 X-37.759 Y19.163 I1.766 J-0.509
G1 X-37.686 Y19.334
X-37.631 Y19.45
X-37.121 Y20.447
G2 X-37.008 Y20.639 I1.636 J-0.837
G1 X-36.862 Y20.854
G2 X-36.696 Y21.064 I1.522 J-1.029
X-35.691 Y22.085 I11.527 J-10.351
X-35.505 Y22.246 I1.294 J-1.305
G1 X-35.303 Y22.398
G2 X-35.131 Y22.514 I1.108 J-1.466
G1 X-34.992 Y22.596
X-34.889 Y22.653
X-33.904 Y23.153
G2 X-33.716 Y23.236 I0.832 J-1.638
G1 X-33.469 Y23.328
G2 X-33.302 Y23.382 I0.644 J-1.721
G1 X-33.22 Y23.404
G2 X-33.038 Y23.443 I0.478 J-1.774
G1 X-31.856 Y23.636
X-31.71 Y23.654
X-31.539 Y23.668
X-31.389 Y23.674
X31.389
X31.539 Y23.668
X31.71 Y23.654
X31.856 Y23.636
X33.038 Y23.443
G2 X33.304 Y23.379 I-0.296 J-1.814
G1 X33.551 Y23.3
G2 X33.726 Y23.234 I-0.561 J-1.75
G1 X33.832 Y23.187
G2 X34.964 Y22.611 I-7.652 J-16.427
X35.167 Y22.489 I-0.838 J-1.635
G1 X35.376 Y22.346
G2 X35.542 Y22.217 I-1.042 J-1.514
G1 X35.667 Y22.108
X35.764 Y22.018
X36.584 Y21.192
G2 X36.751 Y20.998 I-1.304 J-1.295
G1 X36.912 Y20.783
G2 X37.048 Y20.574 I-1.471 J-1.101
X37.676 Y19.354 I-16.109 J-9.064
X37.774 Y19.121 I-1.641 J-0.828
G1 X37.861 Y18.865
G2 X37.92 Y18.65 I-1.739 J-0.594
G1 X37.975 Y18.381
X38.146 Y17.271
G2 X38.167 Y17.043 I-1.816 J-0.281
G1 X38.174 Y16.787
X38.175 Y16.76
Y16.734
Y8.179
X39.24 Y8.175
X46.914 Y8.173
G2 X47.087 Y8.165 I-0.001 J-1.837
G1 X47.258 Y8.148
X47.376 Y8.133
X48.484 Y7.955
G2 X48.709 Y7.905 I-0.292 J-1.814
G1 X48.965 Y7.83
G2 X49.177 Y7.753 I-0.516 J-1.764
G1 X49.348 Y7.679
X49.458 Y7.627
X50.458 Y7.114
G2 X50.661 Y6.993 I-0.839 J-1.635
G1 X50.881 Y6.842
G2 X51.091 Y6.674 I-1.041 J-1.514
X52.043 Y5.737 I-12.509 J-13.669
X52.168 Y5.599 I-1.301 J-1.297
G1 X52.316 Y5.416
G2 X52.457 Y5.218 I-1.426 J-1.159
G1 X52.588 Y5.003
X52.661 Y4.874
X53.158 Y3.893
G2 X53.245 Y3.694 I-1.639 J-0.831
G1 X53.337 Y3.442
G2 X53.39 Y3.273 I-1.725 J-0.632
G1 X53.412 Y3.189
G2 X53.447 Y3.019 I-1.778 J-0.462
G1 X53.639 Y1.829
G2 X53.658 Y1.663 I-1.814 J-0.293
G1 X53.67 Y1.493
X53.675 Y1.366
X53.673 Y-16.905
G2 X53.666 Y-17.07 I-1.837
G1 X53.65 Y-17.24
X53.634 Y-17.369
X53.45 Y-18.509
G2 X53.397 Y-18.741 I-1.814 J0.293
G1 X53.327 Y-18.973
G2 X53.266 Y-19.145 I-1.761 J0.526
G1 X53.219 Y-19.261
X53.154 Y-19.401
X52.598 Y-20.486
G2 X52.472 Y-20.696 I-1.635 J0.839
G1 X52.346 Y-20.877
G2 X52.212 Y-21.048 I-1.509 J1.048
G1 X51.991 Y-21.291
X51.211 Y-22.067
G2 X51.055 Y-22.205 I-1.296 J1.303
G1 X50.884 Y-22.34
G2 X50.752 Y-22.436 I-1.14 J1.441
G1 X50.662 Y-22.495
G2 X50.498 Y-22.591 I-1.008 J1.536
G1 X49.634 Y-23.038
X49.614 Y-23.048
X49.396 Y-23.157
G2 X49.223 Y-23.233 I-0.824 J1.643
G1 X48.991 Y-23.321
G2 X48.758 Y-23.392 I-0.651 J1.718
G1 X48.526 Y-23.446
X48.389 Y-23.473
X47.28 Y-23.645
G2 X47.058 Y-23.666 I-0.282 J1.816
G1 X46.802 Y-23.674
X46.772 Y-23.675
X46.743
X35.825
X35.807
X35.125 Y-23.668
G2 X34.865 Y-23.647 I0.017 J1.837
G1 X33.671 Y-23.465
G2 X33.463 Y-23.421 I0.278 J1.816
G1 X33.292 Y-23.374
G2 X33.097 Y-23.309 I0.485 J1.772
G1 X32.879 Y-23.222
X32.747 Y-23.163
X31.771 Y-22.682
G2 X31.594 Y-22.582 I0.812 J1.648
G1 X31.424 Y-22.473
G2 X31.28 Y-22.371 I0.989 J1.549
G1 X31.161 Y-22.278
G2 X31.032 Y-22.167 I1.133 J1.446
G1 X30.219 Y-21.399
G2 X30.096 Y-21.271 I1.262 J1.336
G1 X29.947 Y-21.1
G2 X29.814 Y-20.929 I1.385 J1.207
G1 X29.698 Y-20.758
G2 X29.611 Y-20.618 I1.518 J1.036
G1 X29.087 Y-19.679
G2 X29.007 Y-19.517 I1.604 J0.896
G1 X27.593 Y-16.275
X25.991 Y-13.44
X24.058 Y-10.74
X21.927 Y-8.342
X19.518 Y-6.148
X16.903 Y-4.229
X14.117 Y-2.605
X11.106 Y-1.252
X8.05 Y-0.251
X4.829 Y0.438
X1.609 Y0.777
X-1.609
X-4.829 Y0.438
X-8.05 Y-0.251
X-11.106 Y-1.252
X-14.117 Y-2.605
X-16.903 Y-4.229
X-19.518 Y-6.148
X-21.926 Y-8.342
X-24.106 Y-10.8
X-25.99 Y-13.439
X-27.593 Y-16.275
X-29.007 Y-19.517
G2 X-29.087 Y-19.679 I-1.684 J0.735
G1 X-29.611 Y-20.618
G2 X-29.698 Y-20.758 I-1.604 J0.896
G1 X-29.814 Y-20.929
G2 X-29.947 Y-21.1 I-1.518 J1.036
G1 X-30.096 Y-21.271
G2 X-30.219 Y-21.399 I-1.385 J1.207
G1 X-31.032 Y-22.167
G2 X-31.202 Y-22.31 I-1.262 J1.336
G1 X-31.406 Y-22.46
G2 X-31.625 Y-22.6 I-1.092 J1.478
X-32.87 Y-23.217 I-7.911 J14.381
X-33.086 Y-23.305 I-0.799 J1.655
G1 X-33.28 Y-23.37
G2 X-33.501 Y-23.429 I-0.583 J1.743
X-34.872 Y-23.649 I-3.02 J14.458
X-35.138 Y-23.669 I-0.27 J1.818
G1 X-37.868 Y-23.675
X-45.365 Y-23.673
X-45.375
Z-2.5 F100
X-46.914 F200
G2 X-47.087 Y-23.665 J1.837
G1 X-47.258 Y-23.648
X-47.379 Y-23.633
X-48.518 Y-23.448
G2 X-48.758 Y-23.392 I0.295 J1.814
G1 X-48.991 Y-23.321
G2 X-49.164 Y-23.259 I0.535 J1.758
G1 X-49.28 Y-23.21
X-49.404 Y-23.153
G2 X-50.534 Y-22.572 I9.823 J20.482
X-50.708 Y-22.464 I0.88 J1.613
G1 X-50.89 Y-22.336
G2 X-51.06 Y-22.201 I1.055 J1.505
G1 X-51.298 Y-21.984
X-52.073 Y-21.204
G2 X-52.216 Y-21.042 I1.303 J1.295
G1 X-52.35 Y-20.872
G2 X-52.444 Y-20.739 I1.446 J1.134
G1 X-52.503 Y-20.649
G2 X-52.598 Y-20.486 I1.54 J1.002
G1 X-53.154 Y-19.401
G2 X-53.241 Y-19.204 I1.635 J0.839
G1 X-53.327 Y-18.973
G2 X-53.397 Y-18.741 I1.722 J0.642
G1 X-53.45 Y-18.51
X-53.474 Y-18.381
X-53.646 Y-17.271
G2 X-53.667 Y-17.043 I1.816 J0.281
G1 X-53.674 Y-16.787
X-53.675 Y-16.76
Y-16.733
X-53.671 Y1.452
G2 X-53.655 Y1.689 I1.837
X-53.447 Y3.023 I21.808 J-2.724
X-53.387 Y3.274 I1.813 J-0.296
G1 X-53.309 Y3.526
G2 X-53.245 Y3.698 I1.754 J-0.548
G1 X-53.205 Y3.794
X-53.15 Y3.91
X-52.619 Y4.95
G2 X-52.503 Y5.146 I1.636 J-0.836
G1 X-52.357 Y5.361
G2 X-52.234 Y5.522 I1.52 J-1.032
G1 X-52.139 Y5.633
X-52.039 Y5.741
X-51.211 Y6.567
G2 X-51.029 Y6.726 I1.297 J-1.301
G1 X-50.808 Y6.894
G2 X-50.592 Y7.036 I1.115 J-1.46
X-49.362 Y7.672 I8.383 J-14.716
X-49.136 Y7.768 I0.828 J-1.64
G1 X-48.88 Y7.857
G2 X-48.665 Y7.917 I0.602 J-1.736
G1 X-48.389 Y7.973
X-47.28 Y8.145
G2 X-47.058 Y8.166 I0.282 J-1.816
G1 X-46.802 Y8.174
X-46.772 Y8.175
X-46.743
X-38.175
X-38.173 Y16.905
G2 X-38.166 Y17.07 I1.837
G1 X-38.15 Y17.24
X-38.135 Y17.366
X-37.957 Y18.476
G2 X-37.908 Y18.694 I1.814 J-0.291
G1 X-37.835 Y18.95
G2 X-37.759 Y19.163 I1.766 J-0.509
G1 X-37.686 Y19.334
X-37.631 Y19.45
X-37.121 Y20.447
G2 X-37.008 Y20.639 I1.636 J-0.837
G1 X-36.862 Y20.854
G2 X-36.696 Y21.064 I1.522 J-1.029
X-35.691 Y22.085 I11.527 J-10.351
X-35.505 Y22.246 I1.294 J-1.305
G1 X-35.303 Y22.398
G2 X-35.131 Y22.514 I1.108 J-1.466
G1 X-34.992 Y22.596
X-34.889 Y22.653
X-33.904 Y23.153
G2 X-33.716 Y23.236 I0.832 J-1.638
G1 X-33.469 Y23.328
G2 X-33.302 Y23.382 I0.644 J-1.721
G1 X-33.22 Y23.404
G2 X-33.038 Y23.443 I0.478 J-1.774
G1 X-31.856 Y23.636
X-31.71 Y23.654
X-31.539 Y23.668
X-31.389 Y23.674
X31.389
X31.539 Y23.668
X31.71 Y23.654
X31.856 Y23.636
X33.038 Y23.443
G2 X33.304 Y23.379 I-0.296 J-1.814
G1 X33.551 Y23.3
G2 X33.726 Y23.234 I-0.561 J-1.75
G1 X33.832 Y23.187
G2 X34.964 Y22.611 I-7.652 J-16.427
X35.167 Y22.489 I-0.838 J-1.635
G1 X35.376 Y22.346
G2 X35.542 Y22.217 I-1.042 J-1.514
G1 X35.667 Y22.108
X35.764 Y22.018
X36.584 Y21.192
G2 X36.751 Y20.998 I-1.304 J-1.295
G1 X36.912 Y20.783
G2 X37.048 Y20.574 I-1.471 J-1.101
X37.676 Y19.354 I-16.109 J-9.064
X37.774 Y19.121 I-1.641 J-0.828
G1 X37.861 Y18.865
G2 X37.92 Y18.65 I-1.739 J-0.594
G1 X37.975 Y18.381
X38.146 Y17.271
G2 X38.167 Y17.043 I-1.816 J-0.281
G1 X38.174 Y16.787
X38.175 Y16.76
Y16.734
Y8.179
X39.24 Y8.175
X46.914 Y8.173
G2 X47.087 Y8.165 I-0.001 J-1.837
G1 X47.258 Y8.148
X47.376 Y8.133
X48.484 Y7.955
G2 X48.709 Y7.905 I-0.292 J-1.814
G1 X48.965 Y7.83
G2 X49.177 Y7.753 I-0.516 J-1.764
G1 X49.348 Y7.679
X49.458 Y7.627
X50.458 Y7.114
G2 X50.661 Y6.993 I-0.839 J-1.635
G1 X50.881 Y6.842
G2 X51.091 Y6.674 I-1.041 J-1.514
X52.043 Y5.737 I-12.509 J-13.669
X52.168 Y5.599 I-1.301 J-1.297
G1 X52.316 Y5.416
G2 X52.457 Y5.218 I-1.426 J-1.159
G1 X52.588 Y5.003
X52.661 Y4.874
X53.158 Y3.893
G2 X53.245 Y3.694 I-1.639 J-0.831
G1 X53.337 Y3.442
G2 X53.39 Y3.273 I-1.725 J-0.632
G1 X53.412 Y3.189
G2 X53.447 Y3.019 I-1.778 J-0.462
G1 X53.639 Y1.829
G2 X53.658 Y1.663 I-1.814 J-0.293
G1 X53.67 Y1.493
X53.675 Y1.366
X53.673 Y-16.905
G2 X53.666 Y-17.07 I-1.837
G1 X53.65 Y-17.24
X53.634 Y-17.369
X53.45 Y-18.509
G2 X53.397 Y-18.741 I-1.814 J0.293
G1 X53.327 Y-18.973
G2 X53.266 Y-19.145 I-1.761 J0.526
G1 X53.219 Y-19.261
X53.154 Y-19.401
X52.598 Y-20.486
G2 X52.472 Y-20.696 I-1.635 J0.839
G1 X52.346 Y-20.877
G2 X52.212 Y-21.048 I-1.509 J1.048
G1 X51.991 Y-21.291
X51.211 Y-22.067
G2 X51.055 Y-22.205 I-1.296 J1.303
G1 X50.884 Y-22.34
G2 X50.752 Y-22.436 I-1.14 J1.441
G1 X50.662 Y-22.495
G2 X50.498 Y-22.591 I-1.008 J1.536
G1 X49.634 Y-23.038
X49.614 Y-23.048
X49.396 Y-23.157
G2 X49.223 Y-23.233 I-0.824 J1.643
G1 X48.991 Y-23.321
G2 X48.758 Y-23.392 I-0.651 J1.718
G1 X48.526 Y-23.446
X48.389 Y-23.473
X47.28 Y-23.645
G2 X47.058 Y-23.666 I-0.282 J1.816
G1 X46.802 Y-23.674
X46.772 Y-23.675
X46.743
X35.825
X35.807
X35.125 Y-23.668
G2 X34.865 Y-23.647 I0.017 J1.837
G1 X33.671 Y-23.465
G2 X33.463 Y-23.421 I0.278 J1.816
G1 X33.292 Y-23.374
G2 X33.097 Y-23.309 I0.485 J1.772
G1 X32.879 Y-23.222
X32.747 Y-23.163
X31.771 Y-22.682
G2 X31.594 Y-22.582 I0.812 J1.648
G1 X31.424 Y-22.473
G2 X31.28 Y-22.371 I0.989 J1.549
G1 X31.161 Y-22.278
G2 X31.032 Y-22.167 I1.133 J1.446
G1 X30.219 Y-21.399
G2 X30.096 Y-21.271 I1.262 J1.336
G1 X29.947 Y-21.1
G2 X29.814 Y-20.929 I1.385 J1.207
G1 X29.698 Y-20.758
G2 X29.611 Y-20.618 I1.518 J1.036
G1 X29.087 Y-19.679
G2 X29.007 Y-19.517 I1.604 J0.896
G1 X27.593 Y-16.275
X25.991 Y-13.44
X24.058 Y-10.74
X21.927 Y-8.342
X19.518 Y-6.148
X16.903 Y-4.229
X14.117 Y-2.605
X11.106 Y-1.252
X8.05 Y-0.251
X4.829 Y0.438
X1.609 Y0.777
X-1.609
X-4.829 Y0.438
X-8.05 Y-0.251
X-11.106 Y-1.252
X-14.117 Y-2.605
X-16.903 Y-4.229
X-19.518 Y-6.148
X-21.926 Y-8.342
X-24.106 Y-10.8
X-25.99 Y-13.439
X-27.593 Y-16.275
X-29.007 Y-19.517
G2 X-29.087 Y-19.679 I-1.684 J0.735
G1 X-29.611 Y-20.618
G2 X-29.698 Y-20.758 I-1.604 J0.896
G1 X-29.814 Y-20.929
G2 X-29.947 Y-21.1 I-1.518 J1.036
G1 X-30.096 Y-21.271
G2 X-30.219 Y-21.399 I-1.385 J1.207
G1 X-31.032 Y-22.167
G2 X-31.202 Y-22.31 I-1.262 J1.336
G1 X-31.406 Y-22.46
G2 X-31.625 Y-22.6 I-1.092 J1.478
X-32.87 Y-23.217 I-7.911 J14.381
X-33.086 Y-23.305 I-0.799 J1.655
G1 X-33.28 Y-23.37
G2 X-33.501 Y-23.429 I-0.583 J1.743
X-34.872 Y-23.649 I-3.02 J14.458
X-35.138 Y-23.669 I-0.27 J1.818
G1 X-37.868 Y-23.675
X-45.375 Y-23.673
X-45.38 Y-23.724
X-45.401 Y-23.753
G3 X-45.385 Y-23.775 I0.016 J-0.005
G1 X-45.375
X-35.196 Y-23.773
G3 X-33.276 Y-23.476 I-0.883 J12.056
G1 X-33.038 Y-23.395
G3 X-31.396 Y-22.58 I-5.239 J12.613
G1 X-31.161 Y-22.406
X-30.911 Y-22.193
X-30.251 Y-21.569
G3 X-29.482 Y-20.594 I-2.67 J2.897
G1 X-28.962 Y-19.654
X-28.838 Y-19.391
X-27.508 Y-16.341
G2 X-27.422 Y-16.168 I1.684 J-0.734
G1 X-25.927 Y-13.534
G2 X-25.822 Y-13.37 I1.598 J-0.907
G1 X-24.037 Y-10.882
G2 X-23.917 Y-10.732 I1.493 J-1.071
G1 X-21.959 Y-8.529
X-21.863 Y-8.429
X-21.704 Y-8.274
X-21.684 Y-8.256
X-21.664 Y-8.237
X-19.536 Y-6.3
G2 X-19.386 Y-6.177 I1.237 J-1.359
G1 X-16.917 Y-4.364
G2 X-16.755 Y-4.258 I1.087 J-1.481
G1 X-14.146 Y-2.738
G2 X-13.975 Y-2.65 I0.925 J-1.588
G1 X-11.192 Y-1.398
G2 X-11.01 Y-1.327 I0.754 J-1.676
G1 X-8.078 Y-0.368
G2 X-7.889 Y-0.317 I0.571 J-1.746
G1 X-4.904 Y0.319
G2 X-4.714 Y0.349 I0.383 J-1.797
G1 X-1.729 Y0.665
G2 X-1.535 Y0.676 I0.194 J-1.827
G1 X1.535
G2 X1.729 Y0.665 J-1.837
G1 X4.714 Y0.349
G2 X4.904 Y0.319 I-0.194 J-1.827
G1 X7.889 Y-0.317
G2 X8.078 Y-0.368 I-0.383 J-1.797
G1 X11.01 Y-1.327
G2 X11.192 Y-1.398 I-0.571 J-1.746
G1 X13.975 Y-2.65
G2 X14.146 Y-2.738 I-0.754 J-1.676
G1 X16.755 Y-4.258
G2 X16.917 Y-4.364 I-0.925 J-1.588
G1 X19.386 Y-6.177
G2 X19.536 Y-6.3 I-1.087 J-1.481
G1 X21.743 Y-8.31
G2 X21.874 Y-8.441 I-1.237 J-1.359
G1 X22.698 Y-9.36
X22.705 Y-9.369
X23.963 Y-10.789
G2 X24.083 Y-10.94 I-1.376 J-1.218
G1 X25.855 Y-13.423
G2 X25.958 Y-13.584 I-1.496 J-1.067
G1 X27.423 Y-16.169
G2 X27.508 Y-16.341 I-1.599 J-0.906
G1 X28.838 Y-19.391
X28.962 Y-19.654
X29.482 Y-20.594
G3 X30.285 Y-21.601 I3.461 J1.936
G1 X30.913 Y-22.195
G3 X31.888 Y-22.854 I2.633 J2.846
G1 X32.728 Y-23.265
G3 X33.488 Y-23.529 I1.606 J3.388
X35.196 Y-23.773 I2.757 J13.216
G1 X46.727 Y-23.775
X46.997 Y-23.77
X47.215 Y-23.754
X48.461 Y-23.562
G3 X49.408 Y-23.262 I-0.662 J3.735
G1 X49.997 Y-22.965
X50.6 Y-22.649
X50.821 Y-22.509
X51.058 Y-22.333
G3 X52.337 Y-21.057 I-10.209 J11.505
G1 X52.51 Y-20.819
G3 X53.456 Y-18.924 I-9.643 J5.995
G1 X53.513 Y-18.692
X53.563 Y-18.455
X53.754 Y-17.208
X53.77 Y-17.005
X53.775 Y-14
Y1.007
X53.764 Y1.599
X53.743 Y1.813
X53.543 Y3.06
G3 X53.269 Y3.893 I-3.694 J-0.75
G1 X52.736 Y4.946
G3 X52.035 Y5.888 I-3.382 J-1.783
G1 X51.385 Y6.538
G3 X50.604 Y7.147 I-2.723 J-2.691
G1 X49.765 Y7.583
G3 X48.461 Y8.063 I-2.083 J-3.653
G1 X47.215 Y8.254
X47.01 Y8.269
X45.375 Y8.275
X40.174
G2 X38.894 Y8.794 J1.838
G1 X38.833 Y8.853
G2 X38.275 Y10.172 I1.279 J1.319
G1 Y16.719
X38.271 Y16.991
X38.254 Y17.208
X38.063 Y18.455
G3 X37.775 Y19.38 I-3.733 J-0.655
G1 X37.467 Y19.993
X37.149 Y20.6
G3 X36.332 Y21.591 I-3.706 J-2.223
X35.424 Y22.44 I-5.836 J-5.334
G1 X35.253 Y22.555
X35.081 Y22.661
X34.963 Y22.727
X33.894 Y23.269
G3 X33.074 Y23.54 I-1.586 J-3.424
G1 X32.147 Y23.692
X31.593 Y23.763
X31.028 Y23.775
X-31.028
X-31.593 Y23.763
X-32.147 Y23.692
X-33.074 Y23.539
G3 X-33.894 Y23.269 I0.765 J-3.695
G1 X-34.963 Y22.727
G3 X-35.905 Y22.018 I1.806 J-3.382
G1 X-36.553 Y21.37
G3 X-37.148 Y20.602 I2.702 J-2.706
G1 X-37.599 Y19.735
G3 X-38.064 Y18.455 I3.597 J-2.031
G1 X-38.254 Y17.208
X-38.27 Y17.005
X-38.275 Y14
Y10.172
G2 X-38.833 Y8.853 I-1.837
G1 X-38.894 Y8.794
G2 X-40.174 Y8.275 I-1.279 J1.319
G1 X-46.727
X-46.997 Y8.27
X-47.215 Y8.254
X-48.461 Y8.062
G3 X-49.385 Y7.773 I0.66 J-3.731
G1 X-49.998 Y7.465
X-50.602 Y7.148
G3 X-51.593 Y6.33 I2.226 J-3.708
X-52.449 Y5.41 I5.086 J-5.595
G1 X-52.56 Y5.246
X-52.661 Y5.081
X-52.736 Y4.946
X-53.269 Y3.893
G3 X-53.543 Y3.06 I3.421 J-1.584
G1 X-53.743 Y1.813
X-53.764 Y1.599
X-53.775 Y1.007
Y-16.719
X-53.771 Y-16.991
X-53.754 Y-17.208
X-53.563 Y-18.455
G3 X-53.263 Y-19.406 I3.737 J0.657
G1 X-52.967 Y-19.992
X-52.651 Y-20.597
X-52.511 Y-20.818
X-52.335 Y-21.056
G3 X-51.06 Y-22.334 I11.523 J10.218
G1 X-50.822 Y-22.508
G3 X-48.928 Y-23.454 I6.004 J9.651
G1 X-48.697 Y-23.512
X-48.461 Y-23.562
X-47.215 Y-23.754
X-47.01 Y-23.769
X-45.385 Y-23.775
X-45.375
Z-3.5 F100
X-35.196 Y-23.773 F200
X-34.963 Y-23.759
G3 X-33.276 Y-23.477 I-1.722 J15.5
G1 X-33.038 Y-23.395
G3 X-31.396 Y-22.58 I-5.239 J12.613
G1 X-31.161 Y-22.406
X-30.911 Y-22.193
X-30.251 Y-21.569
G3 X-29.482 Y-20.594 I-2.67 J2.897
G1 X-28.962 Y-19.654
X-28.838 Y-19.391
X-27.508 Y-16.341
G2 X-27.422 Y-16.168 I1.684 J-0.734
G1 X-25.927 Y-13.534
G2 X-25.822 Y-13.37 I1.598 J-0.907
G1 X-24.037 Y-10.882
G2 X-23.917 Y-10.732 I1.493 J-1.071
G1 X-21.959 Y-8.529
X-21.863 Y-8.429
X-21.704 Y-8.274
X-21.684 Y-8.256
X-21.664 Y-8.237
X-19.536 Y-6.3
G2 X-19.386 Y-6.177 I1.237 J-1.359
G1 X-16.917 Y-4.364
G2 X-16.755 Y-4.258 I1.087 J-1.481
G1 X-14.146 Y-2.738
G2 X-13.975 Y-2.65 I0.925 J-1.588
G1 X-11.192 Y-1.398
G2 X-11.01 Y-1.327 I0.754 J-1.676
G1 X-8.078 Y-0.368
G2 X-7.889 Y-0.317 I0.571 J-1.746
G1 X-4.904 Y0.319
G2 X-4.714 Y0.349 I0.383 J-1.797
G1 X-1.729 Y0.665
G2 X-1.535 Y0.676 I0.194 J-1.827
G1 X1.535
G2 X1.729 Y0.665 J-1.837
G1 X4.714 Y0.349
G2 X4.904 Y0.319 I-0.194 J-1.827
G1 X7.889 Y-0.317
G2 X8.078 Y-0.368 I-0.383 J-1.797
G1 X11.01 Y-1.327
G2 X11.192 Y-1.398 I-0.571 J-1.746
G1 X13.975 Y-2.65
G2 X14.146 Y-2.738 I-0.754 J-1.676
G1 X16.755 Y-4.258
G2 X16.917 Y-4.364 I-0.925 J-1.588
G1 X19.386 Y-6.177
G2 X19.536 Y-6.3 I-1.087 J-1.481
G1 X21.743 Y-8.31
G2 X21.874 Y-8.441 I-1.237 J-1.359
G1 X22.698 Y-9.36
X22.705 Y-9.369
X23.963 Y-10.789
G2 X24.083 Y-10.94 I-1.376 J-1.218
G1 X25.855 Y-13.423
G2 X25.958 Y-13.584 I-1.496 J-1.067
G1 X27.423 Y-16.169
G2 X27.508 Y-16.341 I-1.599 J-0.906
G1 X28.838 Y-19.391
X28.962 Y-19.654
X29.482 Y-20.594
G3 X30.285 Y-21.601 I3.461 J1.936
G1 X30.913 Y-22.195
G3 X31.888 Y-22.854 I2.633 J2.846
G1 X32.728 Y-23.265
G3 X33.488 Y-23.529 I1.606 J3.388
X35.196 Y-23.773 I2.757 J13.216
G1 X46.727 Y-23.775
X46.997 Y-23.77
X47.215 Y-23.754
X48.461 Y-23.562
G3 X49.408 Y-23.262 I-0.662 J3.735
G1 X49.997 Y-22.965
X50.6 Y-22.649
X50.821 Y-22.509
X51.058 Y-22.333
G3 X52.337 Y-21.057 I-10.209 J11.505
G1 X52.51 Y-20.819
G3 X53.456 Y-18.924 I-9.643 J5.995
G1 X53.513 Y-18.692
X53.563 Y-18.455
X53.754 Y-17.208
X53.77 Y-17.005
X53.775 Y-14
Y1.007
X53.764 Y1.599
X53.743 Y1.813
X53.543 Y3.06
G3 X53.269 Y3.893 I-3.694 J-0.75
G1 X52.736 Y4.946
G3 X52.035 Y5.888 I-3.382 J-1.783
G1 X51.385 Y6.538
G3 X50.604 Y7.147 I-2.723 J-2.691
G1 X49.765 Y7.583
G3 X48.461 Y8.063 I-2.083 J-3.653
G1 X47.215 Y8.254
X47.01 Y8.269
X45.375 Y8.275
X40.174
G2 X38.894 Y8.794 J1.838
G1 X38.833 Y8.853
G2 X38.275 Y10.172 I1.279 J1.319
G1 Y16.719
X38.271 Y16.991
X38.254 Y17.208
X38.063 Y18.455
G3 X37.775 Y19.38 I-3.733 J-0.655
G1 X37.467 Y19.993
X37.149 Y20.6
G3 X36.332 Y21.591 I-3.706 J-2.223
X35.424 Y22.44 I-5.836 J-5.334
G1 X35.253 Y22.555
X35.081 Y22.661
X34.963 Y22.727
X33.894 Y23.269
G3 X33.074 Y23.54 I-1.586 J-3.424
G1 X32.147 Y23.692
X31.593 Y23.763
X31.028 Y23.775
X-31.028
X-31.593 Y23.763
X-32.147 Y23.692
X-33.074 Y23.539
G3 X-33.894 Y23.269 I0.765 J-3.695
G1 X-34.963 Y22.727
G3 X-35.905 Y22.018 I1.806 J-3.382
G1 X-36.553 Y21.37
G3 X-37.148 Y20.602 I2.702 J-2.706
G1 X-37.599 Y19.735
G3 X-38.064 Y18.455 I3.597 J-2.031
G1 X-38.254 Y17.208
X-38.27 Y17.005
X-38.275 Y14
Y10.172
G2 X-38.833 Y8.853 I-1.837
G1 X-38.894 Y8.794
G2 X-40.174 Y8.275 I-1.279 J1.319
G1 X-46.727
X-46.997 Y8.27
X-47.215 Y8.254
X-48.461 Y8.062
G3 X-49.385 Y7.773 I0.66 J-3.731
G1 X-49.998 Y7.465
X-50.602 Y7.148
G3 X-51.593 Y6.33 I2.226 J-3.708
X-52.449 Y5.41 I5.086 J-5.595
G1 X-52.56 Y5.246
X-52.661 Y5.081
X-52.736 Y4.946
X-53.269 Y3.893
G3 X-53.543 Y3.06 I3.421 J-1.584
G1 X-53.743 Y1.813
X-53.764 Y1.599
X-53.775 Y1.007
Y-16.719
X-53.771 Y-16.991
X-53.754 Y-17.208
X-53.563 Y-18.455
G3 X-53.263 Y-19.406 I3.737 J0.657
G1 X-52.967 Y-19.992
X-52.651 Y-20.597
X-52.511 Y-20.818
X-52.335 Y-21.056
G3 X-51.06 Y-22.334 I11.523 J10.218
G1 X-50.822 Y-22.508
G3 X-48.928 Y-23.454 I6.004 J9.651
G1 X-48.697 Y-23.512
X-48.461 Y-23.562
X-47.215 Y-23.754
X-47.01 Y-23.769
X-45.375 Y-23.775
X-45.37 Y-23.724
X-45.349 Y-23.695
G3 X-45.365 Y-23.673 I-0.016 J0.005
G1 X-46.914
G2 X-47.087 Y-23.665 J1.837
G1 X-47.258 Y-23.648
X-47.379 Y-23.633
X-48.518 Y-23.448
G2 X-48.758 Y-23.392 I0.295 J1.814
G1 X-48.991 Y-23.321
G2 X-49.164 Y-23.259 I0.535 J1.758
G1 X-49.28 Y-23.21
X-49.404 Y-23.153
G2 X-50.534 Y-22.572 I9.823 J20.482
X-50.708 Y-22.464 I0.88 J1.613
G1 X-50.89 Y-22.336
G2 X-51.06 Y-22.201 I1.055 J1.505
G1 X-51.298 Y-21.984
X-52.073 Y-21.204
G2 X-52.216 Y-21.042 I1.303 J1.295
G1 X-52.35 Y-20.872
G2 X-52.444 Y-20.739 I1.446 J1.134
G1 X-52.503 Y-20.649
G2 X-52.598 Y-20.486 I1.54 J1.002
G1 X-53.154 Y-19.401
G2 X-53.241 Y-19.204 I1.635 J0.839
G1 X-53.327 Y-18.973
G2 X-53.397 Y-18.741 I1.722 J0.642
G1 X-53.45 Y-18.51
X-53.474 Y-18.381
X-53.646 Y-17.271
G2 X-53.667 Y-17.043 I1.816 J0.281
G1 X-53.674 Y-16.787
X-53.675 Y-16.76
Y-16.733
X-53.671 Y1.452
G2 X-53.655 Y1.689 I1.837
X-53.447 Y3.023 I21.808 J-2.724
X-53.387 Y3.274 I1.813 J-0.296
G1 X-53.309 Y3.526
G2 X-53.245 Y3.698 I1.754 J-0.548
G1 X-53.205 Y3.794
X-53.15 Y3.91
X-52.619 Y4.95
G2 X-52.503 Y5.146 I1.636 J-0.836
G1 X-52.357 Y5.361
G2 X-52.234 Y5.522 I1.52 J-1.032
G1 X-52.139 Y5.633
X-52.039 Y5.741
X-51.211 Y6.567
G2 X-51.029 Y6.726 I1.297 J-1.301
G1 X-50.808 Y6.894
G2 X-50.592 Y7.036 I1.115 J-1.46
X-49.362 Y7.672 I8.383 J-14.716
X-49.136 Y7.768 I0.828 J-1.64
G1 X-48.88 Y7.857
G2 X-48.665 Y7.917 I0.602 J-1.736
G1 X-48.389 Y7.973
X-47.28 Y8.145
G2 X-47.058 Y8.166 I0.282 J-1.816
G1 X-46.802 Y8.174
X-46.772 Y8.175
X-46.743
X-38.175
X-38.173 Y16.905
G2 X-38.166 Y17.07 I1.837
G1 X-38.15 Y17.24
X-38.135 Y17.366
X-37.957 Y18.476
G2 X-37.908 Y18.694 I1.814 J-0.291
G1 X-37.835 Y18.95
G2 X-37.759 Y19.163 I1.766 J-0.509
G1 X-37.686 Y19.334
X-37.631 Y19.45
X-37.121 Y20.447
G2 X-37.008 Y20.639 I1.636 J-0.837
G1 X-36.862 Y20.854
G2 X-36.696 Y21.064 I1.522 J-1.029
X-35.691 Y22.085 I11.527 J-10.351
X-35.505 Y22.246 I1.294 J-1.305
G1 X-35.303 Y22.398
G2 X-35.131 Y22.514 I1.108 J-1.466
G1 X-34.992 Y22.596
X-34.889 Y22.653
X-33.904 Y23.153
G2 X-33.716 Y23.236 I0.832 J-1.638
G1 X-33.469 Y23.328
G2 X-33.302 Y23.382 I0.644 J-1.721
G1 X-33.22 Y23.404
G2 X-33.038 Y23.443 I0.478 J-1.774
G1 X-31.856 Y23.636
X-31.71 Y23.654
X-31.539 Y23.668
X-31.389 Y23.674
X31.389
X31.539 Y23.668
X31.71 Y23.654
X31.856 Y23.636
X33.038 Y23.443
G2 X33.304 Y23.379 I-0.296 J-1.814
G1 X33.551 Y23.3
G2 X33.726 Y23.234 I-0.561 J-1.75
G1 X33.832 Y23.187
G2 X34.964 Y22.611 I-7.652 J-16.427
X35.167 Y22.489 I-0.838 J-1.635
G1 X35.376 Y22.346
G2 X35.542 Y22.217 I-1.042 J-1.514
G1 X35.667 Y22.108
X35.764 Y22.018
X36.584 Y21.192
G2 X36.751 Y20.998 I-1.304 J-1.295
G1 X36.912 Y20.783
G2 X37.048 Y20.574 I-1.471 J-1.101
X37.676 Y19.354 I-16.109 J-9.064
X37.774 Y19.121 I-1.641 J-0.828
G1 X37.861 Y18.865
G2 X37.92 Y18.65 I-1.739 J-0.594
G1 X37.975 Y18.381
X38.146 Y17.271
G2 X38.167 Y17.043 I-1.816 J-0.281
G1 X38.174 Y16.787
X38.175 Y16.76
Y16.734
Y8.179
X39.24 Y8.175
X46.914 Y8.173
G2 X47.087 Y8.165 I-0.001 J-1.837
G1 X47.258 Y8.148
X47.376 Y8.133
X48.484 Y7.955
G2 X48.709 Y7.905 I-0.292 J-1.814
G1 X48.965 Y7.83
G2 X49.177 Y7.753 I-0.516 J-1.764
G1 X49.348 Y7.679
X49.458 Y7.627
X50.458 Y7.114
G2 X50.661 Y6.993 I-0.839 J-1.635
G1 X50.881 Y6.842
G2 X51.091 Y6.674 I-1.041 J-1.514
X52.043 Y5.737 I-12.509 J-13.669
X52.168 Y5.599 I-1.301 J-1.297
G1 X52.316 Y5.416
G2 X52.457 Y5.218 I-1.426 J-1.159
G1 X52.588 Y5.003
X52.661 Y4.874
X53.158 Y3.893
G2 X53.245 Y3.694 I-1.639 J-0.831
G1 X53.337 Y3.442
G2 X53.39 Y3.273 I-1.725 J-0.632
G1 X53.412 Y3.189
G2 X53.447 Y3.019 I-1.778 J-0.462
G1 X53.639 Y1.829
G2 X53.658 Y1.663 I-1.814 J-0.293
G1 X53.67 Y1.493
X53.675 Y1.366
X53.673 Y-16.905
G2 X53.666 Y-17.07 I-1.837
G1 X53.65 Y-17.24
X53.634 Y-17.369
X53.45 Y-18.509
G2 X53.397 Y-18.741 I-1.814 J0.293
G1 X53.327 Y-18.973
G2 X53.266 Y-19.145 I-1.761 J0.526
G1 X53.219 Y-19.261
X53.154 Y-19.401
X52.598 Y-20.486
G2 X52.472 Y-20.696 I-1.635 J0.839
G1 X52.346 Y-20.877
G2 X52.212 Y-21.048 I-1.509 J1.048
G1 X51.991 Y-21.291
X51.211 Y-22.067
G2 X51.055 Y-22.205 I-1.296 J1.303
G1 X50.884 Y-22.34
G2 X50.752 Y-22.436 I-1.14 J1.441
G1 X50.662 Y-22.495
G2 X50.498 Y-22.591 I-1.008 J1.536
G1 X49.634 Y-23.038
X49.614 Y-23.048
X49.396 Y-23.157
G2 X49.223 Y-23.233 I-0.824 J1.643
G1 X48.991 Y-23.321
G2 X48.758 Y-23.392 I-0.651 J1.718
G1 X48.526 Y-23.446
X48.389 Y-23.473
X47.28 Y-23.645
G2 X47.058 Y-23.666 I-0.282 J1.816
G1 X46.802 Y-23.674
X46.772 Y-23.675
X46.743
X35.825
X35.807
X35.125 Y-23.668
G2 X34.865 Y-23.647 I0.017 J1.837
G1 X33.671 Y-23.465
G2 X33.463 Y-23.421 I0.278 J1.816
G1 X33.292 Y-23.374
G2 X33.097 Y-23.309 I0.485 J1.772
G1 X32.879 Y-23.222
X32.747 Y-23.163
X31.771 Y-22.682
G2 X31.594 Y-22.582 I0.812 J1.648
G1 X31.424 Y-22.473
G2 X31.28 Y-22.371 I0.989 J1.549
G1 X31.161 Y-22.278
G2 X31.032 Y-22.167 I1.133 J1.446
G1 X30.219 Y-21.399
G2 X30.096 Y-21.271 I1.262 J1.336
G1 X29.947 Y-21.1
G2 X29.814 Y-20.929 I1.385 J1.207
G1 X29.698 Y-20.758
G2 X29.611 Y-20.618 I1.518 J1.036
G1 X29.087 Y-19.679
G2 X29.007 Y-19.517 I1.604 J0.896
G1 X27.593 Y-16.275
X25.991 Y-13.44
X24.058 Y-10.74
X21.927 Y-8.342
X19.518 Y-6.148
X16.903 Y-4.229
X14.117 Y-2.605
X11.106 Y-1.252
X8.05 Y-0.251
X4.829 Y0.438
X1.609 Y0.777
X-1.609
X-4.829 Y0.438
X-8.05 Y-0.251
X-11.106 Y-1.252
X-14.117 Y-2.605
X-16.903 Y-4.229
X-19.518 Y-6.148
X-21.926 Y-8.342
X-24.106 Y-10.8
X-25.99 Y-13.439
X-27.593 Y-16.275
X-29.007 Y-19.517
G2 X-29.087 Y-19.679 I-1.684 J0.735
G1 X-29.611 Y-20.618
G2 X-29.698 Y-20.758 I-1.604 J0.896
G1 X-29.814 Y-20.929
G2 X-29.947 Y-21.1 I-1.518 J1.036
G1 X-30.096 Y-21.271
G2 X-30.219 Y-21.399 I-1.385 J1.207
G1 X-31.032 Y-22.167
G2 X-31.202 Y-22.31 I-1.262 J1.336
G1 X-31.406 Y-22.46
G2 X-31.625 Y-22.6 I-1.092 J1.478
X-32.87 Y-23.217 I-7.911 J14.381
X-33.086 Y-23.305 I-0.799 J1.655
G1 X-33.28 Y-23.37
G2 X-33.501 Y-23.429 I-0.583 J1.743
X-34.872 Y-23.649 I-3.02 J14.458
X-35.138 Y-23.669 I-0.27 J1.818
G1 X-37.868 Y-23.675
X-45.365 Y-23.673
X-45.375
Z-4.5 F100
X-46.914 F200
G2 X-47.087 Y-23.665 J1.837
G1 X-47.258 Y-23.648
X-47.379 Y-23.633
X-48.518 Y-23.448
G2 X-48.758 Y-23.392 I0.295 J1.814
G1 X-48.991 Y-23.321
G2 X-49.164 Y-23.259 I0.535 J1.758
G1 X-49.28 Y-23.21
X-49.404 Y-23.153
G2 X-50.534 Y-22.572 I9.823 J20.482
X-50.708 Y-22.464 I0.88 J1.613
G1 X-50.89 Y-22.336
G2 X-51.06 Y-22.201 I1.055 J1.505
G1 X-51.298 Y-21.984
X-52.073 Y-21.204
G2 X-52.216 Y-21.042 I1.303 J1.295
G1 X-52.35 Y-20.872
G2 X-52.444 Y-20.739 I1.446 J1.134
G1 X-52.503 Y-20.649
G2 X-52.598 Y-20.486 I1.54 J1.002
G1 X-53.154 Y-19.401
G2 X-53.241 Y-19.204 I1.635 J0.839
G1 X-53.327 Y-18.973
G2 X-53.397 Y-18.741 I1.722 J0.642
G1 X-53.45 Y-18.51
X-53.474 Y-18.381
X-53.646 Y-17.271
G2 X-53.667 Y-17.043 I1.816 J0.281
G1 X-53.674 Y-16.787
X-53.675 Y-16.76
Y-16.733
X-53.671 Y1.452
G2 X-53.655 Y1.689 I1.837
X-53.447 Y3.023 I21.808 J-2.724
X-53.387 Y3.274 I1.813 J-0.296
G1 X-53.309 Y3.526
G2 X-53.245 Y3.698 I1.754 J-0.548
G1 X-53.205 Y3.794
X-53.15 Y3.91
X-52.619 Y4.95
G2 X-52.503 Y5.146 I1.636 J-0.836
G1 X-52.357 Y5.361
G2 X-52.234 Y5.522 I1.52 J-1.032
G1 X-52.139 Y5.633
X-52.039 Y5.741
X-51.211 Y6.567
G2 X-51.029 Y6.726 I1.297 J-1.301
G1 X-50.808 Y6.894
G2 X-50.592 Y7.036 I1.115 J-1.46
X-49.362 Y7.672 I8.383 J-14.716
X-49.136 Y7.768 I0.828 J-1.64
G1 X-48.88 Y7.857
G2 X-48.665 Y7.917 I0.602 J-1.736
G1 X-48.389 Y7.973
X-47.28 Y8.145
G2 X-47.058 Y8.166 I0.282 J-1.816
G1 X-46.802 Y8.174
X-46.772 Y8.175
X-46.743
X-38.175
X-38.173 Y16.905
G2 X-38.166 Y17.07 I1.837
G1 X-38.15 Y17.24
X-38.135 Y17.366
X-37.957 Y18.476
G2 X-37.908 Y18.694 I1.814 J-0.291
G1 X-37.835 Y18.95
G2 X-37.759 Y19.163 I1.766 J-0.509
G1 X-37.686 Y19.334
X-37.631 Y19.45
X-37.121 Y20.447
G2 X-37.008 Y20.639 I1.636 J-0.837
G1 X-36.862 Y20.854
G2 X-36.696 Y21.064 I1.522 J-1.029
X-35.691 Y22.085 I11.527 J-10.351
X-35.505 Y22.246 I1.294 J-1.305
G1 X-35.303 Y22.398
G2 X-35.131 Y22.514 I1.108 J-1.466
G1 X-34.992 Y22.596
X-34.889 Y22.653
X-33.904 Y23.153
G2 X-33.716 Y23.236 I0.832 J-1.638
G1 X-33.469 Y23.328
G2 X-33.302 Y23.382 I0.644 J-1.721
G1 X-33.22 Y23.404
G2 X-33.038 Y23.443 I0.478 J-1.774
G1 X-31.856 Y23.636
X-31.71 Y23.654
X-31.539 Y23.668
X-31.389 Y23.674
X31.389
X31.539 Y23.668
X31.71 Y23.654
X31.856 Y23.636
X33.038 Y23.443
G2 X33.304 Y23.379 I-0.296 J-1.814
G1 X33.551 Y23.3
G2 X33.726 Y23.234 I-0.561 J-1.75
G1 X33.832 Y23.187
G2 X34.964 Y22.611 I-7.652 J-16.427
X35.167 Y22.489 I-0.838 J-1.635
G1 X35.376 Y22.346
G2 X35.542 Y22.217 I-1.042 J-1.514
G1 X35.667 Y22.108
X35.764 Y22.018
X36.584 Y21.192
G2 X36.751 Y20.998 I-1.304 J-1.295
G1 X36.912 Y20.783
G2 X37.048 Y20.574 I-1.471 J-1.101
X37.676 Y19.354 I-16.109 J-9.064
X37.774 Y19.121 I-1.641 J-0.828
G1 X37.861 Y18.865
G2 X37.92 Y18.65 I-1.739 J-0.594
G1 X37.975 Y18.381
X38.146 Y17.271
G2 X38.167 Y17.043 I-1.816 J-0.281
G1 X38.174 Y16.787
X38.175 Y16.76
Y16.734
Y8.179
X39.24 Y8.175
X46.914 Y8.173
G2 X47.087 Y8.165 I-0.001 J-1.837
G1 X47.258 Y8.148
X47.376 Y8.133
X48.484 Y7.955
G2 X48.709 Y7.905 I-0.292 J-1.814
G1 X48.965 Y7.83
G2 X49.177 Y7.753 I-0.516 J-1.764
G1 X49.348 Y7.679
X49.458 Y7.627
X50.458 Y7.114
G2 X50.661 Y6.993 I-0.839 J-1.635
G1 X50.881 Y6.842
G2 X51.091 Y6.674 I-1.041 J-1.514
X52.043 Y5.737 I-12.509 J-13.669
X52.168 Y5.599 I-1.301 J-1.297
G1 X52.316 Y5.416
G2 X52.457 Y5.218 I-1.426 J-1.159
G1 X52.588 Y5.003
X52.661 Y4.874
X53.158 Y3.893
G2 X53.245 Y3.694 I-1.639 J-0.831
G1 X53.337 Y3.442
G2 X53.39 Y3.273 I-1.725 J-0.632
G1 X53.412 Y3.189
G2 X53.447 Y3.019 I-1.778 J-0.462
G1 X53.639 Y1.829
G2 X53.658 Y1.663 I-1.814 J-0.293
G1 X53.67 Y1.493
X53.675 Y1.366
X53.673 Y-16.905
G2 X53.666 Y-17.07 I-1.837
G1 X53.65 Y-17.24
X53.634 Y-17.369
X53.45 Y-18.509
G2 X53.397 Y-18.741 I-1.814 J0.293
G1 X53.327 Y-18.973
G2 X53.266 Y-19.145 I-1.761 J0.526
G1 X53.219 Y-19.261
X53.154 Y-19.401
X52.598 Y-20.486
G2 X52.472 Y-20.696 I-1.635 J0.839
G1 X52.346 Y-20.877
G2 X52.212 Y-21.048 I-1.509 J1.048
G1 X51.991 Y-21.291
X51.211 Y-22.067
G2 X51.055 Y-22.205 I-1.296 J1.303
G1 X50.884 Y-22.34
G2 X50.752 Y-22.436 I-1.14 J1.441
G1 X50.662 Y-22.495
G2 X50.498 Y-22.591 I-1.008 J1.536
G1 X49.634 Y-23.038
X49.614 Y-23.048
X49.396 Y-23.157
G2 X49.223 Y-23.233 I-0.824 J1.643
G1 X48.991 Y-23.321
G2 X48.758 Y-23.392 I-0.651 J1.718
G1 X48.526 Y-23.446
X48.389 Y-23.473
X47.28 Y-23.645
G2 X47.058 Y-23.666 I-0.282 J1.816
G1 X46.802 Y-23.674
X46.772 Y-23.675
X46.743
X35.825
X35.807
X35.125 Y-23.668
G2 X34.865 Y-23.647 I0.017 J1.837
G1 X33.671 Y-23.465
G2 X33.463 Y-23.421 I0.278 J1.816
G1 X33.292 Y-23.374
G2 X33.097 Y-23.309 I0.485 J1.772
G1 X32.879 Y-23.222
X32.747 Y-23.163
X31.771 Y-22.682
G2 X31.594 Y-22.582 I0.812 J1.648
G1 X31.424 Y-22.473
G2 X31.28 Y-22.371 I0.989 J1.549
G1 X31.161 Y-22.278
G2 X31.032 Y-22.167 I1.133 J1.446
G1 X30.219 Y-21.399
G2 X30.096 Y-21.271 I1.262 J1.336
G1 X29.947 Y-21.1
G2 X29.814 Y-20.929 I1.385 J1.207
G1 X29.698 Y-20.758
G2 X29.611 Y-20.618 I1.518 J1.036
G1 X29.087 Y-19.679
G2 X29.007 Y-19.517 I1.604 J0.896
G1 X27.593 Y-16.275
X25.991 Y-13.44
X24.058 Y-10.74
X21.927 Y-8.342
X19.518 Y-6.148
X16.903 Y-4.229
X14.117 Y-2.605
X11.106 Y-1.252
X8.05 Y-0.251
X4.829 Y0.438
X1.609 Y0.777
X-1.609
X-4.829 Y0.438
X-8.05 Y-0.251
X-11.106 Y-1.252
X-14.117 Y-2.605
X-16.903 Y-4.229
X-19.518 Y-6.148
X-21.926 Y-8.342
X-24.106 Y-10.8
X-25.99 Y-13.439
X-27.593 Y-16.275
X-29.007 Y-19.517
G2 X-29.087 Y-19.679 I-1.684 J0.735
G1 X-29.611 Y-20.618
G2 X-29.698 Y-20.758 I-1.604 J0.896
G1 X-29.814 Y-20.929
G2 X-29.947 Y-21.1 I-1.518 J1.036
G1 X-30.096 Y-21.271
G2 X-30.219 Y-21.399 I-1.385 J1.207
G1 X-31.032 Y-22.167
G2 X-31.202 Y-22.31 I-1.262 J1.336
G1 X-31.406 Y-22.46
G2 X-31.625 Y-22.6 I-1.092 J1.478
X-32.87 Y-23.217 I-7.911 J14.381
X-33.086 Y-23.305 I-0.799 J1.655
G1 X-33.28 Y-23.37
G2 X-33.501 Y-23.429 I-0.583 J1.743
X-34.872 Y-23.649 I-3.02 J14.458
X-35.138 Y-23.669 I-0.27 J1.818
G1 X-37.868 Y-23.675
X-45.375 Y-23.673
X-45.38 Y-23.724
X-45.401 Y-23.753
G3 X-45.385 Y-23.775 I0.016 J-0.005
G1 X-45.375
X-35.196 Y-23.773
G3 X-33.276 Y-23.476 I-0.883 J12.056
G1 X-33.038 Y-23.395
G3 X-31.396 Y-22.58 I-5.239 J12.613
G1 X-31.161 Y-22.406
X-30.911 Y-22.193
X-30.251 Y-21.569
G3 X-29.482 Y-20.594 I-2.67 J2.897
G1 X-28.962 Y-19.654
X-28.838 Y-19.391
X-27.508 Y-16.341
G2 X-27.422 Y-16.168 I1.684 J-0.734
G1 X-25.927 Y-13.534
G2 X-25.822 Y-13.37 I1.598 J-0.907
G1 X-24.037 Y-10.882
G2 X-23.917 Y-10.732 I1.493 J-1.071
G1 X-21.959 Y-8.529
X-21.863 Y-8.429
X-21.704 Y-8.274
X-21.684 Y-8.256
X-21.664 Y-8.237
X-19.536 Y-6.3
G2 X-19.386 Y-6.177 I1.237 J-1.359
G1 X-16.917 Y-4.364
G2 X-16.755 Y-4.258 I1.087 J-1.481
G1 X-14.146 Y-2.738
G2 X-13.975 Y-2.65 I0.925 J-1.588
G1 X-11.192 Y-1.398
G2 X-11.01 Y-1.327 I0.754 J-1.676
G1 X-8.078 Y-0.368
G2 X-7.889 Y-0.317 I0.571 J-1.746
G1 X-4.904 Y0.319
G2 X-4.714 Y0.349 I0.383 J-1.797
G1 X-1.729 Y0.665
G2 X-1.535 Y0.676 I0.194 J-1.827
G1 X1.535
G2 X1.729 Y0.665 J-1.837
G1 X4.714 Y0.349
G2 X4.904 Y0.319 I-0.194 J-1.827
G1 X7.889 Y-0.317
G2 X8.078 Y-0.368 I-0.383 J-1.797
G1 X11.01 Y-1.327
G2 X11.192 Y-1.398 I-0.571 J-1.746
G1 X13.975 Y-2.65
G2 X14.146 Y-2.738 I-0.754 J-1.676
G1 X16.755 Y-4.258
G2 X16.917 Y-4.364 I-0.925 J-1.588
G1 X19.386 Y-6.177
G2 X19.536 Y-6.3 I-1.087 J-1.481
G1 X21.743 Y-8.31
G2 X21.874 Y-8.441 I-1.237 J-1.359
G1 X22.698 Y-9.36
X22.705 Y-9.369
X23.963 Y-10.789
G2 X24.083 Y-10.94 I-1.376 J-1.218
G1 X25.855 Y-13.423
G2 X25.958 Y-13.584 I-1.496 J-1.067
G1 X27.423 Y-16.169
G2 X27.508 Y-16.341 I-1.599 J-0.906
G1 X28.838 Y-19.391
X28.962 Y-19.654
X29.482 Y-20.594
G3 X30.285 Y-21.601 I3.461 J1.936
G1 X30.913 Y-22.195
G3 X31.888 Y-22.854 I2.633 J2.846
G1 X32.728 Y-23.265
G3 X33.488 Y-23.529 I1.606 J3.388
X35.196 Y-23.773 I2.757 J13.216
G1 X46.727 Y-23.775
X46.997 Y-23.77
X47.215 Y-23.754
X48.461 Y-23.562
G3 X49.408 Y-23.262 I-0.662 J3.735
G1 X49.997 Y-22.965
X50.6 Y-22.649
X50.821 Y-22.509
X51.058 Y-22.333
G3 X52.337 Y-21.057 I-10.209 J11.505
G1 X52.51 Y-20.819
G3 X53.456 Y-18.924 I-9.643 J5.995
G1 X53.513 Y-18.692
X53.563 Y-18.455
X53.754 Y-17.208
X53.77 Y-17.005
X53.775 Y-14
Y1.007
X53.764 Y1.599
X53.743 Y1.813
X53.543 Y3.06
G3 X53.269 Y3.893 I-3.694 J-0.75
G1 X52.736 Y4.946
G3 X52.035 Y5.888 I-3.382 J-1.783
G1 X51.385 Y6.538
G3 X50.604 Y7.147 I-2.723 J-2.691
G1 X49.765 Y7.583
G3 X48.461 Y8.063 I-2.083 J-3.653
G1 X47.215 Y8.254
X47.01 Y8.269
X45.375 Y8.275
X40.174
G2 X38.894 Y8.794 J1.838
G1 X38.833 Y8.853
G2 X38.275 Y10.172 I1.279 J1.319
G1 Y16.719
X38.271 Y16.991
X38.254 Y17.208
X38.063 Y18.455
G3 X37.775 Y19.38 I-3.733 J-0.655
G1 X37.467 Y19.993
X37.149 Y20.6
G3 X36.332 Y21.591 I-3.706 J-2.223
X35.424 Y22.44 I-5.836 J-5.334
G1 X35.253 Y22.555
X35.081 Y22.661
X34.963 Y22.727
X33.894 Y23.269
G3 X33.074 Y23.54 I-1.586 J-3.424
G1 X32.147 Y23.692
X31.593 Y23.763
X31.028 Y23.775
X-31.028
X-31.593 Y23.763
X-32.147 Y23.692
X-33.074 Y23.539
G3 X-33.894 Y23.269 I0.765 J-3.695
G1 X-34.963 Y22.727
G3 X-35.905 Y22.018 I1.806 J-3.382
G1 X-36.553 Y21.37
G3 X-37.148 Y20.602 I2.702 J-2.706
G1 X-37.599 Y19.735
G3 X-38.064 Y18.455 I3.597 J-2.031
G1 X-38.254 Y17.208
X-38.27 Y17.005
X-38.275 Y14
Y10.172
G2 X-38.833 Y8.853 I-1.837
G1 X-38.894 Y8.794
G2 X-40.174 Y8.275 I-1.279 J1.319
G1 X-46.727
X-46.997 Y8.27
X-47.215 Y8.254
X-48.461 Y8.062
G3 X-49.385 Y7.773 I0.66 J-3.731
G1 X-49.998 Y7.465
X-50.602 Y7.148
G3 X-51.593 Y6.33 I2.226 J-3.708
X-52.449 Y5.41 I5.086 J-5.595
G1 X-52.56 Y5.246
X-52.661 Y5.081
X-52.736 Y4.946
X-53.269 Y3.893
G3 X-53.543 Y3.06 I3.421 J-1.584
G1 X-53.743 Y1.813
X-53.764 Y1.599
X-53.775 Y1.007
Y-16.719
X-53.771 Y-16.991
X-53.754 Y-17.208
X-53.563 Y-18.455
G3 X-53.263 Y-19.406 I3.737 J0.657
G1 X-52.967 Y-19.992
X-52.651 Y-20.597
X-52.511 Y-20.818
X-52.335 Y-21.056
G3 X-51.06 Y-22.334 I11.523 J10.218
G1 X-50.822 Y-22.508
G3 X-48.928 Y-23.454 I6.004 J9.651
G1 X-48.697 Y-23.512
X-48.461 Y-23.562
X-47.215 Y-23.754
X-47.01 Y-23.769
X-45.385 Y-23.775
X-45.375
Z-5.5 F100
X-35.196 Y-23.773 F200
X-34.963 Y-23.759
G3 X-33.276 Y-23.477 I-1.722 J15.5
G1 X-33.038 Y-23.395
G3 X-31.396 Y-22.58 I-5.239 J12.613
G1 X-31.161 Y-22.406
X-30.911 Y-22.193
X-30.251 Y-21.569
G3 X-29.482 Y-20.594 I-2.67 J2.897
G1 X-28.962 Y-19.654
X-28.838 Y-19.391
X-27.508 Y-16.341
G2 X-27.422 Y-16.168 I1.684 J-0.734
G1 X-25.927 Y-13.534
G2 X-25.822 Y-13.37 I1.598 J-0.907
G1 X-24.037 Y-10.882
G2 X-23.917 Y-10.732 I1.493 J-1.071
G1 X-21.959 Y-8.529
X-21.863 Y-8.429
X-21.704 Y-8.274
X-21.684 Y-8.256
X-21.664 Y-8.237
X-19.536 Y-6.3
G2 X-19.386 Y-6.177 I1.237 J-1.359
G1 X-16.917 Y-4.364
G2 X-16.755 Y-4.258 I1.087 J-1.481
G1 X-14.146 Y-2.738
G2 X-13.975 Y-2.65 I0.925 J-1.588
G1 X-11.192 Y-1.398
G2 X-11.01 Y-1.327 I0.754 J-1.676
G1 X-8.078 Y-0.368
G2 X-7.889 Y-0.317 I0.571 J-1.746
G1 X-4.904 Y0.319
G2 X-4.714 Y0.349 I0.383 J-1.797
G1 X-1.729 Y0.665
G2 X-1.535 Y0.676 I0.194 J-1.827
G1 X1.535
G2 X1.729 Y0.665 J-1.837
G1 X4.714 Y0.349
G2 X4.904 Y0.319 I-0.194 J-1.827
G1 X7.889 Y-0.317
G2 X8.078 Y-0.368 I-0.383 J-1.797
G1 X11.01 Y-1.327
G2 X11.192 Y-1.398 I-0.571 J-1.746
G1 X13.975 Y-2.65
G2 X14.146 Y-2.738 I-0.754 J-1.676
G1 X16.755 Y-4.258
G2 X16.917 Y-4.364 I-0.925 J-1.588
G1 X19.386 Y-6.177
G2 X19.536 Y-6.3 I-1.087 J-1.481
G1 X21.743 Y-8.31
G2 X21.874 Y-8.441 I-1.237 J-1.359
G1 X22.698 Y-9.36
X22.705 Y-9.369
X23.963 Y-10.789
G2 X24.083 Y-10.94 I-1.376 J-1.218
G1 X25.855 Y-13.423
G2 X25.958 Y-13.584 I-1.496 J-1.067
G1 X27.423 Y-16.169
G2 X27.508 Y-16.341 I-1.599 J-0.906
G1 X28.838 Y-19.391
X28.962 Y-19.654
X29.482 Y-20.594
G3 X30.285 Y-21.601 I3.461 J1.936
G1 X30.913 Y-22.195
G3 X31.888 Y-22.854 I2.633 J2.846
G1 X32.728 Y-23.265
G3 X33.488 Y-23.529 I1.606 J3.388
X35.196 Y-23.773 I2.757 J13.216
G1 X46.727 Y-23.775
X46.997 Y-23.77
X47.215 Y-23.754
X48.461 Y-23.562
G3 X49.408 Y-23.262 I-0.662 J3.735
G1 X49.997 Y-22.965
X50.6 Y-22.649
X50.821 Y-22.509
X51.058 Y-22.333
G3 X52.337 Y-21.057 I-10.209 J11.505
G1 X52.51 Y-20.819
G3 X53.456 Y-18.924 I-9.643 J5.995
G1 X53.513 Y-18.692
X53.563 Y-18.455
X53.754 Y-17.208
X53.77 Y-17.005
X53.775 Y-14
Y1.007
X53.764 Y1.599
X53.743 Y1.813
X53.543 Y3.06
G3 X53.269 Y3.893 I-3.694 J-0.75
G1 X52.736 Y4.946
G3 X52.035 Y5.888 I-3.382 J-1.783
G1 X51.385 Y6.538
G3 X50.604 Y7.147 I-2.723 J-2.691
G1 X49.765 Y7.583
G3 X48.461 Y8.063 I-2.083 J-3.653
G1 X47.215 Y8.254
X47.01 Y8.269
X45.375 Y8.275
X40.174
G2 X38.894 Y8.794 J1.838
G1 X38.833 Y8.853
G2 X38.275 Y10.172 I1.279 J1.319
G1 Y16.719
X38.271 Y16.991
X38.254 Y17.208
X38.063 Y18.455
G3 X37.775 Y19.38 I-3.733 J-0.655
G1 X37.467 Y19.993
X37.149 Y20.6
G3 X36.332 Y21.591 I-3.706 J-2.223
X35.424 Y22.44 I-5.836 J-5.334
G1 X35.253 Y22.555
X35.081 Y22.661
X34.963 Y22.727
X33.894 Y23.269
G3 X33.074 Y23.54 I-1.586 J-3.424
G1 X32.147 Y23.692
X31.593 Y23.763
X31.028 Y23.775
X-31.028
X-31.593 Y23.763
X-32.147 Y23.692
X-33.074 Y23.539
G3 X-33.894 Y23.269 I0.765 J-3.695
G1 X-34.963 Y22.727
G3 X-35.905 Y22.018 I1.806 J-3.382
G1 X-36.553 Y21.37
G3 X-37.148 Y20.602 I2.702 J-2.706
G1 X-37.599 Y19.735
G3 X-38.064 Y18.455 I3.597 J-2.031
G1 X-38.254 Y17.208
X-38.27 Y17.005
X-38.275 Y14
Y10.172
G2 X-38.833 Y8.853 I-1.837
G1 X-38.894 Y8.794
G2 X-40.174 Y8.275 I-1.279 J1.319
G1 X-46.727
X-46.997 Y8.27
X-47.215 Y8.254
X-48.461 Y8.062
G3 X-49.385 Y7.773 I0.66 J-3.731
G1 X-49.998 Y7.465
X-50.602 Y7.148
G3 X-51.593 Y6.33 I2.226 J-3.708
X-52.449 Y5.41 I5.086 J-5.595
G1 X-52.56 Y5.246
X-52.661 Y5.081
X-52.736 Y4.946
X-53.269 Y3.893
G3 X-53.543 Y3.06 I3.421 J-1.584
G1 X-53.743 Y1.813
X-53.764 Y1.599
X-53.775 Y1.007
Y-16.719
X-53.771 Y-16.991
X-53.754 Y-17.208
X-53.563 Y-18.455
G3 X-53.263 Y-19.406 I3.737 J0.657
G1 X-52.967 Y-19.992
X-52.651 Y-20.597
X-52.511 Y-20.818
X-52.335 Y-21.056
G3 X-51.06 Y-22.334 I11.523 J10.218
G1 X-50.822 Y-22.508
G3 X-48.928 Y-23.454 I6.004 J9.651
G1 X-48.697 Y-23.512
X-48.461 Y-23.562
X-47.215 Y-23.754
X-47.01 Y-23.769
X-45.375 Y-23.775
X-45.37 Y-23.724
X-45.349 Y-23.695
G3 X-45.365 Y-23.673 I-0.016 J0.005
G1 X-46.914
G2 X-47.087 Y-23.665 J1.837
G1 X-47.258 Y-23.648
X-47.379 Y-23.633
X-48.518 Y-23.448
G2 X-48.758 Y-23.392 I0.295 J1.814
G1 X-48.991 Y-23.321
G2 X-49.164 Y-23.259 I0.535 J1.758
G1 X-49.28 Y-23.21
X-49.404 Y-23.153
G2 X-50.534 Y-22.572 I9.823 J20.482
X-50.708 Y-22.464 I0.88 J1.613
G1 X-50.89 Y-22.336
G2 X-51.06 Y-22.201 I1.055 J1.505
G1 X-51.298 Y-21.984
X-52.073 Y-21.204
G2 X-52.216 Y-21.042 I1.303 J1.295
G1 X-52.35 Y-20.872
G2 X-52.444 Y-20.739 I1.446 J1.134
G1 X-52.503 Y-20.649
G2 X-52.598 Y-20.486 I1.54 J1.002
G1 X-53.154 Y-19.401
G2 X-53.241 Y-19.204 I1.635 J0.839
G1 X-53.327 Y-18.973
G2 X-53.397 Y-18.741 I1.722 J0.642
G1 X-53.45 Y-18.51
X-53.474 Y-18.381
X-53.646 Y-17.271
G2 X-53.667 Y-17.043 I1.816 J0.281
G1 X-53.674 Y-16.787
X-53.675 Y-16.76
Y-16.733
X-53.671 Y1.452
G2 X-53.655 Y1.689 I1.837
X-53.447 Y3.023 I21.808 J-2.724
X-53.387 Y3.274 I1.813 J-0.296
G1 X-53.309 Y3.526
G2 X-53.245 Y3.698 I1.754 J-0.548
G1 X-53.205 Y3.794
X-53.15 Y3.91
X-52.619 Y4.95
G2 X-52.503 Y5.146 I1.636 J-0.836
G1 X-52.357 Y5.361
G2 X-52.234 Y5.522 I1.52 J-1.032
G1 X-52.139 Y5.633
X-52.039 Y5.741
X-51.211 Y6.567
G2 X-51.029 Y6.726 I1.297 J-1.301
G1 X-50.808 Y6.894
G2 X-50.592 Y7.036 I1.115 J-1.46
X-49.362 Y7.672 I8.383 J-14.716
X-49.136 Y7.768 I0.828 J-1.64
G1 X-48.88 Y7.857
G2 X-48.665 Y7.917 I0.602 J-1.736
G1 X-48.389 Y7.973
X-47.28 Y8.145
G2 X-47.058 Y8.166 I0.282 J-1.816
G1 X-46.802 Y8.174
X-46.772 Y8.175
X-46.743
X-38.175
X-38.173 Y16.905
G2 X-38.166 Y17.07 I1.837
G1 X-38.15 Y17.24
X-38.135 Y17.366
X-37.957 Y18.476
G2 X-37.908 Y18.694 I1.814 J-0.291
G1 X-37.835 Y18.95
G2 X-37.759 Y19.163 I1.766 J-0.509
G1 X-37.686 Y19.334
X-37.631 Y19.45
X-37.121 Y20.447
G2 X-37.008 Y20.639 I1.636 J-0.837
G1 X-36.862 Y20.854
G2 X-36.696 Y21.064 I1.522 J-1.029
X-35.691 Y22.085 I11.527 J-10.351
X-35.505 Y22.246 I1.294 J-1.305
G1 X-35.303 Y22.398
G2 X-35.131 Y22.514 I1.108 J-1.466
G1 X-34.992 Y22.596
X-34.889 Y22.653
X-33.904 Y23.153
G2 X-33.716 Y23.236 I0.832 J-1.638
G1 X-33.469 Y23.328
G2 X-33.302 Y23.382 I0.644 J-1.721
G1 X-33.22 Y23.404
G2 X-33.038 Y23.443 I0.478 J-1.774
G1 X-31.856 Y23.636
X-31.71 Y23.654
X-31.539 Y23.668
X-31.389 Y23.674
X31.389
X31.539 Y23.668
X31.71 Y23.654
X31.856 Y23.636
X33.038 Y23.443
G2 X33.304 Y23.379 I-0.296 J-1.814
G1 X33.551 Y23.3
G2 X33.726 Y23.234 I-0.561 J-1.75
G1 X33.832 Y23.187
G2 X34.964 Y22.611 I-7.652 J-16.427
X35.167 Y22.489 I-0.838 J-1.635
G1 X35.376 Y22.346
G2 X35.542 Y22.217 I-1.042 J-1.514
G1 X35.667 Y22.108
X35.764 Y22.018
X36.584 Y21.192
G2 X36.751 Y20.998 I-1.304 J-1.295
G1 X36.912 Y20.783
G2 X37.048 Y20.574 I-1.471 J-1.101
X37.676 Y19.354 I-16.109 J-9.064
X37.774 Y19.121 I-1.641 J-0.828
G1 X37.861 Y18.865
G2 X37.92 Y18.65 I-1.739 J-0.594
G1 X37.975 Y18.381
X38.146 Y17.271
G2 X38.167 Y17.043 I-1.816 J-0.281
G1 X38.174 Y16.787
X38.175 Y16.76
Y16.734
Y8.179
X39.24 Y8.175
X46.914 Y8.173
G2 X47.087 Y8.165 I-0.001 J-1.837
G1 X47.258 Y8.148
X47.376 Y8.133
X48.484 Y7.955
G2 X48.709 Y7.905 I-0.292 J-1.814
G1 X48.965 Y7.83
G2 X49.177 Y7.753 I-0.516 J-1.764
G1 X49.348 Y7.679
X49.458 Y7.627
X50.458 Y7.114
G2 X50.661 Y6.993 I-0.839 J-1.635
G1 X50.881 Y6.842
G2 X51.091 Y6.674 I-1.041 J-1.514
X52.043 Y5.737 I-12.509 J-13.669
X52.168 Y5.599 I-1.301 J-1.297
G1 X52.316 Y5.416
G2 X52.457 Y5.218 I-1.426 J-1.159
G1 X52.588 Y5.003
X52.661 Y4.874
X53.158 Y3.893
G2 X53.245 Y3.694 I-1.639 J-0.831
G1 X53.337 Y3.442
G2 X53.39 Y3.273 I-1.725 J-0.632
G1 X53.412 Y3.189
G2 X53.447 Y3.019 I-1.778 J-0.462
G1 X53.639 Y1.829
G2 X53.658 Y1.663 I-1.814 J-0.293
G1 X53.67 Y1.493
X53.675 Y1.366
X53.673 Y-16.905
G2 X53.666 Y-17.07 I-1.837
G1 X53.65 Y-17.24
X53.634 Y-17.369
X53.45 Y-18.509
G2 X53.397 Y-18.741 I-1.814 J0.293
G1 X53.327 Y-18.973
G2 X53.266 Y-19.145 I-1.761 J0.526
G1 X53.219 Y-19.261
X53.154 Y-19.401
X52.598 Y-20.486
G2 X52.472 Y-20.696 I-1.635 J0.839
G1 X52.346 Y-20.877
G2 X52.212 Y-21.048 I-1.509 J1.048
G1 X51.991 Y-21.291
X51.211 Y-22.067
G2 X51.055 Y-22.205 I-1.296 J1.303
G1 X50.884 Y-22.34
G2 X50.752 Y-22.436 I-1.14 J1.441
G1 X50.662 Y-22.495
G2 X50.498 Y-22.591 I-1.008 J1.536
G1 X49.634 Y-23.038
X49.614 Y-23.048
X49.396 Y-23.157
G2 X49.223 Y-23.233 I-0.824 J1.643
G1 X48.991 Y-23.321
G2 X48.758 Y-23.392 I-0.651 J1.718
G1 X48.526 Y-23.446
X48.389 Y-23.473
X47.28 Y-23.645
G2 X47.058 Y-23.666 I-0.282 J1.816
G1 X46.802 Y-23.674
X46.772 Y-23.675
X46.743
X35.825
X35.807
X35.125 Y-23.668
G2 X34.865 Y-23.647 I0.017 J1.837
G1 X33.671 Y-23.465
G2 X33.463 Y-23.421 I0.278 J1.816
G1 X33.292 Y-23.374
G2 X33.097 Y-23.309 I0.485 J1.772
G1 X32.879 Y-23.222
X32.747 Y-23.163
X31.771 Y-22.682
G2 X31.594 Y-22.582 I0.812 J1.648
G1 X31.424 Y-22.473
G2 X31.28 Y-22.371 I0.989 J1.549
G1 X31.161 Y-22.278
G2 X31.032 Y-22.167 I1.133 J1.446
G1 X30.219 Y-21.399
G2 X30.096 Y-21.271 I1.262 J1.336
G1 X29.947 Y-21.1
G2 X29.814 Y-20.929 I1.385 J1.207
G1 X29.698 Y-20.758
G2 X29.611 Y-20.618 I1.518 J1.036
G1 X29.087 Y-19.679
G2 X29.007 Y-19.517 I1.604 J0.896
G1 X27.593 Y-16.275
X25.991 Y-13.44
X24.058 Y-10.74
X21.927 Y-8.342
X19.518 Y-6.148
X16.903 Y-4.229
X14.117 Y-2.605
X11.106 Y-1.252
X8.05 Y-0.251
X4.829 Y0.438
X1.609 Y0.777
X-1.609
X-4.829 Y0.438
X-8.05 Y-0.251
X-11.106 Y-1.252
X-14.117 Y-2.605
X-16.903 Y-4.229
X-19.518 Y-6.148
X-21.926 Y-8.342
X-24.106 Y-10.8
X-25.99 Y-13.439
X-27.593 Y-16.275
X-29.007 Y-19.517
G2 X-29.087 Y-19.679 I-1.684 J0.735
G1 X-29.611 Y-20.618
G2 X-29.698 Y-20.758 I-1.604 J0.896
G1 X-29.814 Y-20.929
G2 X-29.947 Y-21.1 I-1.518 J1.036
G1 X-30.096 Y-21.271
G2 X-30.219 Y-21.399 I-1.385 J1.207
G1 X-31.032 Y-22.167
G2 X-31.202 Y-22.31 I-1.262 J1.336
G1 X-31.406 Y-22.46
G2 X-31.625 Y-22.6 I-1.092 J1.478
X-32.87 Y-23.217 I-7.911 J14.381
X-33.086 Y-23.305 I-0.799 J1.655
G1 X-33.28 Y-23.37
G2 X-33.501 Y-23.429 I-0.583 J1.743
X-34.872 Y-23.649 I-3.02 J14.458
X-35.138 Y-23.669 I-0.27 J1.818
G1 X-37.868 Y-23.675
X-45.365 Y-23.673
X-45.375
Z-6.5 F100
X-46.914 F200
G2 X-47.087 Y-23.665 J1.837
G1 X-47.258 Y-23.648
X-47.379 Y-23.633
X-48.518 Y-23.448
G2 X-48.758 Y-23.392 I0.295 J1.814
G1 X-48.991 Y-23.321
G2 X-49.164 Y-23.259 I0.535 J1.758
G1 X-49.28 Y-23.21
X-49.404 Y-23.153
G2 X-50.534 Y-22.572 I9.823 J20.482
X-50.708 Y-22.464 I0.88 J1.613
G1 X-50.89 Y-22.336
G2 X-51.06 Y-22.201 I1.055 J1.505
G1 X-51.298 Y-21.984
X-52.073 Y-21.204
G2 X-52.216 Y-21.042 I1.303 J1.295
G1 X-52.35 Y-20.872
G2 X-52.444 Y-20.739 I1.446 J1.134
G1 X-52.503 Y-20.649
G2 X-52.598 Y-20.486 I1.54 J1.002
G1 X-53.154 Y-19.401
G2 X-53.241 Y-19.204 I1.635 J0.839
G1 X-53.327 Y-18.973
G2 X-53.397 Y-18.741 I1.722 J0.642
G1 X-53.45 Y-18.51
X-53.474 Y-18.381
X-53.646 Y-17.271
G2 X-53.667 Y-17.043 I1.816 J0.281
G1 X-53.674 Y-16.787
X-53.675 Y-16.76
Y-16.733
X-53.671 Y1.452
G2 X-53.655 Y1.689 I1.837
X-53.447 Y3.023 I21.808 J-2.724
X-53.387 Y3.274 I1.813 J-0.296
G1 X-53.309 Y3.526
G2 X-53.245 Y3.698 I1.754 J-0.548
G1 X-53.205 Y3.794
X-53.15 Y3.91
X-52.619 Y4.95
G2 X-52.503 Y5.146 I1.636 J-0.836
G1 X-52.357 Y5.361
G2 X-52.234 Y5.522 I1.52 J-1.032
G1 X-52.139 Y5.633
X-52.039 Y5.741
X-51.211 Y6.567
G2 X-51.029 Y6.726 I1.297 J-1.301
G1 X-50.808 Y6.894
G2 X-50.592 Y7.036 I1.115 J-1.46
X-49.362 Y7.672 I8.383 J-14.716
X-49.136 Y7.768 I0.828 J-1.64
G1 X-48.88 Y7.857
G2 X-48.665 Y7.917 I0.602 J-1.736
G1 X-48.389 Y7.973
X-47.28 Y8.145
G2 X-47.058 Y8.166 I0.282 J-1.816
G1 X-46.802 Y8.174
X-46.772 Y8.175
X-46.743
X-38.175
X-38.173 Y16.905
G2 X-38.166 Y17.07 I1.837
G1 X-38.15 Y17.24
X-38.135 Y17.366
X-37.957 Y18.476
G2 X-37.908 Y18.694 I1.814 J-0.291
G1 X-37.835 Y18.95
G2 X-37.759 Y19.163 I1.766 J-0.509
G1 X-37.686 Y19.334
X-37.631 Y19.45
X-37.121 Y20.447
G2 X-37.008 Y20.639 I1.636 J-0.837
G1 X-36.862 Y20.854
G2 X-36.696 Y21.064 I1.522 J-1.029
X-35.691 Y22.085 I11.527 J-10.351
X-35.505 Y22.246 I1.294 J-1.305
G1 X-35.303 Y22.398
G2 X-35.131 Y22.514 I1.108 J-1.466
G1 X-34.992 Y22.596
X-34.889 Y22.653
X-33.904 Y23.153
G2 X-33.716 Y23.236 I0.832 J-1.638
G1 X-33.469 Y23.328
G2 X-33.302 Y23.382 I0.644 J-1.721
G1 X-33.22 Y23.404
G2 X-33.038 Y23.443 I0.478 J-1.774
G1 X-31.856 Y23.636
X-31.71 Y23.654
X-31.539 Y23.668
X-31.389 Y23.674
X31.389
X31.539 Y23.668
X31.71 Y23.654
X31.856 Y23.636
X33.038 Y23.443
G2 X33.304 Y23.379 I-0.296 J-1.814
G1 X33.551 Y23.3
G2 X33.726 Y23.234 I-0.561 J-1.75
G1 X33.832 Y23.187
G2 X34.964 Y22.611 I-7.652 J-16.427
X35.167 Y22.489 I-0.838 J-1.635
G1 X35.376 Y22.346
G2 X35.542 Y22.217 I-1.042 J-1.514
G1 X35.667 Y22.108
X35.764 Y22.018
X36.584 Y21.192
G2 X36.751 Y20.998 I-1.304 J-1.295
G1 X36.912 Y20.783
G2 X37.048 Y20.574 I-1.471 J-1.101
X37.676 Y19.354 I-16.109 J-9.064
X37.774 Y19.121 I-1.641 J-0.828
G1 X37.861 Y18.865
G2 X37.92 Y18.65 I-1.739 J-0.594
G1 X37.975 Y18.381
X38.146 Y17.271
G2 X38.167 Y17.043 I-1.816 J-0.281
G1 X38.174 Y16.787
X38.175 Y16.76
Y16.734
Y8.179
X39.24 Y8.175
X46.914 Y8.173
G2 X47.087 Y8.165 I-0.001 J-1.837
G1 X47.258 Y8.148
X47.376 Y8.133
X48.484 Y7.955
G2 X48.709 Y7.905 I-0.292 J-1.814
G1 X48.965 Y7.83
G2 X49.177 Y7.753 I-0.516 J-1.764
G1 X49.348 Y7.679
X49.458 Y7.627
X50.458 Y7.114
G2 X50.661 Y6.993 I-0.839 J-1.635
G1 X50.881 Y6.842
G2 X51.091 Y6.674 I-1.041 J-1.514
X52.043 Y5.737 I-12.509 J-13.669
X52.168 Y5.599 I-1.301 J-1.297
G1 X52.316 Y5.416
G2 X52.457 Y5.218 I-1.426 J-1.159
G1 X52.588 Y5.003
X52.661 Y4.874
X53.158 Y3.893
G2 X53.245 Y3.694 I-1.639 J-0.831
G1 X53.337 Y3.442
G2 X53.39 Y3.273 I-1.725 J-0.632
G1 X53.412 Y3.189
G2 X53.447 Y3.019 I-1.778 J-0.462
G1 X53.639 Y1.829
G2 X53.658 Y1.663 I-1.814 J-0.293
G1 X53.67 Y1.493
X53.675 Y1.366
X53.673 Y-16.905
G2 X53.666 Y-17.07 I-1.837
G1 X53.65 Y-17.24
X53.634 Y-17.369
X53.45 Y-18.509
G2 X53.397 Y-18.741 I-1.814 J0.293
G1 X53.327 Y-18.973
G2 X53.266 Y-19.145 I-1.761 J0.526
G1 X53.219 Y-19.261
X53.154 Y-19.401
X52.598 Y-20.486
G2 X52.472 Y-20.696 I-1.635 J0.839
G1 X52.346 Y-20.877
G2 X52.212 Y-21.048 I-1.509 J1.048
G1 X51.991 Y-21.291
X51.211 Y-22.067
G2 X51.055 Y-22.205 I-1.296 J1.303
G1 X50.884 Y-22.34
G2 X50.752 Y-22.436 I-1.14 J1.441
G1 X50.662 Y-22.495
G2 X50.498 Y-22.591 I-1.008 J1.536
G1 X49.634 Y-23.038
X49.614 Y-23.048
X49.396 Y-23.157
G2 X49.223 Y-23.233 I-0.824 J1.643
G1 X48.991 Y-23.321
G2 X48.758 Y-23.392 I-0.651 J1.718
G1 X48.526 Y-23.446
X48.389 Y-23.473
X47.28 Y-23.645
G2 X47.058 Y-23.666 I-0.282 J1.816
G1 X46.802 Y-23.674
X46.772 Y-23.675
X46.743
X35.825
X35.807
X35.125 Y-23.668
G2 X34.865 Y-23.647 I0.017 J1.837
G1 X33.671 Y-23.465
G2 X33.463 Y-23.421 I0.278 J1.816
G1 X33.292 Y-23.374
G2 X33.097 Y-23.309 I0.485 J1.772
G1 X32.879 Y-23.222
X32.747 Y-23.163
X31.771 Y-22.682
G2 X31.594 Y-22.582 I0.812 J1.648
G1 X31.424 Y-22.473
G2 X31.28 Y-22.371 I0.989 J1.549
G1 X31.161 Y-22.278
G2 X31.032 Y-22.167 I1.133 J1.446
G1 X30.219 Y-21.399
G2 X30.096 Y-21.271 I1.262 J1.336
G1 X29.947 Y-21.1
G2 X29.814 Y-20.929 I1.385 J1.207
G1 X29.698 Y-20.758
G2 X29.611 Y-20.618 I1.518 J1.036
G1 X29.087 Y-19.679
G2 X29.007 Y-19.517 I1.604 J0.896
G1 X27.593 Y-16.275
X25.991 Y-13.44
X24.058 Y-10.74
X21.927 Y-8.342
X19.518 Y-6.148
X16.903 Y-4.229
X14.117 Y-2.605
X11.106 Y-1.252
X8.05 Y-0.251
X4.829 Y0.438
X1.609 Y0.777
X-1.609
X-4.829 Y0.438
X-8.05 Y-0.251
X-11.106 Y-1.252
X-14.117 Y-2.605
X-16.903 Y-4.229
X-19.518 Y-6.148
X-21.926 Y-8.342
X-24.106 Y-10.8
X-25.99 Y-13.439
X-27.593 Y-16.275
X-29.007 Y-19.517
G2 X-29.087 Y-19.679 I-1.684 J0.735
G1 X-29.611 Y-20.618
G2 X-29.698 Y-20.758 I-1.604 J0.896
G1 X-29.814 Y-20.929
G2 X-29.947 Y-21.1 I-1.518 J1.036
G1 X-30.096 Y-21.271
G2 X-30.219 Y-21.399 I-1.385 J1.207
G1 X-31.032 Y-22.167
G2 X-31.202 Y-22.31 I-1.262 J1.336
G1 X-31.406 Y-22.46
G2 X-31.625 Y-22.6 I-1.092 J1.478
X-32.87 Y-23.217 I-7.911 J14.381
X-33.086 Y-23.305 I-0.799 J1.655
G1 X-33.28 Y-23.37
G2 X-33.501 Y-23.429 I-0.583 J1.743
X-34.872 Y-23.649 I-3.02 J14.458
X-35.138 Y-23.669 I-0.27 J1.818
G1 X-37.868 Y-23.675
X-45.375 Y-23.673
X-45.38 Y-23.724
X-45.401 Y-23.753
G3 X-45.385 Y-23.775 I0.016 J-0.005
G1 X-45.375
X-35.196 Y-23.773
G3 X-33.276 Y-23.476 I-0.883 J12.056
G1 X-33.038 Y-23.395
G3 X-31.396 Y-22.58 I-5.239 J12.613
G1 X-31.161 Y-22.406
X-30.911 Y-22.193
X-30.251 Y-21.569
G3 X-29.482 Y-20.594 I-2.67 J2.897
G1 X-28.962 Y-19.654
X-28.838 Y-19.391
X-27.508 Y-16.341
G2 X-27.422 Y-16.168 I1.684 J-0.734
G1 X-25.927 Y-13.534
G2 X-25.822 Y-13.37 I1.598 J-0.907
G1 X-24.037 Y-10.882
G2 X-23.917 Y-10.732 I1.493 J-1.071
G1 X-21.959 Y-8.529
X-21.863 Y-8.429
X-21.704 Y-8.274
X-21.684 Y-8.256
X-21.664 Y-8.237
X-19.536 Y-6.3
G2 X-19.386 Y-6.177 I1.237 J-1.359
G1 X-16.917 Y-4.364
G2 X-16.755 Y-4.258 I1.087 J-1.481
G1 X-14.146 Y-2.738
G2 X-13.975 Y-2.65 I0.925 J-1.588
G1 X-11.192 Y-1.398
G2 X-11.01 Y-1.327 I0.754 J-1.676
G1 X-8.078 Y-0.368
G2 X-7.889 Y-0.317 I0.571 J-1.746
G1 X-4.904 Y0.319
G2 X-4.714 Y0.349 I0.383 J-1.797
G1 X-1.729 Y0.665
G2 X-1.535 Y0.676 I0.194 J-1.827
G1 X1.535
G2 X1.729 Y0.665 J-1.837
G1 X4.714 Y0.349
G2 X4.904 Y0.319 I-0.194 J-1.827
G1 X7.889 Y-0.317
G2 X8.078 Y-0.368 I-0.383 J-1.797
G1 X11.01 Y-1.327
G2 X11.192 Y-1.398 I-0.571 J-1.746
G1 X13.975 Y-2.65
G2 X14.146 Y-2.738 I-0.754 J-1.676
G1 X16.755 Y-4.258
G2 X16.917 Y-4.364 I-0.925 J-1.588
G1 X19.386 Y-6.177
G2 X19.536 Y-6.3 I-1.087 J-1.481
G1 X21.743 Y-8.31
G2 X21.874 Y-8.441 I-1.237 J-1.359
G1 X22.698 Y-9.36
X22.705 Y-9.369
X23.963 Y-10.789
G2 X24.083 Y-10.94 I-1.376 J-1.218
G1 X25.855 Y-13.423
G2 X25.958 Y-13.584 I-1.496 J-1.067
G1 X27.423 Y-16.169
G2 X27.508 Y-16.341 I-1.599 J-0.906
G1 X28.838 Y-19.391
X28.962 Y-19.654
X29.482 Y-20.594
G3 X30.285 Y-21.601 I3.461 J1.936
G1 X30.913 Y-22.195
G3 X31.888 Y-22.854 I2.633 J2.846
G1 X32.728 Y-23.265
G3 X33.488 Y-23.529 I1.606 J3.388
X35.196 Y-23.773 I2.757 J13.216
G1 X46.727 Y-23.775
X46.997 Y-23.77
X47.215 Y-23.754
X48.461 Y-23.562
G3 X49.408 Y-23.262 I-0.662 J3.735
G1 X49.997 Y-22.965
X50.6 Y-22.649
X50.821 Y-22.509
X51.058 Y-22.333
G3 X52.337 Y-21.057 I-10.209 J11.505
G1 X52.51 Y-20.819
G3 X53.456 Y-18.924 I-9.643 J5.995
G1 X53.513 Y-18.692
X53.563 Y-18.455
X53.754 Y-17.208
X53.77 Y-17.005
X53.775 Y-14
Y1.007
X53.764 Y1.599
X53.743 Y1.813
X53.543 Y3.06
G3 X53.269 Y3.893 I-3.694 J-0.75
G1 X52.736 Y4.946
G3 X52.035 Y5.888 I-3.382 J-1.783
G1 X51.385 Y6.538
G3 X50.604 Y7.147 I-2.723 J-2.691
G1 X49.765 Y7.583
G3 X48.461 Y8.063 I-2.083 J-3.653
G1 X47.215 Y8.254
X47.01 Y8.269
X45.375 Y8.275
X40.174
G2 X38.894 Y8.794 J1.838
G1 X38.833 Y8.853
G2 X38.275 Y10.172 I1.279 J1.319
G1 Y16.719
X38.271 Y16.991
X38.254 Y17.208
X38.063 Y18.455
G3 X37.775 Y19.38 I-3.733 J-0.655
G1 X37.467 Y19.993
X37.149 Y20.6
G3 X36.332 Y21.591 I-3.706 J-2.223
X35.424 Y22.44 I-5.836 J-5.334
G1 X35.253 Y22.555
X35.081 Y22.661
X34.963 Y22.727
X33.894 Y23.269
G3 X33.074 Y23.54 I-1.586 J-3.424
G1 X32.147 Y23.692
X31.593 Y23.763
X31.028 Y23.775
X-31.028
X-31.593 Y23.763
X-32.147 Y23.692
X-33.074 Y23.539
G3 X-33.894 Y23.269 I0.765 J-3.695
G1 X-34.963 Y22.727
G3 X-35.905 Y22.018 I1.806 J-3.382
G1 X-36.553 Y21.37
G3 X-37.148 Y20.602 I2.702 J-2.706
G1 X-37.599 Y19.735
G3 X-38.064 Y18.455 I3.597 J-2.031
G1 X-38.254 Y17.208
X-38.27 Y17.005
X-38.275 Y14
Y10.172
G2 X-38.833 Y8.853 I-1.837
G1 X-38.894 Y8.794
G2 X-40.174 Y8.275 I-1.279 J1.319
G1 X-46.727
X-46.997 Y8.27
X-47.215 Y8.254
X-48.461 Y8.062
G3 X-49.385 Y7.773 I0.66 J-3.731
G1 X-49.998 Y7.465
X-50.602 Y7.148
G3 X-51.593 Y6.33 I2.226 J-3.708
X-52.449 Y5.41 I5.086 J-5.595
G1 X-52.56 Y5.246
X-52.661 Y5.081
X-52.736 Y4.946
X-53.269 Y3.893
G3 X-53.543 Y3.06 I3.421 J-1.584
G1 X-53.743 Y1.813
X-53.764 Y1.599
X-53.775 Y1.007
Y-16.719
X-53.771 Y-16.991
X-53.754 Y-17.208
X-53.563 Y-18.455
G3 X-53.263 Y-19.406 I3.737 J0.657
G1 X-52.967 Y-19.992
X-52.651 Y-20.597
X-52.511 Y-20.818
X-52.335 Y-21.056
G3 X-51.06 Y-22.334 I11.523 J10.218
G1 X-50.822 Y-22.508
G3 X-48.928 Y-23.454 I6.004 J9.651
G1 X-48.697 Y-23.512
X-48.461 Y-23.562
X-47.215 Y-23.754
X-47.01 Y-23.769
X-45.385 Y-23.775
X-45.375
Z-7.5 F100
X-35.196 Y-23.773 F200
X-34.963 Y-23.759
G3 X-33.276 Y-23.477 I-1.722 J15.5
G1 X-33.038 Y-23.395
G3 X-31.396 Y-22.58 I-5.239 J12.613
G1 X-31.161 Y-22.406
X-30.911 Y-22.193
X-30.251 Y-21.569
G3 X-29.482 Y-20.594 I-2.67 J2.897
G1 X-28.962 Y-19.654
X-28.838 Y-19.391
X-27.508 Y-16.341
G2 X-27.422 Y-16.168 I1.684 J-0.734
G1 X-25.927 Y-13.534
G2 X-25.822 Y-13.37 I1.598 J-0.907
G1 X-24.037 Y-10.882
G2 X-23.917 Y-10.732 I1.493 J-1.071
G1 X-21.959 Y-8.529
X-21.863 Y-8.429
X-21.704 Y-8.274
X-21.684 Y-8.256
X-21.664 Y-8.237
X-19.536 Y-6.3
G2 X-19.386 Y-6.177 I1.237 J-1.359
G1 X-16.917 Y-4.364
G2 X-16.755 Y-4.258 I1.087 J-1.481
G1 X-14.146 Y-2.738
G2 X-13.975 Y-2.65 I0.925 J-1.588
G1 X-11.192 Y-1.398
G2 X-11.01 Y-1.327 I0.754 J-1.676
G1 X-8.078 Y-0.368
G2 X-7.889 Y-0.317 I0.571 J-1.746
G1 X-4.904 Y0.319
G2 X-4.714 Y0.349 I0.383 J-1.797
G1 X-1.729 Y0.665
G2 X-1.535 Y0.676 I0.194 J-1.827
G1 X1.535
G2 X1.729 Y0.665 J-1.837
G1 X4.714 Y0.349
G2 X4.904 Y0.319 I-0.194 J-1.827
G1 X7.889 Y-0.317
G2 X8.078 Y-0.368 I-0.383 J-1.797
G1 X11.01 Y-1.327
G2 X11.192 Y-1.398 I-0.571 J-1.746
G1 X13.975 Y-2.65
G2 X14.146 Y-2.738 I-0.754 J-1.676
G1 X16.755 Y-4.258
G2 X16.917 Y-4.364 I-0.925 J-1.588
G1 X19.386 Y-6.177
G2 X19.536 Y-6.3 I-1.087 J-1.481
G1 X21.743 Y-8.31
G2 X21.874 Y-8.441 I-1.237 J-1.359
G1 X22.698 Y-9.36
X22.705 Y-9.369
X23.963 Y-10.789
G2 X24.083 Y-10.94 I-1.376 J-1.218
G1 X25.855 Y-13.423
G2 X25.958 Y-13.584 I-1.496 J-1.067
G1 X27.423 Y-16.169
G2 X27.508 Y-16.341 I-1.599 J-0.906
G1 X28.838 Y-19.391
X28.962 Y-19.654
X29.482 Y-20.594
G3 X30.285 Y-21.601 I3.461 J1.936
G1 X30.913 Y-22.195
G3 X31.888 Y-22.854 I2.633 J2.846
G1 X32.728 Y-23.265
G3 X33.488 Y-23.529 I1.606 J3.388
X35.196 Y-23.773 I2.757 J13.216
G1 X46.727 Y-23.775
X46.997 Y-23.77
X47.215 Y-23.754
X48.461 Y-23.562
G3 X49.408 Y-23.262 I-0.662 J3.735
G1 X49.997 Y-22.965
X50.6 Y-22.649
X50.821 Y-22.509
X51.058 Y-22.333
G3 X52.337 Y-21.057 I-10.209 J11.505
G1 X52.51 Y-20.819
G3 X53.456 Y-18.924 I-9.643 J5.995
G1 X53.513 Y-18.692
X53.563 Y-18.455
X53.754 Y-17.208
X53.77 Y-17.005
X53.775 Y-14
Y1.007
X53.764 Y1.599
X53.743 Y1.813
X53.543 Y3.06
G3 X53.269 Y3.893 I-3.694 J-0.75
G1 X52.736 Y4.946
G3 X52.035 Y5.888 I-3.382 J-1.783
G1 X51.385 Y6.538
G3 X50.604 Y7.147 I-2.723 J-2.691
G1 X49.765 Y7.583
G3 X48.461 Y8.063 I-2.083 J-3.653
G1 X47.215 Y8.254
X47.01 Y8.269
X45.375 Y8.275
X40.174
G2 X38.894 Y8.794 J1.838
G1 X38.833 Y8.853
G2 X38.275 Y10.172 I1.279 J1.319
G1 Y16.719
X38.271 Y16.991
X38.254 Y17.208
X38.063 Y18.455
G3 X37.775 Y19.38 I-3.733 J-0.655
G1 X37.467 Y19.993
X37.149 Y20.6
G3 X36.332 Y21.591 I-3.706 J-2.223
X35.424 Y22.44 I-5.836 J-5.334
G1 X35.253 Y22.555
X35.081 Y22.661
X34.963 Y22.727
X33.894 Y23.269
G3 X33.074 Y23.54 I-1.586 J-3.424
G1 X32.147 Y23.692
X31.593 Y23.763
X31.028 Y23.775
X-31.028
X-31.593 Y23.763
X-32.147 Y23.692
X-33.074 Y23.539
G3 X-33.894 Y23.269 I0.765 J-3.695
G1 X-34.963 Y22.727
G3 X-35.905 Y22.018 I1.806 J-3.382
G1 X-36.553 Y21.37
G3 X-37.148 Y20.602 I2.702 J-2.706
G1 X-37.599 Y19.735
G3 X-38.064 Y18.455 I3.597 J-2.031
G1 X-38.254 Y17.208
X-38.27 Y17.005
X-38.275 Y14
Y10.172
G2 X-38.833 Y8.853 I-1.837
G1 X-38.894 Y8.794
G2 X-40.174 Y8.275 I-1.279 J1.319
G1 X-46.727
X-46.997 Y8.27
X-47.215 Y8.254
X-48.461 Y8.062
G3 X-49.385 Y7.773 I0.66 J-3.731
G1 X-49.998 Y7.465
X-50.602 Y7.148
G3 X-51.593 Y6.33 I2.226 J-3.708
X-52.449 Y5.41 I5.086 J-5.595
G1 X-52.56 Y5.246
X-52.661 Y5.081
X-52.736 Y4.946
X-53.269 Y3.893
G3 X-53.543 Y3.06 I3.421 J-1.584
G1 X-53.743 Y1.813
X-53.764 Y1.599
X-53.775 Y1.007
Y-16.719
X-53.771 Y-16.991
X-53.754 Y-17.208
X-53.563 Y-18.455
G3 X-53.263 Y-19.406 I3.737 J0.657
G1 X-52.967 Y-19.992
X-52.651 Y-20.597
X-52.511 Y-20.818
X-52.335 Y-21.056
G3 X-51.06 Y-22.334 I11.523 J10.218
G1 X-50.822 Y-22.508
G3 X-48.928 Y-23.454 I6.004 J9.651
G1 X-48.697 Y-23.512
X-48.461 Y-23.562
X-47.215 Y-23.754
X-47.01 Y-23.769
X-45.375 Y-23.775
X-45.37 Y-23.724
X-45.349 Y-23.695
G3 X-45.365 Y-23.673 I-0.016 J0.005
G1 X-46.914
G2 X-47.087 Y-23.665 J1.837
G1 X-47.258 Y-23.648
X-47.379 Y-23.633
X-48.518 Y-23.448
G2 X-48.758 Y-23.392 I0.295 J1.814
G1 X-48.991 Y-23.321
G2 X-49.164 Y-23.259 I0.535 J1.758
G1 X-49.28 Y-23.21
X-49.404 Y-23.153
G2 X-50.534 Y-22.572 I9.823 J20.482
X-50.708 Y-22.464 I0.88 J1.613
G1 X-50.89 Y-22.336
G2 X-51.06 Y-22.201 I1.055 J1.505
G1 X-51.298 Y-21.984
X-52.073 Y-21.204
G2 X-52.216 Y-21.042 I1.303 J1.295
G1 X-52.35 Y-20.872
G2 X-52.444 Y-20.739 I1.446 J1.134
G1 X-52.503 Y-20.649
G2 X-52.598 Y-20.486 I1.54 J1.002
G1 X-53.154 Y-19.401
G2 X-53.241 Y-19.204 I1.635 J0.839
G1 X-53.327 Y-18.973
G2 X-53.397 Y-18.741 I1.722 J0.642
G1 X-53.45 Y-18.51
X-53.474 Y-18.381
X-53.646 Y-17.271
G2 X-53.667 Y-17.043 I1.816 J0.281
G1 X-53.674 Y-16.787
X-53.675 Y-16.76
Y-16.733
X-53.671 Y1.452
G2 X-53.655 Y1.689 I1.837
X-53.447 Y3.023 I21.808 J-2.724
X-53.387 Y3.274 I1.813 J-0.296
G1 X-53.309 Y3.526
G2 X-53.245 Y3.698 I1.754 J-0.548
G1 X-53.205 Y3.794
X-53.15 Y3.91
X-52.619 Y4.95
G2 X-52.503 Y5.146 I1.636 J-0.836
G1 X-52.357 Y5.361
G2 X-52.234 Y5.522 I1.52 J-1.032
G1 X-52.139 Y5.633
X-52.039 Y5.741
X-51.211 Y6.567
G2 X-51.029 Y6.726 I1.297 J-1.301
G1 X-50.808 Y6.894
G2 X-50.592 Y7.036 I1.115 J-1.46
X-49.362 Y7.672 I8.383 J-14.716
X-49.136 Y7.768 I0.828 J-1.64
G1 X-48.88 Y7.857
G2 X-48.665 Y7.917 I0.602 J-1.736
G1 X-48.389 Y7.973
X-47.28 Y8.145
G2 X-47.058 Y8.166 I0.282 J-1.816
G1 X-46.802 Y8.174
X-46.772 Y8.175
X-46.743
X-38.175
X-38.173 Y16.905
G2 X-38.166 Y17.07 I1.837
G1 X-38.15 Y17.24
X-38.135 Y17.366
X-37.957 Y18.476
G2 X-37.908 Y18.694 I1.814 J-0.291
G1 X-37.835 Y18.95
G2 X-37.759 Y19.163 I1.766 J-0.509
G1 X-37.686 Y19.334
X-37.631 Y19.45
X-37.121 Y20.447
G2 X-37.008 Y20.639 I1.636 J-0.837
G1 X-36.862 Y20.854
G2 X-36.696 Y21.064 I1.522 J-1.029
X-35.691 Y22.085 I11.527 J-10.351
X-35.505 Y22.246 I1.294 J-1.305
G1 X-35.303 Y22.398
G2 X-35.131 Y22.514 I1.108 J-1.466
G1 X-34.992 Y22.596
X-34.889 Y22.653
X-33.904 Y23.153
G2 X-33.716 Y23.236 I0.832 J-1.638
G1 X-33.469 Y23.328
G2 X-33.302 Y23.382 I0.644 J-1.721
G1 X-33.22 Y23.404
G2 X-33.038 Y23.443 I0.478 J-1.774
G1 X-31.856 Y23.636
X-31.71 Y23.654
X-31.539 Y23.668
X-31.389 Y23.674
X31.389
X31.539 Y23.668
X31.71 Y23.654
X31.856 Y23.636
X33.038 Y23.443
G2 X33.304 Y23.379 I-0.296 J-1.814
G1 X33.551 Y23.3
G2 X33.726 Y23.234 I-0.561 J-1.75
G1 X33.832 Y23.187
G2 X34.964 Y22.611 I-7.652 J-16.427
X35.167 Y22.489 I-0.838 J-1.635
G1 X35.376 Y22.346
G2 X35.542 Y22.217 I-1.042 J-1.514
G1 X35.667 Y22.108
X35.764 Y22.018
X36.584 Y21.192
G2 X36.751 Y20.998 I-1.304 J-1.295
G1 X36.912 Y20.783
G2 X37.048 Y20.574 I-1.471 J-1.101
X37.676 Y19.354 I-16.109 J-9.064
X37.774 Y19.121 I-1.641 J-0.828
G1 X37.861 Y18.865
G2 X37.92 Y18.65 I-1.739 J-0.594
G1 X37.975 Y18.381
X38.146 Y17.271
G2 X38.167 Y17.043 I-1.816 J-0.281
G1 X38.174 Y16.787
X38.175 Y16.76
Y16.734
Y8.179
X39.24 Y8.175
X46.914 Y8.173
G2 X47.087 Y8.165 I-0.001 J-1.837
G1 X47.258 Y8.148
X47.376 Y8.133
X48.484 Y7.955
G2 X48.709 Y7.905 I-0.292 J-1.814
G1 X48.965 Y7.83
G2 X49.177 Y7.753 I-0.516 J-1.764
G1 X49.348 Y7.679
X49.458 Y7.627
X50.458 Y7.114
G2 X50.661 Y6.993 I-0.839 J-1.635
G1 X50.881 Y6.842
G2 X51.091 Y6.674 I-1.041 J-1.514
X52.043 Y5.737 I-12.509 J-13.669
X52.168 Y5.599 I-1.301 J-1.297
G1 X52.316 Y5.416
G2 X52.457 Y5.218 I-1.426 J-1.159
G1 X52.588 Y5.003
X52.661 Y4.874
X53.158 Y3.893
G2 X53.245 Y3.694 I-1.639 J-0.831
G1 X53.337 Y3.442
G2 X53.39 Y3.273 I-1.725 J-0.632
G1 X53.412 Y3.189
G2 X53.447 Y3.019 I-1.778 J-0.462
G1 X53.639 Y1.829
G2 X53.658 Y1.663 I-1.814 J-0.293
G1 X53.67 Y1.493
X53.675 Y1.366
X53.673 Y-16.905
G2 X53.666 Y-17.07 I-1.837
G1 X53.65 Y-17.24
X53.634 Y-17.369
X53.45 Y-18.509
G2 X53.397 Y-18.741 I-1.814 J0.293
G1 X53.327 Y-18.973
G2 X53.266 Y-19.145 I-1.761 J0.526
G1 X53.219 Y-19.261
X53.154 Y-19.401
X52.598 Y-20.486
G2 X52.472 Y-20.696 I-1.635 J0.839
G1 X52.346 Y-20.877
G2 X52.212 Y-21.048 I-1.509 J1.048
G1 X51.991 Y-21.291
X51.211 Y-22.067
G2 X51.055 Y-22.205 I-1.296 J1.303
G1 X50.884 Y-22.34
G2 X50.752 Y-22.436 I-1.14 J1.441
G1 X50.662 Y-22.495
G2 X50.498 Y-22.591 I-1.008 J1.536
G1 X49.634 Y-23.038
X49.614 Y-23.048
X49.396 Y-23.157
G2 X49.223 Y-23.233 I-0.824 J1.643
G1 X48.991 Y-23.321
G2 X48.758 Y-23.392 I-0.651 J1.718
G1 X48.526 Y-23.446
X48.389 Y-23.473
X47.28 Y-23.645
G2 X47.058 Y-23.666 I-0.282 J1.816
G1 X46.802 Y-23.674
X46.772 Y-23.675
X46.743
X35.825
X35.807
X35.125 Y-23.668
G2 X34.865 Y-23.647 I0.017 J1.837
G1 X33.671 Y-23.465
G2 X33.463 Y-23.421 I0.278 J1.816
G1 X33.292 Y-23.374
G2 X33.097 Y-23.309 I0.485 J1.772
G1 X32.879 Y-23.222
X32.747 Y-23.163
X31.771 Y-22.682
G2 X31.594 Y-22.582 I0.812 J1.648
G1 X31.424 Y-22.473
G2 X31.28 Y-22.371 I0.989 J1.549
G1 X31.161 Y-22.278
G2 X31.032 Y-22.167 I1.133 J1.446
G1 X30.219 Y-21.399
G2 X30.096 Y-21.271 I1.262 J1.336
G1 X29.947 Y-21.1
G2 X29.814 Y-20.929 I1.385 J1.207
G1 X29.698 Y-20.758
G2 X29.611 Y-20.618 I1.518 J1.036
G1 X29.087 Y-19.679
G2 X29.007 Y-19.517 I1.604 J0.896
G1 X27.593 Y-16.275
X25.991 Y-13.44
X24.058 Y-10.74
X21.927 Y-8.342
X19.518 Y-6.148
X16.903 Y-4.229
X14.117 Y-2.605
X11.106 Y-1.252
X8.05 Y-0.251
X4.829 Y0.438
X1.609 Y0.777
X-1.609
X-4.829 Y0.438
X-8.05 Y-0.251
X-11.106 Y-1.252
X-14.117 Y-2.605
X-16.903 Y-4.229
X-19.518 Y-6.148
X-21.926 Y-8.342
X-24.106 Y-10.8
X-25.99 Y-13.439
X-27.593 Y-16.275
X-29.007 Y-19.517
G2 X-29.087 Y-19.679 I-1.684 J0.735
G1 X-29.611 Y-20.618
G2 X-29.698 Y-20.758 I-1.604 J0.896
G1 X-29.814 Y-20.929
G2 X-29.947 Y-21.1 I-1.518 J1.036
G1 X-30.096 Y-21.271
G2 X-30.219 Y-21.399 I-1.385 J1.207
G1 X-31.032 Y-22.167
G2 X-31.202 Y-22.31 I-1.262 J1.336
G1 X-31.406 Y-22.46
G2 X-31.625 Y-22.6 I-1.092 J1.478
X-32.87 Y-23.217 I-7.911 J14.381
X-33.086 Y-23.305 I-0.799 J1.655
G1 X-33.28 Y-23.37
G2 X-33.501 Y-23.429 I-0.583 J1.743
X-34.872 Y-23.649 I-3.02 J14.458
X-35.138 Y-23.669 I-0.27 J1.818
G1 X-37.868 Y-23.675
X-45.365 Y-23.673
X-45.375
Z-8.5 F100
X-46.914 F200
G2 X-47.087 Y-23.665 J1.837
G1 X-47.258 Y-23.648
X-47.379 Y-23.633
X-48.518 Y-23.448
G2 X-48.758 Y-23.392 I0.295 J1.814
G1 X-48.991 Y-23.321
G2 X-49.164 Y-23.259 I0.535 J1.758
G1 X-49.28 Y-23.21
X-49.404 Y-23.153
G2 X-50.534 Y-22.572 I9.823 J20.482
X-50.708 Y-22.464 I0.88 J1.613
G1 X-50.89 Y-22.336
G2 X-51.06 Y-22.201 I1.055 J1.505
G1 X-51.298 Y-21.984
X-52.073 Y-21.204
G2 X-52.216 Y-21.042 I1.303 J1.295
G1 X-52.35 Y-20.872
G2 X-52.444 Y-20.739 I1.446 J1.134
G1 X-52.503 Y-20.649
G2 X-52.598 Y-20.486 I1.54 J1.002
G1 X-53.154 Y-19.401
G2 X-53.241 Y-19.204 I1.635 J0.839
G1 X-53.327 Y-18.973
G2 X-53.397 Y-18.741 I1.722 J0.642
G1 X-53.45 Y-18.51
X-53.474 Y-18.381
X-53.646 Y-17.271
G2 X-53.667 Y-17.043 I1.816 J0.281
G1 X-53.674 Y-16.787
X-53.675 Y-16.76
Y-16.733
X-53.671 Y1.452
G2 X-53.655 Y1.689 I1.837
X-53.447 Y3.023 I21.808 J-2.724
X-53.387 Y3.274 I1.813 J-0.296
G1 X-53.309 Y3.526
G2 X-53.245 Y3.698 I1.754 J-0.548
G1 X-53.205 Y3.794
X-53.15 Y3.91
X-52.619 Y4.95
G2 X-52.503 Y5.146 I1.636 J-0.836
G1 X-52.357 Y5.361
G2 X-52.234 Y5.522 I1.52 J-1.032
G1 X-52.139 Y5.633
X-52.039 Y5.741
X-51.211 Y6.567
G2 X-51.029 Y6.726 I1.297 J-1.301
G1 X-50.808 Y6.894
G2 X-50.592 Y7.036 I1.115 J-1.46
X-49.362 Y7.672 I8.383 J-14.716
X-49.136 Y7.768 I0.828 J-1.64
G1 X-48.88 Y7.857
G2 X-48.665 Y7.917 I0.602 J-1.736
G1 X-48.389 Y7.973
X-47.28 Y8.145
G2 X-47.058 Y8.166 I0.282 J-1.816
G1 X-46.802 Y8.174
X-46.772 Y8.175
X-46.743
X-38.175
X-38.173 Y16.905
G2 X-38.166 Y17.07 I1.837
G1 X-38.15 Y17.24
X-38.135 Y17.366
X-37.957 Y18.476
G2 X-37.908 Y18.694 I1.814 J-0.291
G1 X-37.835 Y18.95
G2 X-37.759 Y19.163 I1.766 J-0.509
G1 X-37.686 Y19.334
X-37.631 Y19.45
X-37.121 Y20.447
G2 X-37.008 Y20.639 I1.636 J-0.837
G1 X-36.862 Y20.854
G2 X-36.696 Y21.064 I1.522 J-1.029
X-35.691 Y22.085 I11.527 J-10.351
X-35.505 Y22.246 I1.294 J-1.305
G1 X-35.303 Y22.398
G2 X-35.131 Y22.514 I1.108 J-1.466
G1 X-34.992 Y22.596
X-34.889 Y22.653
X-33.904 Y23.153
G2 X-33.716 Y23.236 I0.832 J-1.638
G1 X-33.469 Y23.328
G2 X-33.302 Y23.382 I0.644 J-1.721
G1 X-33.22 Y23.404
G2 X-33.038 Y23.443 I0.478 J-1.774
G1 X-31.856 Y23.636
X-31.71 Y23.654
X-31.539 Y23.668
X-31.389 Y23.674
X31.389
X31.539 Y23.668
X31.71 Y23.654
X31.856 Y23.636
X33.038 Y23.443
G2 X33.304 Y23.379 I-0.296 J-1.814
G1 X33.551 Y23.3
G2 X33.726 Y23.234 I-0.561 J-1.75
G1 X33.832 Y23.187
G2 X34.964 Y22.611 I-7.652 J-16.427
X35.167 Y22.489 I-0.838 J-1.635
G1 X35.376 Y22.346
G2 X35.542 Y22.217 I-1.042 J-1.514
G1 X35.667 Y22.108
X35.764 Y22.018
X36.584 Y21.192
G2 X36.751 Y20.998 I-1.304 J-1.295
G1 X36.912 Y20.783
G2 X37.048 Y20.574 I-1.471 J-1.101
X37.676 Y19.354 I-16.109 J-9.064
X37.774 Y19.121 I-1.641 J-0.828
G1 X37.861 Y18.865
G2 X37.92 Y18.65 I-1.739 J-0.594
G1 X37.975 Y18.381
X38.146 Y17.271
G2 X38.167 Y17.043 I-1.816 J-0.281
G1 X38.174 Y16.787
X38.175 Y16.76
Y16.734
Y8.179
X39.24 Y8.175
X46.914 Y8.173
G2 X47.087 Y8.165 I-0.001 J-1.837
G1 X47.258 Y8.148
X47.376 Y8.133
X48.484 Y7.955
G2 X48.709 Y7.905 I-0.292 J-1.814
G1 X48.965 Y7.83
G2 X49.177 Y7.753 I-0.516 J-1.764
G1 X49.348 Y7.679
X49.458 Y7.627
X50.458 Y7.114
G2 X50.661 Y6.993 I-0.839 J-1.635
G1 X50.881 Y6.842
G2 X51.091 Y6.674 I-1.041 J-1.514
X52.043 Y5.737 I-12.509 J-13.669
X52.168 Y5.599 I-1.301 J-1.297
G1 X52.316 Y5.416
G2 X52.457 Y5.218 I-1.426 J-1.159
G1 X52.588 Y5.003
X52.661 Y4.874
X53.158 Y3.893
G2 X53.245 Y3.694 I-1.639 J-0.831
G1 X53.337 Y3.442
G2 X53.39 Y3.273 I-1.725 J-0.632
G1 X53.412 Y3.189
G2 X53.447 Y3.019 I-1.778 J-0.462
G1 X53.639 Y1.829
G2 X53.658 Y1.663 I-1.814 J-0.293
G1 X53.67 Y1.493
X53.675 Y1.366
X53.673 Y-16.905
G2 X53.666 Y-17.07 I-1.837
G1 X53.65 Y-17.24
X53.634 Y-17.369
X53.45 Y-18.509
G2 X53.397 Y-18.741 I-1.814 J0.293
G1 X53.327 Y-18.973
G2 X53.266 Y-19.145 I-1.761 J0.526
G1 X53.219 Y-19.261
X53.154 Y-19.401
X52.598 Y-20.486
G2 X52.472 Y-20.696 I-1.635 J0.839
G1 X52.346 Y-20.877
G2 X52.212 Y-21.048 I-1.509 J1.048
G1 X51.991 Y-21.291
X51.211 Y-22.067
G2 X51.055 Y-22.205 I-1.296 J1.303
G1 X50.884 Y-22.34
G2 X50.752 Y-22.436 I-1.14 J1.441
G1 X50.662 Y-22.495
G2 X50.498 Y-22.591 I-1.008 J1.536
G1 X49.634 Y-23.038
X49.614 Y-23.048
X49.396 Y-23.157
G2 X49.223 Y-23.233 I-0.824 J1.643
G1 X48.991 Y-23.321
G2 X48.758 Y-23.392 I-0.651 J1.718
G1 X48.526 Y-23.446
X48.389 Y-23.473
X47.28 Y-23.645
G2 X47.058 Y-23.666 I-0.282 J1.816
G1 X46.802 Y-23.674
X46.772 Y-23.675
X46.743
X35.825
X35.807
X35.125 Y-23.668
G2 X34.865 Y-23.647 I0.017 J1.837
G1 X33.671 Y-23.465
G2 X33.463 Y-23.421 I0.278 J1.816
G1 X33.292 Y-23.374
G2 X33.097 Y-23.309 I0.485 J1.772
G1 X32.879 Y-23.222
X32.747 Y-23.163
X31.771 Y-22.682
G2 X31.594 Y-22.582 I0.812 J1.648
G1 X31.424 Y-22.473
G2 X31.28 Y-22.371 I0.989 J1.549
G1 X31.161 Y-22.278
G2 X31.032 Y-22.167 I1.133 J1.446
G1 X30.219 Y-21.399
G2 X30.096 Y-21.271 I1.262 J1.336
G1 X29.947 Y-21.1
G2 X29.814 Y-20.929 I1.385 J1.207
G1 X29.698 Y-20.758
G2 X29.611 Y-20.618 I1.518 J1.036
G1 X29.087 Y-19.679
G2 X29.007 Y-19.517 I1.604 J0.896
G1 X27.593 Y-16.275
X25.991 Y-13.44
X24.058 Y-10.74
X21.927 Y-8.342
X19.518 Y-6.148
X16.903 Y-4.229
X14.117 Y-2.605
X11.106 Y-1.252
X8.05 Y-0.251
X4.829 Y0.438
X1.609 Y0.777
X-1.609
X-4.829 Y0.438
X-8.05 Y-0.251
X-11.106 Y-1.252
X-14.117 Y-2.605
X-16.903 Y-4.229
X-19.518 Y-6.148
X-21.926 Y-8.342
X-24.106 Y-10.8
X-25.99 Y-13.439
X-27.593 Y-16.275
X-29.007 Y-19.517
G2 X-29.087 Y-19.679 I-1.684 J0.735
G1 X-29.611 Y-20.618
G2 X-29.698 Y-20.758 I-1.604 J0.896
G1 X-29.814 Y-20.929
G2 X-29.947 Y-21.1 I-1.518 J1.036
G1 X-30.096 Y-21.271
G2 X-30.219 Y-21.399 I-1.385 J1.207
G1 X-31.032 Y-22.167
G2 X-31.202 Y-22.31 I-1.262 J1.336
G1 X-31.406 Y-22.46
G2 X-31.625 Y-22.6 I-1.092 J1.478
X-32.87 Y-23.217 I-7.911 J14.381
X-33.086 Y-23.305 I-0.799 J1.655
G1 X-33.28 Y-23.37
G2 X-33.501 Y-23.429 I-0.583 J1.743
X-34.872 Y-23.649 I-3.02 J14.458
X-35.138 Y-23.669 I-0.27 J1.818
G1 X-37.868 Y-23.675
X-45.375 Y-23.673
X-45.38 Y-23.724
X-45.401 Y-23.753
G3 X-45.385 Y-23.775 I0.016 J-0.005
G1 X-45.375
X-35.196 Y-23.773
G3 X-33.276 Y-23.476 I-0.883 J12.056
G1 X-33.038 Y-23.395
G3 X-31.396 Y-22.58 I-5.239 J12.613
G1 X-31.161 Y-22.406
X-30.911 Y-22.193
X-30.251 Y-21.569
G3 X-29.482 Y-20.594 I-2.67 J2.897
G1 X-28.962 Y-19.654
X-28.838 Y-19.391
X-27.508 Y-16.341
G2 X-27.422 Y-16.168 I1.684 J-0.734
G1 X-25.927 Y-13.534
G2 X-25.822 Y-13.37 I1.598 J-0.907
G1 X-24.037 Y-10.882
G2 X-23.917 Y-10.732 I1.493 J-1.071
G1 X-21.959 Y-8.529
X-21.863 Y-8.429
X-21.704 Y-8.274
X-21.684 Y-8.256
X-21.664 Y-8.237
X-19.536 Y-6.3
G2 X-19.386 Y-6.177 I1.237 J-1.359
G1 X-16.917 Y-4.364
G2 X-16.755 Y-4.258 I1.087 J-1.481
G1 X-14.146 Y-2.738
G2 X-13.975 Y-2.65 I0.925 J-1.588
G1 X-11.192 Y-1.398
G2 X-11.01 Y-1.327 I0.754 J-1.676
G1 X-8.078 Y-0.368
G2 X-7.889 Y-0.317 I0.571 J-1.746
G1 X-4.904 Y0.319
G2 X-4.714 Y0.349 I0.383 J-1.797
G1 X-1.729 Y0.665
G2 X-1.535 Y0.676 I0.194 J-1.827
G1 X1.535
G2 X1.729 Y0.665 J-1.837
G1 X4.714 Y0.349
G2 X4.904 Y0.319 I-0.194 J-1.827
G1 X7.889 Y-0.317
G2 X8.078 Y-0.368 I-0.383 J-1.797
G1 X11.01 Y-1.327
G2 X11.192 Y-1.398 I-0.571 J-1.746
G1 X13.975 Y-2.65
G2 X14.146 Y-2.738 I-0.754 J-1.676
G1 X16.755 Y-4.258
G2 X16.917 Y-4.364 I-0.925 J-1.588
