%
(dustShoe)
(T1  D=6.35 CR=0 - ZMIN=-27 - flat end mill)
G90 G94
G17
G21
G28 G91 Z0
G90

(Adaptive1)
M9
T1 M6
S10000 M3
G54
M9
G0 X-45.773 Y-84.802
Z15
Z-0.73
G1 Z-1.365 F1524
X-45.771 Y-84.795 Z-1.464
X-45.765 Y-84.772 Z-1.561
X-45.756 Y-84.735 Z-1.653
X-45.743 Y-84.685 Z-1.738
X-45.727 Y-84.622 Z-1.814
X-45.708 Y-84.549 Z-1.879
X-45.687 Y-84.466 Z-1.931
X-45.664 Y-84.377 Z-1.969
X-45.64 Y-84.283 Z-1.992
X-45.615 Y-84.187 Z-2
G3 X-45.118 Y-80.73 I-15.704 J4.023
G1 Y-80.58
G2 X-45.607 Y-76.69 I20.941 J4.608
X-45.74 Y-68.84 I152.298 J6.496
G1 X-45.75 Y-66.877
X-45.753 Y-62.951
Y-33.505
Y74.461
X-45.691 Y74.948
X-45.477 Y75.389
X-44.878 Y76.167
X-44.081 Y76.74
X-43.19 Y77.151
X-42.252 Y77.442
G2 X-38.365 Y77.95 I4.607 J-20.128
X-30.515 Y78.088 I6.497 J-146.465
G1 X-28.552 Y78.099
X-24.626 Y78.102
X-2.051
X42.117
X42.604 Y78.038
X43.044 Y77.822
X43.821 Y77.222
X44.393 Y76.425
X44.804 Y75.533
X45.094 Y74.596
G2 X45.602 Y70.709 I-20.161 J-4.607
X45.739 Y62.859 I-146.699 J-6.496
G1 X45.75 Y60.896
X45.753 Y56.97
Y30.469
Y-74.553
X45.652 Y-75.034
X45.419 Y-75.465
X44.796 Y-76.224
X43.988 Y-76.781
X43.091 Y-77.181
X42.151 Y-77.463
G2 X38.262 Y-77.955 I-4.608 J20.798
X30.412 Y-78.089 I-6.496 J151.275
G1 X28.449 Y-78.099
X24.523 Y-78.102
X-4.923
X-39.276
X-39.521 Y-78.099
X-40.004 Y-78.012
X-40.873 Y-77.556
X-41.536 Y-76.833
X-42.024 Y-75.981
X-42.375 Y-75.064
X-42.626 Y-74.115
G2 X-43.072 Y-70.219 I23.769 J4.697
X-43.2 Y-62.369 I162.848 J6.574
G1 X-43.21 Y-60.406
X-43.212 Y-56.48
X-43.213 Y-34.886
Y71.117
X-43.15 Y71.604
X-42.831 Y72.532
X-42.219 Y73.3
X-41.441 Y73.898
X-40.57 Y74.351
X-39.648 Y74.687
X-38.698 Y74.933
G2 X-34.803 Y75.398 I4.9 J-24.529
X-26.954 Y75.546 I6.725 J-148.326
G1 X-24.99 Y75.557
X-22.046 Y75.561
X-15.175 Y75.562
X21.141
X38.808
X39.294 Y75.491
X40.217 Y75.158
X40.977 Y74.538
X41.57 Y73.755
X42.017 Y72.881
X42.349 Y71.958
X42.593 Y71.007
G2 X43.051 Y67.111 I-24.854 J-4.899
X43.197 Y59.262 I-150.381 J-6.725
G1 X43.208 Y57.299
X43.212 Y54.354
X43.213 Y47.484
Y44.539
Y-5.518
Y-71.28
X43.116 Y-71.761
X42.739 Y-72.667
X42.093 Y-73.406
X41.296 Y-73.979
X40.415 Y-74.412
X39.487 Y-74.732
X38.534 Y-74.966
G2 X34.636 Y-75.407 I-4.898 J25.868
X26.786 Y-75.547 I-6.724 J156.592
G1 X24.823 Y-75.558
X21.879 Y-75.561
X14.027 Y-75.562
X10.101
X-36.031
X-36.52 Y-75.528
X-36.993 Y-75.398
X-37.876 Y-74.968
X-38.59 Y-74.295
X-39.141 Y-73.483
X-39.557 Y-72.593
X-39.865 Y-71.662
G2 X-40.457 Y-67.787 I19.356 J4.939
X-40.648 Y-60.92 I101.44 J6.262
X-40.672 Y-54.049 I609.856 J5.523
G1 X-40.673 Y-47.179
Y-23.622
Y68.64
X-40.408 Y69.585
X-39.856 Y70.396
X-39.123 Y71.049
X-38.283 Y71.556
X-37.38 Y71.942
X-36.442 Y72.23
G2 X-32.562 Y72.8 I5.066 J-21.019
X-25.696 Y72.995 I6.373 J-103.192
X-18.825 Y73.02 I5.632 J-598.534
G1 X-12.936 Y73.022
X15.528
X36.139
X37.098 Y72.81
X37.933 Y72.294
X38.611 Y71.584
X39.139 Y70.757
X39.541 Y69.862
X39.843 Y68.928
G2 X40.44 Y65.053 I-20.018 J-5.064
X40.645 Y58.187 I-98.39 J-6.373
X40.671 Y51.317 I-570.681 J-5.632
G1 X40.673 Y45.428
Y-4.63
Y-68.428
X40.48 Y-69.391
X39.98 Y-70.235
X39.278 Y-70.921
X38.457 Y-71.458
X37.565 Y-71.868
X36.633 Y-72.176
G2 X32.76 Y-72.784 I-5.062 J19.604
X25.895 Y-72.993 I-6.372 J96.483
X19.024 Y-73.02 I-5.632 J559.788
G1 X13.135 Y-73.022
X6.264
X-32.996
X-33.977 Y-72.992
X-34.893 Y-72.637
X-35.664 Y-72.03
X-36.28 Y-71.266
X-36.756 Y-70.408
X-37.117 Y-69.495
X-37.388 Y-68.552
G2 X-37.922 Y-64.667 I22.591 J5.087
X-38.111 Y-56.818 I123.401 J6.897
G1 X-38.123 Y-55.837
X-38.128 Y-53.874
X-38.131 Y-50.929
X-38.133 Y-44.059
Y-14.613
Y65.871
X-37.902 Y66.825
X-37.383 Y67.658
X-36.675 Y68.338
X-35.852 Y68.873
X-34.961 Y69.284
X-34.03 Y69.595
G2 X-30.16 Y70.223 I5.155 J-19.542
X-23.295 Y70.449 I6.468 J-92.021
X-15.443 Y70.48 I6.404 J-620.027
G1 X-8.573 Y70.482
X29.707
X33.633
X34.575 Y70.209
X35.392 Y69.665
X36.054 Y68.94
X36.574 Y68.108
X36.973 Y67.211
X37.275 Y66.277
G2 X37.883 Y62.404 I-20.194 J-5.152
X38.101 Y55.539 I-95.225 J-6.464
X38.131 Y47.687 I-642.617 J-6.4
G1 X38.133 Y40.816
Y26.093
Y-65.188
X38.113 Y-66.169
X37.78 Y-67.093
X37.193 Y-67.879
X36.444 Y-68.513
X35.596 Y-69.008
X34.691 Y-69.387
X33.752 Y-69.673
G2 X29.873 Y-70.247 I-5.151 J21.437
X23.007 Y-70.452 I-6.462 J101.108
X16.136 Y-70.48 I-5.729 J568.562
G1 X10.247 Y-70.482
X-18.217
X-29.995
X-30.976 Y-70.481
X-31.929 Y-70.244
X-32.761 Y-69.723
X-33.441 Y-69.016
X-33.976 Y-68.193
X-34.388 Y-67.302
X-34.7 Y-66.371
G2 X-35.33 Y-62.502 I19.525 J5.168
X-35.559 Y-55.637 I91.418 J6.484
X-35.591 Y-47.785 I612.111 J6.421
G1 X-35.593 Y-41.896
Y-35.025
Y15.032
Y63.126
X-35.402 Y64.089
X-34.919 Y64.944
X-34.238 Y65.65
X-33.432 Y66.21
X-32.551 Y66.644
X-31.627 Y66.975
G2 X-27.767 Y67.652 I5.209 J-18.363
X-20.903 Y67.904 I6.531 J-84.481
X-13.051 Y67.94 I6.476 J-554.958
G1 X-7.162 Y67.942
X14.432
X30.136
X31.117 Y67.934
X32.05 Y67.629
X32.855 Y67.067
X33.508 Y66.335
X34.023 Y65.499
X34.419 Y64.601
X34.72 Y63.666
G2 X35.332 Y59.794 I-20.38 J-5.208
X35.559 Y52.929 I-93.734 J-6.525
X35.591 Y45.077 I-616.909 J-6.469
G1 X35.593 Y39.188
Y36.243
Y-13.814
Y-62.89
X35.481 Y-63.865
X35.062 Y-64.753
X34.42 Y-65.495
X33.638 Y-66.089
X32.773 Y-66.552
X31.857 Y-66.906
X30.913 Y-67.174
G2 X27.029 Y-67.714 I-5.198 J23.137
X19.181 Y-67.917 I-7.019 J119.61
G1 X15.582 Y-67.936
X11.983 Y-67.945
X8.384 Y-67.942
X-13.209
X-27.932
X-28.909 Y-67.844
X-29.803 Y-67.44
X-30.555 Y-66.809
X-31.159 Y-66.036
X-31.63 Y-65.175
X-31.991 Y-64.262
X-32.264 Y-63.319
G2 X-32.817 Y-59.437 I22.683 J5.215
X-33.027 Y-51.589 I116.384 J7.034
X-33.051 Y-44.718 I578.383 J5.485
G1 X-33.053 Y-37.848
Y-34.903
Y15.154
Y60.304
X-32.932 Y61.278
X-32.512 Y62.165
X-31.875 Y62.911
X-31.096 Y63.51
X-30.233 Y63.977
X-29.32 Y64.335
X-28.377 Y64.608
G2 X-24.494 Y65.162 I5.243 J-22.839
X-16.647 Y65.375 I7.066 J-115.675
X-9.776 Y65.4 I5.52 J-570.591
G1 X-3.887 Y65.402
X19.669
X27.521
X28.503 Y65.396
X29.439 Y65.101
X30.251 Y64.549
X30.912 Y63.824
X31.435 Y62.993
X31.839 Y62.099
X32.147 Y61.167
G2 X32.778 Y57.298 I-19.963 J-5.244
X33.016 Y50.433 I-90.409 J-6.568
X33.051 Y42.581 I-584.674 J-6.52
G1 X33.053 Y36.692
Y25.895
Y-60.478
X32.88 Y-61.445
X32.418 Y-62.31
X31.749 Y-63.029
X30.953 Y-63.602
X30.079 Y-64.049
X29.159 Y-64.391
X28.212 Y-64.65
G2 X24.325 Y-65.176 I-5.233 J24.048
X16.477 Y-65.377 I-7.056 J122.34
G1 X12.878 Y-65.396
X9.28 Y-65.404
X5.681 Y-65.402
X-24.746
X-25.728 Y-65.4
X-26.684 Y-65.177
X-27.528 Y-64.677
X-28.226 Y-63.986
X-28.78 Y-63.176
X-29.211 Y-62.294
X-29.54 Y-61.37
G2 X-30.217 Y-57.509 I18.557 J5.242
X-30.473 Y-50.645 I84.197 J6.575
X-30.513 Y-37.886 I997.428 J9.493
G1 Y-14.329
Y57.321
X-30.496 Y58.303
X-30.195 Y59.237
X-29.638 Y60.045
X-28.913 Y60.707
X-28.083 Y61.23
X-27.189 Y61.635
X-26.257 Y61.944
G2 X-22.389 Y62.581 I5.268 J-19.943
X-15.524 Y62.823 I6.598 J-89.436
X-4.728 Y62.861 I8.397 J-855.759
G1 X9.995 Y62.862
X24.718
X25.699
X26.656 Y62.643
X27.502 Y62.146
X28.203 Y61.459
X28.76 Y60.651
X29.193 Y59.77
X29.525 Y58.846
G2 X30.21 Y54.987 I-18.451 J-5.265
X30.471 Y48.123 I-82.925 J-6.598
X30.513 Y35.364 I-969.191 J-9.52
G1 Y-4.878
Y-57.88
X30.346 Y-58.847
X29.891 Y-59.717
X29.23 Y-60.443
X28.438 Y-61.023
X27.568 Y-61.476
X26.65 Y-61.823
X25.704 Y-62.087
G2 X21.82 Y-62.626 I-5.26 J23.641
X13.972 Y-62.835 I-7.087 J118.792
X7.101 Y-62.86 I-5.544 J582.515
G1 X1.212 Y-62.862
X-14.492
X-22.344
X-23.326 Y-62.855
X-24.267 Y-62.578
X-25.089 Y-62.042
X-25.763 Y-61.328
X-26.298 Y-60.505
X-26.713 Y-59.615
X-27.03 Y-58.686
G2 X-27.684 Y-54.821 I19.37 J5.265
X-27.933 Y-47.957 I87.004 J6.597
G1 X-27.958 Y-44.767
X-27.973 Y-41.577
X-27.978 Y-38.388
X-27.973 Y-35.198
Y-23.419
Y55.102
X-27.873 Y56.078
X-27.478 Y56.977
X-26.856 Y57.736
X-26.089 Y58.349
X-25.234 Y58.83
X-24.326 Y59.202
X-23.386 Y59.485
G2 X-19.508 Y60.065 I5.275 J-22.006
X-11.661 Y60.292 I7.111 J-109.897
X-3.808 Y60.32 I6.268 J-654.412
G1 X4.044 Y60.322
X22.692
X23.671 Y60.24
X24.576 Y59.86
X25.344 Y59.249
X25.967 Y58.491
X26.456 Y57.64
X26.833 Y56.733
X27.12 Y55.795
G2 X27.711 Y51.919 I-21.63 J-5.279
X27.937 Y45.053 I-96.515 J-6.612
X27.971 Y37.201 I-612.613 J-6.577
G1 X27.973 Y31.312
Y-5.986
Y-55.061
X27.883 Y-56.039
X27.496 Y-56.941
X26.882 Y-57.707
X26.121 Y-58.326
X25.268 Y-58.812
X24.361 Y-59.188
X23.422 Y-59.473
G2 X19.546 Y-60.061 I-5.28 J21.747
X11.699 Y-60.292 I-7.112 J108.356
X4.828 Y-60.32 I-5.573 J528.441
G1 X-1.061 Y-60.322
X-19.71
X-20.691 Y-60.321
X-21.64 Y-60.071
X-22.474 Y-59.552
X-23.161 Y-58.852
X-23.707 Y-58.036
X-24.132 Y-57.151
X-24.458 Y-56.225
G2 X-25.132 Y-52.364 I18.865 J5.282
X-25.391 Y-45.5 I84.161 J6.618
X-25.433 Y-32.741 I972.106 J9.545
G1 Y-12.129
Y52.651
X-25.301 Y53.624
X-24.877 Y54.509
X-24.238 Y55.254
X-23.461 Y55.854
X-22.6 Y56.324
X-21.687 Y56.686
X-20.746 Y56.962
G2 X-16.865 Y57.53 I5.285 J-22.603
X-9.018 Y57.753 I7.121 J-112.38
X-2.147 Y57.78 I5.586 J-546.326
G1 X3.742 Y57.782
X7.668
X20.427
X21.394 Y57.612
X22.264 Y57.157
X22.99 Y56.497
X23.572 Y55.706
X24.027 Y54.837
X24.378 Y53.92
X24.644 Y52.975
G2 X25.19 Y49.092 I-23.466 J-5.281
X25.405 Y41.244 I-116.87 J-7.12
X25.431 Y34.374 I-568.216 J-5.585
G1 X25.433 Y28.485
Y22.595
Y-27.462
Y-52
X25.428 Y-52.981
X25.191 Y-53.934
X24.684 Y-54.774
X23.992 Y-55.47
X23.182 Y-56.025
X22.3 Y-56.457
X21.376 Y-56.788
G2 X17.517 Y-57.474 I-5.286 J18.538
X10.654 Y-57.739 I-6.628 J82.602
X-2.106 Y-57.782 I-9.615 J965.371
G1 X-17.81
X-18.78 Y-57.635
X-19.659 Y-57.198
X-20.398 Y-56.551
X-20.991 Y-55.769
X-21.455 Y-54.905
X-21.812 Y-53.99
X-22.084 Y-53.047
G2 X-22.643 Y-49.166 I22.977 J5.29
X-22.864 Y-41.318 I113.943 J7.127
G1 X-22.886 Y-37.719
X-22.895 Y-34.121
X-22.892 Y-30.522
X-22.893 Y-1.076
Y49.963
X-22.8 Y50.94
X-22.412 Y51.842
X-21.801 Y52.609
X-21.04 Y53.23
X-20.189 Y53.718
X-19.282 Y54.094
X-18.344 Y54.382
G2 X-14.468 Y54.976 I5.297 J-21.638
X-7.603 Y55.205 I6.633 J-95.875
G1 X-4.413 Y55.228
X-1.223 Y55.242
X1.967 Y55.246
X5.157 Y55.242
X17.917
X18.881 Y55.06
X19.745 Y54.595
X20.467 Y53.929
X21.044 Y53.136
X21.496 Y52.264
X21.843 Y51.346
X22.107 Y50.401
G2 X22.65 Y46.517 I-23.69 J-5.292
X22.865 Y38.669 I-117.383 J-7.13
X22.891 Y30.817 I-686.935 J-6.267
G1 X22.893 Y22.965
Y-19.24
Y-49.667
X22.871 Y-50.648
X22.567 Y-51.582
X22.013 Y-52.392
X21.29 Y-53.055
X20.461 Y-53.581
X19.569 Y-53.99
X18.639 Y-54.303
G2 X14.772 Y-54.951 I-5.292 J19.725
X7.908 Y-55.201 I-6.632 J87.635
G1 X4.718 Y-55.226
X1.528 Y-55.242
X-1.662 Y-55.247
X-4.851 Y-55.242
X-14.667
X-15.648 Y-55.233
X-16.592 Y-54.962
X-17.418 Y-54.432
X-18.098 Y-53.724
X-18.639 Y-52.905
X-19.06 Y-52.019
X-19.383 Y-51.092
G2 X-20.051 Y-47.229 I19.085 J5.292
X-20.31 Y-40.366 I84.809 J6.637
X-20.352 Y-28.588 I891.723 J9.055
G1 X-20.353 Y-9.939
Y46.989
X-20.345 Y47.97
X-20.082 Y48.916
X-19.556 Y49.745
X-18.852 Y50.429
X-18.036 Y50.974
X-17.15 Y51.398
X-16.224 Y51.722
G2 X-12.363 Y52.397 I5.3 J-18.961
X-5.499 Y52.659 I6.645 J-83.988
X5.297 Y52.701 I8.563 J-810.681
G1 X15.112 Y52.702
X16.088 Y52.596
X16.985 Y52.198
X17.746 Y51.578
X18.361 Y50.813
X18.844 Y49.958
X19.217 Y49.05
X19.502 Y48.111
G2 X20.089 Y44.234 I-21.906 J-5.301
X20.322 Y36.387 I-108.177 J-7.141
G1 X20.346 Y32.461
X20.356 Y28.535
X20.353 Y24.609
Y18.72
Y-31.337
Y-47.042
X20.346 Y-48.023
X20.067 Y-48.964
X19.531 Y-49.786
X18.819 Y-50.462
X17.998 Y-50.999
X17.109 Y-51.417
X16.182 Y-51.737
G2 X12.318 Y-52.401 I-5.302 J19.258
X5.455 Y-52.659 I-6.643 J85.244
X-3.379 Y-52.7 I-7.287 J627.988
G1 X-9.268 Y-52.702
X-11.231
X-12.213
X-13.194 Y-52.684
X-14.129 Y-52.386
X-14.943 Y-51.838
X-15.61 Y-51.118
X-16.139 Y-50.291
X-16.55 Y-49.399
X-16.865 Y-48.47
G2 X-17.518 Y-44.604 I19.602 J5.3
X-17.771 Y-37.74 I86.822 J6.642
X-17.813 Y-24.981 I988.43 J9.579
G1 Y-6.332
Y44.707
X-17.763 Y45.687
X-17.423 Y46.608
X-16.843 Y47.399
X-16.103 Y48.045
X-15.265 Y48.555
X-14.367 Y48.951
X-13.433 Y49.253
G2 X-9.563 Y49.88 I5.297 J-20.467
X-2.698 Y50.122 I6.642 J-90.753
G1 X1.228 Y50.15
X5.154 Y50.165
X9.08 Y50.166
X13.006 Y50.155
X13.957 Y49.914
X14.797 Y49.406
X15.492 Y48.713
X16.047 Y47.903
X16.479 Y47.022
X16.811 Y46.098
G2 X17.5 Y42.24 I-18.52 J-5.299
X17.769 Y35.377 I-82.109 J-6.647
X17.811 Y26.543 I-603.707 J-7.295
G1 X17.813 Y20.654
Y-13.699
Y-45.107
X17.651 Y-46.075
X17.204 Y-46.949
X16.551 Y-47.682
X15.765 Y-48.271
X14.899 Y-48.731
X13.983 Y-49.086
X13.04 Y-49.356
G2 X9.158 Y-49.912 I-5.303 J23.19
X1.31 Y-50.132 I-7.144 J114.385
G1 X-2.616 Y-50.156
X-6.542 Y-50.164
X-10.468 Y-50.158
X-11.42 Y-49.921
X-12.259 Y-49.412
X-12.954 Y-48.719
X-13.508 Y-47.909
X-13.939 Y-47.027
X-14.271 Y-46.103
G2 X-14.96 Y-42.245 I18.551 J5.304
X-15.229 Y-35.381 I82.073 J6.65
X-15.271 Y-26.548 I602.911 J7.297
G1 X-15.273 Y-20.659
Y-13.788
Y42.158
X-15.227 Y43.139
X-14.888 Y44.06
X-14.31 Y44.853
X-13.572 Y45.5
X-12.734 Y46.01
X-11.835 Y46.407
X-10.902 Y46.71
G2 X-7.032 Y47.338 I5.305 J-20.455
X-0.167 Y47.582 I6.647 J-90.376
X10.629 Y47.61 I7.053 J-639.878
G1 X11.566 Y47.312
X12.383 Y46.768
X13.053 Y46.05
X13.585 Y45.226
X13.998 Y44.336
X14.316 Y43.407
G2 X14.975 Y39.542 I-19.448 J-5.303
X15.231 Y32.679 I-86.054 J-6.647
X15.273 Y19.919 I-976.564 J-9.588
G1 Y-15.416
Y-41.916
X15.264 Y-42.898
X14.996 Y-43.842
X14.469 Y-44.67
X13.763 Y-45.352
X12.945 Y-45.895
X12.06 Y-46.318
X11.133 Y-46.643
G2 X7.272 Y-47.317 I-5.298 J18.97
X0.408 Y-47.579 I-6.648 J84.123
X-7.444 Y-47.617 I-6.396 J509.398
G1 X-8.421 Y-47.528
X-9.324 Y-47.143
X-10.09 Y-46.531
X-10.712 Y-45.771
X-11.201 Y-44.92
X-11.579 Y-44.014
X-11.868 Y-43.076
G2 X-12.464 Y-39.201 I21.605 J5.305
X-12.695 Y-32.335 I95.423 J6.648
G1 X-12.718 Y-29.146
X-12.732 Y-25.956
X-12.737 Y-22.766
X-12.733 Y-19.576
Y-0.927
Y39.315
X-12.728 Y40.297
X-12.481 Y41.247
X-11.967 Y42.083
X-11.271 Y42.775
X-10.459 Y43.326
X-9.576 Y43.755
X-8.651 Y44.084
G2 X-4.792 Y44.77 I5.307 J-18.673
X2.071 Y45.038 I6.654 J-82.513
X7.96 Y45.073 I4.971 J-340.066
G1 X8.909 Y44.824
X9.744 Y44.307
X10.434 Y43.609
X10.983 Y42.796
X11.41 Y41.912
X11.739 Y40.987
G2 X12.422 Y37.128 I-18.734 J-5.307
X12.689 Y30.264 I-82.786 J-6.653
X12.731 Y21.431 I-607.158 J-7.303
G1 X12.733 Y15.542
Y10.634
Y-39.423
X12.724 Y-40.405
X12.441 Y-41.345
X11.905 Y-42.167
X11.192 Y-42.841
X10.37 Y-43.378
X9.481 Y-43.795
X8.553 Y-44.115
G2 X4.69 Y-44.78 I-5.306 J19.272
X-2.173 Y-45.039 I-6.651 J85.158
G1 X-3.155 Y-45.055
X-4.136 Y-45.062
X-5.118 Y-45.067
X-6.087 Y-44.915
X-6.965 Y-44.475
X-7.699 Y-43.823
X-8.29 Y-43.039
X-8.752 Y-42.174
X-9.109 Y-41.26
X-9.381 Y-40.316
G2 X-9.941 Y-36.435 I23.007 J5.3
X-10.163 Y-28.588 I113.694 J7.144
G1 X-10.185 Y-24.989
X-10.195 Y-21.39
X-10.192 Y-17.791
X-10.193 Y6.747
Y37.174
X-10.12 Y38.153
X-9.757 Y39.064
X-9.158 Y39.842
X-8.408 Y40.475
X-7.563 Y40.974
X-6.66 Y41.36
X-5.724 Y41.656
G2 X-1.851 Y42.266 I5.305 J-21.077
X5.014 Y42.503 I6.647 J-93.044
G1 X5.988 Y42.39
X6.878 Y41.976
X7.629 Y41.344
X8.236 Y40.572
X8.711 Y39.714
X9.077 Y38.803
X9.357 Y37.862
G2 X9.933 Y33.983 I-22.365 J-5.304
X10.162 Y26.136 I-110.296 J-7.15
X10.192 Y17.303 I-767.871 J-6.984
G1 X10.193 Y8.469
Y-36.681
X10.192 Y-37.662
X9.975 Y-38.619
X9.483 Y-39.469
X8.802 Y-40.175
X7.998 Y-40.739
X7.12 Y-41.178
X6.199 Y-41.516
G2 X2.343 Y-42.221 I-5.307 J18.144
X-2.557 Y-42.468 I-5.651 J63.355
G1 X-3.528 Y-42.332
X-4.409 Y-41.899
X-5.149 Y-41.254
X-5.743 Y-40.473
X-6.208 Y-39.608
X-6.566 Y-38.694
X-6.839 Y-37.752
G2 X-7.401 Y-33.87 I22.912 J5.297
X-7.623 Y-26.023 I113.391 J7.143
G1 X-7.646 Y-22.097
X-7.656 Y-18.171
X-7.653 Y-14.245
Y34.831
X-7.525 Y35.804
X-7.107 Y36.692
X-6.473 Y37.441
X-5.699 Y38.045
X-4.84 Y38.519
X-3.929 Y38.886
X-2.988 Y39.165
G2 X0.89 Y39.742 I5.303 J-22.34
G1 X1.869 Y39.811
X2.85 Y39.853
X3.806 Y39.631
X4.649 Y39.129
X5.346 Y38.437
X5.9 Y37.627
X6.331 Y36.745
X6.661 Y35.821
G2 X7.344 Y31.961 I-18.615 J-5.285
X7.609 Y25.098 I-83.051 J-6.642
X7.651 Y16.265 I-611.495 J-7.297
G1 X7.653 Y10.375
Y3.505
Y-34.774
X7.542 Y-35.749
X7.138 Y-36.644
X6.514 Y-37.402
X5.747 Y-38.015
X4.892 Y-38.496
X3.983 Y-38.867
X3.044 Y-39.151
X2.086 Y-39.366
X1.118 Y-39.527
X0.144 Y-39.649
X-0.347 Y-39.632
X-1.308 Y-39.433
X-2.153 Y-38.933
X-2.848 Y-38.24
X-3.397 Y-37.427
X-3.823 Y-36.543
X-4.147 Y-35.616
G2 X-4.815 Y-31.754 I18.911 J5.258
X-5.071 Y-24.89 I85.391 J6.621
X-5.113 Y-12.13 I980.847 J9.574
G1 Y10.445
Y32.038
X-5.054 Y33.018
X-4.703 Y33.934
X-4.116 Y34.721
X-3.373 Y35.362
X-2.532 Y35.868
X-1.632 Y36.26
X-0.697 Y36.559
X-0.22 Y36.673
X0.269 Y36.719
X0.756 Y36.664
X1.693 Y36.371
X2.488 Y35.796
X3.125 Y35.048
X3.62 Y34.201
X3.998 Y33.295
X4.284 Y32.356
G2 X4.862 Y28.478 I-21.643 J-5.209
X5.084 Y20.631 I-111.684 J-7.086
X5.112 Y11.797 I-756.815 J-6.823
G1 X5.113 Y1.982
Y-32.371
X4.96 Y-33.341
X4.521 Y-34.219
X3.873 Y-34.955
X3.09 Y-35.548
X2.658 Y-35.78
X2.186 Y-35.916
X1.696 Y-35.909
X1.577 Y-35.878
X0.641 Y-35.583
X-0.138 Y-34.986
X-0.751 Y-34.219
X-1.219 Y-33.357
X-1.572 Y-32.441
X-1.836 Y-31.495
G2 X-2.357 Y-27.608 I23.44 J5.118
X-2.548 Y-19.76 I126.409 J7.016
G1 X-2.567 Y-16.161
X-2.575 Y-12.562
X-2.573 Y-8.963
Y7.722
G2 X-2.481 Y10.105 I24.475 J0.25
G3 X-2.355 Y19.823 I-226.473 J7.798
G1 X-2.346 Y22.768
X-2.345 Y29.638
X-2.231 Y30.613
X-2.021 Y31.056
G2 X0.292 Y31.43 I1.301 J-0.709
G1 X0.622 Y31.067
X1.073 Y30.195
X1.409 Y29.273
X1.658 Y28.323
G2 X2.145 Y24.431 I-24.876 J-5.086
X2.322 Y16.582 I-136.232 J-6.998
G1 X2.338 Y13.638
X2.345 Y10.693
X2.344 Y7.749
X2.345 Y-7.955
Y-29.058
X2.343 Y-29.303
G3 X2.397 Y-29.545 I0.635 J0.016
G1 X2.491 Y-30.086
G2 X2.005 Y-32.139 I-2.449 J-0.504
G1 X-40.981 Y-82.683
X-41.204 Y-82.842
G2 X-42.542 Y-83.23 Z-4 I-1.338 J2.112
X-44.966 Y-81.344 J2.5
G1 X-45.058 Y-80.972
X-45.118 Y-80.73
Y-80.58
G2 X-45.607 Y-76.69 I20.941 J4.608
X-45.74 Y-68.84 I152.298 J6.496
G1 X-45.75 Y-66.877
X-45.753 Y-62.951
Y-33.505
Y74.461
X-45.691 Y74.948
X-45.477 Y75.389
X-44.878 Y76.167
X-44.081 Y76.74
X-43.19 Y77.151
X-42.252 Y77.442
G2 X-38.365 Y77.95 I4.607 J-20.128
X-30.515 Y78.088 I6.497 J-146.465
G1 X-28.552 Y78.099
X-24.626 Y78.102
X-2.051
X42.117
X42.604 Y78.038
X43.044 Y77.822
X43.821 Y77.222
X44.393 Y76.425
X44.804 Y75.533
X45.094 Y74.596
G2 X45.602 Y70.709 I-20.161 J-4.607
X45.739 Y62.859 I-146.699 J-6.496
G1 X45.75 Y60.896
X45.753 Y56.97
Y30.469
Y-74.553
X45.652 Y-75.034
X45.419 Y-75.465
X44.796 Y-76.224
X43.988 Y-76.781
X43.091 Y-77.181
X42.151 Y-77.463
G2 X38.262 Y-77.955 I-4.608 J20.798
X30.412 Y-78.089 I-6.496 J151.275
G1 X28.449 Y-78.099
X24.523 Y-78.102
X-4.923
X-39.276
X-39.521 Y-78.099
X-40.004 Y-78.012
X-40.873 Y-77.556
X-41.536 Y-76.833
X-42.024 Y-75.981
X-42.375 Y-75.064
X-42.626 Y-74.115
G2 X-43.072 Y-70.219 I23.769 J4.697
X-43.2 Y-62.369 I162.848 J6.574
G1 X-43.21 Y-60.406
X-43.212 Y-56.48
X-43.213 Y-34.886
Y71.117
X-43.15 Y71.604
X-42.831 Y72.532
X-42.219 Y73.3
X-41.441 Y73.898
X-40.57 Y74.351
X-39.648 Y74.687
X-38.698 Y74.933
G2 X-34.803 Y75.398 I4.9 J-24.529
X-26.954 Y75.546 I6.725 J-148.326
G1 X-24.99 Y75.557
X-22.046 Y75.561
X-15.175 Y75.562
X21.141
X38.808
X39.294 Y75.491
X40.217 Y75.158
X40.977 Y74.538
X41.57 Y73.755
X42.017 Y72.881
X42.349 Y71.958
X42.593 Y71.007
G2 X43.051 Y67.111 I-24.854 J-4.899
X43.197 Y59.262 I-150.381 J-6.725
G1 X43.208 Y57.299
X43.212 Y54.354
X43.213 Y47.484
Y44.539
Y-5.518
Y-71.28
X43.116 Y-71.761
X42.739 Y-72.667
X42.093 Y-73.406
X41.296 Y-73.979
X40.415 Y-74.412
X39.487 Y-74.732
X38.534 Y-74.966
G2 X34.636 Y-75.407 I-4.898 J25.868
X26.786 Y-75.547 I-6.724 J156.592
G1 X24.823 Y-75.558
X21.879 Y-75.561
X14.027 Y-75.562
X10.101
X-36.031
X-36.52 Y-75.528
X-36.993 Y-75.398
X-37.876 Y-74.968
X-38.59 Y-74.295
X-39.141 Y-73.483
X-39.557 Y-72.593
X-39.865 Y-71.662
G2 X-40.457 Y-67.787 I19.356 J4.939
X-40.648 Y-60.92 I101.44 J6.262
X-40.672 Y-54.049 I609.856 J5.523
G1 X-40.673 Y-47.179
Y-23.622
Y68.64
X-40.408 Y69.585
X-39.856 Y70.396
X-39.123 Y71.049
X-38.283 Y71.556
X-37.38 Y71.942
X-36.442 Y72.23
G2 X-32.562 Y72.8 I5.066 J-21.019
X-25.696 Y72.995 I6.373 J-103.192
X-18.825 Y73.02 I5.632 J-598.534
G1 X-12.936 Y73.022
X15.528
X36.139
X37.098 Y72.81
X37.933 Y72.294
X38.611 Y71.584
X39.139 Y70.757
X39.541 Y69.862
X39.843 Y68.928
G2 X40.44 Y65.053 I-20.018 J-5.064
X40.645 Y58.187 I-98.39 J-6.373
X40.671 Y51.317 I-570.681 J-5.632
G1 X40.673 Y45.428
Y-4.63
Y-68.428
X40.48 Y-69.391
X39.98 Y-70.235
X39.278 Y-70.921
X38.457 Y-71.458
X37.565 Y-71.868
X36.633 Y-72.176
G2 X32.76 Y-72.784 I-5.062 J19.604
X25.895 Y-72.993 I-6.372 J96.483
X19.024 Y-73.02 I-5.632 J559.788
G1 X13.135 Y-73.022
X6.264
X-32.996
X-33.977 Y-72.992
X-34.893 Y-72.637
X-35.664 Y-72.03
X-36.28 Y-71.266
X-36.756 Y-70.408
X-37.117 Y-69.495
X-37.388 Y-68.552
G2 X-37.922 Y-64.667 I22.591 J5.087
X-38.111 Y-56.818 I123.401 J6.897
G1 X-38.123 Y-55.837
X-38.128 Y-53.874
X-38.131 Y-50.929
X-38.133 Y-44.059
Y-14.613
Y65.871
X-37.902 Y66.825
X-37.383 Y67.658
X-36.675 Y68.338
X-35.852 Y68.873
X-34.961 Y69.284
X-34.03 Y69.595
G2 X-30.16 Y70.223 I5.155 J-19.542
X-23.295 Y70.449 I6.468 J-92.021
X-15.443 Y70.48 I6.404 J-620.027
G1 X-8.573 Y70.482
X29.707
X33.633
X34.575 Y70.209
X35.392 Y69.665
X36.054 Y68.94
X36.574 Y68.108
X36.973 Y67.211
X37.275 Y66.277
G2 X37.883 Y62.404 I-20.194 J-5.152
X38.101 Y55.539 I-95.225 J-6.464
X38.131 Y47.687 I-642.617 J-6.4
G1 X38.133 Y40.816
Y26.093
Y-65.188
X38.113 Y-66.169
X37.78 Y-67.093
X37.193 Y-67.879
X36.444 Y-68.513
X35.596 Y-69.008
X34.691 Y-69.387
X33.752 Y-69.673
G2 X29.873 Y-70.247 I-5.151 J21.437
X23.007 Y-70.452 I-6.462 J101.108
X16.136 Y-70.48 I-5.729 J568.562
G1 X10.247 Y-70.482
X-18.217
X-29.995
X-30.976 Y-70.481
X-31.929 Y-70.244
X-32.761 Y-69.723
X-33.441 Y-69.016
X-33.976 Y-68.193
X-34.388 Y-67.302
X-34.7 Y-66.371
G2 X-35.33 Y-62.502 I19.525 J5.168
X-35.559 Y-55.637 I91.418 J6.484
X-35.591 Y-47.785 I612.111 J6.421
G1 X-35.593 Y-41.896
Y-35.025
Y15.032
Y63.126
X-35.402 Y64.089
X-34.919 Y64.944
X-34.238 Y65.65
X-33.432 Y66.21
X-32.551 Y66.644
X-31.627 Y66.975
G2 X-27.767 Y67.652 I5.209 J-18.363
X-20.903 Y67.904 I6.531 J-84.481
X-13.051 Y67.94 I6.476 J-554.958
G1 X-7.162 Y67.942
X14.432
X30.136
X31.117 Y67.934
X32.05 Y67.629
X32.855 Y67.067
X33.508 Y66.335
X34.023 Y65.499
X34.419 Y64.601
X34.72 Y63.666
G2 X35.332 Y59.794 I-20.38 J-5.208
X35.559 Y52.929 I-93.734 J-6.525
X35.591 Y45.077 I-616.909 J-6.469
G1 X35.593 Y39.188
Y36.243
Y-13.814
Y-62.89
X35.481 Y-63.865
X35.062 Y-64.753
X34.42 Y-65.495
X33.638 Y-66.089
X32.773 Y-66.552
X31.857 Y-66.906
X30.913 Y-67.174
G2 X27.029 Y-67.714 I-5.198 J23.137
X19.181 Y-67.917 I-7.019 J119.61
G1 X15.582 Y-67.936
X11.983 Y-67.945
X8.384 Y-67.942
X-13.209
X-27.932
X-28.909 Y-67.844
X-29.803 Y-67.44
X-30.555 Y-66.809
X-31.159 Y-66.036
X-31.63 Y-65.175
X-31.991 Y-64.262
X-32.264 Y-63.319
G2 X-32.817 Y-59.437 I22.683 J5.215
X-33.027 Y-51.589 I116.384 J7.034
X-33.051 Y-44.718 I578.383 J5.485
G1 X-33.053 Y-37.848
Y-34.903
Y15.154
Y60.304
X-32.932 Y61.278
X-32.512 Y62.165
X-31.875 Y62.911
X-31.096 Y63.51
X-30.233 Y63.977
X-29.32 Y64.335
X-28.377 Y64.608
G2 X-24.494 Y65.162 I5.243 J-22.839
X-16.647 Y65.375 I7.066 J-115.675
X-9.776 Y65.4 I5.52 J-570.591
G1 X-3.887 Y65.402
X19.669
X27.521
X28.503 Y65.396
X29.439 Y65.101
X30.251 Y64.549
X30.912 Y63.824
X31.435 Y62.993
X31.839 Y62.099
X32.147 Y61.167
G2 X32.778 Y57.298 I-19.963 J-5.244
X33.016 Y50.433 I-90.409 J-6.568
X33.051 Y42.581 I-584.674 J-6.52
G1 X33.053 Y36.692
Y25.895
Y-60.478
X32.88 Y-61.445
X32.418 Y-62.31
X31.749 Y-63.029
X30.953 Y-63.602
X30.079 Y-64.049
X29.159 Y-64.391
X28.212 Y-64.65
G2 X24.325 Y-65.176 I-5.233 J24.048
X16.477 Y-65.377 I-7.056 J122.34
G1 X12.878 Y-65.396
X9.28 Y-65.404
X5.681 Y-65.402
X-24.746
X-25.728 Y-65.4
X-26.684 Y-65.177
X-27.528 Y-64.677
X-28.226 Y-63.986
X-28.78 Y-63.176
X-29.211 Y-62.294
X-29.54 Y-61.37
G2 X-30.217 Y-57.509 I18.557 J5.242
X-30.473 Y-50.645 I84.197 J6.575
X-30.513 Y-37.886 I997.428 J9.493
G1 Y-14.329
Y57.321
X-30.496 Y58.303
X-30.195 Y59.237
X-29.638 Y60.045
X-28.913 Y60.707
X-28.083 Y61.23
X-27.189 Y61.635
X-26.257 Y61.944
G2 X-22.389 Y62.581 I5.268 J-19.943
X-15.524 Y62.823 I6.598 J-89.436
X-4.728 Y62.861 I8.397 J-855.759
G1 X9.995 Y62.862
X24.718
X25.699
X26.656 Y62.643
X27.502 Y62.146
X28.203 Y61.459
X28.76 Y60.651
X29.193 Y59.77
X29.525 Y58.846
G2 X30.21 Y54.987 I-18.451 J-5.265
X30.471 Y48.123 I-82.925 J-6.598
X30.513 Y35.364 I-969.191 J-9.52
G1 Y-4.878
Y-57.88
X30.346 Y-58.847
X29.891 Y-59.717
X29.23 Y-60.443
X28.438 Y-61.023
X27.568 Y-61.476
X26.65 Y-61.823
X25.704 Y-62.087
G2 X21.82 Y-62.626 I-5.26 J23.641
X13.972 Y-62.835 I-7.087 J118.792
X7.101 Y-62.86 I-5.544 J582.515
G1 X1.212 Y-62.862
X-14.492
X-22.344
X-23.326 Y-62.855
X-24.267 Y-62.578
X-25.089 Y-62.042
X-25.763 Y-61.328
X-26.298 Y-60.505
X-26.713 Y-59.615
X-27.03 Y-58.686
G2 X-27.684 Y-54.821 I19.37 J5.265
X-27.933 Y-47.957 I87.004 J6.597
G1 X-27.958 Y-44.767
X-27.973 Y-41.577
X-27.978 Y-38.388
X-27.973 Y-35.198
Y-23.419
Y55.102
X-27.873 Y56.078
X-27.478 Y56.977
X-26.856 Y57.736
X-26.089 Y58.349
X-25.234 Y58.83
X-24.326 Y59.202
X-23.386 Y59.485
G2 X-19.508 Y60.065 I5.275 J-22.006
X-11.661 Y60.292 I7.111 J-109.897
X-3.808 Y60.32 I6.268 J-654.412
G1 X4.044 Y60.322
X22.692
X23.671 Y60.24
X24.576 Y59.86
X25.344 Y59.249
X25.967 Y58.491
X26.456 Y57.64
X26.833 Y56.733
X27.12 Y55.795
G2 X27.711 Y51.919 I-21.63 J-5.279
X27.937 Y45.053 I-96.515 J-6.612
X27.971 Y37.201 I-612.613 J-6.577
G1 X27.973 Y31.312
Y-5.986
Y-55.061
X27.883 Y-56.039
X27.496 Y-56.941
X26.882 Y-57.707
X26.121 Y-58.326
X25.268 Y-58.812
X24.361 Y-59.188
X23.422 Y-59.473
G2 X19.546 Y-60.061 I-5.28 J21.747
X11.699 Y-60.292 I-7.112 J108.356
X4.828 Y-60.32 I-5.573 J528.441
G1 X-1.061 Y-60.322
X-19.71
X-20.691 Y-60.321
X-21.64 Y-60.071
X-22.474 Y-59.552
X-23.161 Y-58.852
X-23.707 Y-58.036
X-24.132 Y-57.151
X-24.458 Y-56.225
G2 X-25.132 Y-52.364 I18.865 J5.282
X-25.391 Y-45.5 I84.161 J6.618
X-25.433 Y-32.741 I972.106 J9.545
G1 Y-12.129
Y52.651
X-25.301 Y53.624
X-24.877 Y54.509
X-24.238 Y55.254
X-23.461 Y55.854
X-22.6 Y56.324
X-21.687 Y56.686
X-20.746 Y56.962
G2 X-16.865 Y57.53 I5.285 J-22.603
X-9.018 Y57.753 I7.121 J-112.38
X-2.147 Y57.78 I5.586 J-546.326
G1 X3.742 Y57.782
X7.668
X20.427
X21.394 Y57.612
X22.264 Y57.157
X22.99 Y56.497
X23.572 Y55.706
X24.027 Y54.837
X24.378 Y53.92
X24.644 Y52.975
G2 X25.19 Y49.092 I-23.466 J-5.281
X25.405 Y41.244 I-116.87 J-7.12
X25.431 Y34.374 I-568.216 J-5.585
G1 X25.433 Y28.485
Y22.595
Y-27.462
Y-52
X25.428 Y-52.981
X25.191 Y-53.934
X24.684 Y-54.774
X23.992 Y-55.47
X23.182 Y-56.025
X22.3 Y-56.457
X21.376 Y-56.788
G2 X17.517 Y-57.474 I-5.286 J18.538
X10.654 Y-57.739 I-6.628 J82.602
X-2.106 Y-57.782 I-9.615 J965.371
G1 X-17.81
X-18.78 Y-57.635
X-19.659 Y-57.198
X-20.398 Y-56.551
X-20.991 Y-55.769
X-21.455 Y-54.905
X-21.812 Y-53.99
X-22.084 Y-53.047
G2 X-22.643 Y-49.166 I22.977 J5.29
X-22.864 Y-41.318 I113.943 J7.127
G1 X-22.886 Y-37.719
X-22.895 Y-34.121
X-22.892 Y-30.522
X-22.893 Y-1.076
Y49.963
X-22.8 Y50.94
X-22.412 Y51.842
X-21.801 Y52.609
X-21.04 Y53.23
X-20.189 Y53.718
X-19.282 Y54.094
X-18.344 Y54.382
G2 X-14.468 Y54.976 I5.297 J-21.638
X-7.603 Y55.205 I6.633 J-95.875
G1 X-4.413 Y55.228
X-1.223 Y55.242
X1.967 Y55.246
X5.157 Y55.242
X17.917
X18.881 Y55.06
X19.745 Y54.595
X20.467 Y53.929
X21.044 Y53.136
X21.496 Y52.264
X21.843 Y51.346
X22.107 Y50.401
G2 X22.65 Y46.517 I-23.69 J-5.292
X22.865 Y38.669 I-117.383 J-7.13
X22.891 Y30.817 I-686.935 J-6.267
G1 X22.893 Y22.965
Y-19.24
Y-49.667
X22.871 Y-50.648
X22.567 Y-51.582
X22.013 Y-52.392
X21.29 Y-53.055
X20.461 Y-53.581
X19.569 Y-53.99
X18.639 Y-54.303
G2 X14.772 Y-54.951 I-5.292 J19.725
X7.908 Y-55.201 I-6.632 J87.635
G1 X4.718 Y-55.226
X1.528 Y-55.242
X-1.662 Y-55.247
X-4.851 Y-55.242
X-14.667
X-15.648 Y-55.233
X-16.592 Y-54.962
X-17.418 Y-54.432
X-18.098 Y-53.724
X-18.639 Y-52.905
X-19.06 Y-52.019
X-19.383 Y-51.092
G2 X-20.051 Y-47.229 I19.085 J5.292
X-20.31 Y-40.366 I84.809 J6.637
X-20.352 Y-28.588 I891.723 J9.055
G1 X-20.353 Y-9.939
Y46.989
X-20.345 Y47.97
X-20.082 Y48.916
X-19.556 Y49.745
X-18.852 Y50.429
X-18.036 Y50.974
X-17.15 Y51.398
X-16.224 Y51.722
G2 X-12.363 Y52.397 I5.3 J-18.961
X-5.499 Y52.659 I6.645 J-83.988
X5.297 Y52.701 I8.563 J-810.681
G1 X15.112 Y52.702
X16.088 Y52.596
X16.985 Y52.198
X17.746 Y51.578
X18.361 Y50.813
X18.844 Y49.958
X19.217 Y49.05
X19.502 Y48.111
G2 X20.089 Y44.234 I-21.906 J-5.301
X20.322 Y36.387 I-108.177 J-7.141
G1 X20.346 Y32.461
X20.356 Y28.535
X20.353 Y24.609
Y18.72
Y-31.337
Y-47.042
X20.346 Y-48.023
X20.067 Y-48.964
X19.531 Y-49.786
X18.819 Y-50.462
X17.998 Y-50.999
X17.109 Y-51.417
X16.182 Y-51.737
G2 X12.318 Y-52.401 I-5.302 J19.258
X5.455 Y-52.659 I-6.643 J85.244
X-3.379 Y-52.7 I-7.287 J627.988
G1 X-9.268 Y-52.702
X-11.231
X-12.213
X-13.194 Y-52.684
X-14.129 Y-52.386
X-14.943 Y-51.838
X-15.61 Y-51.118
X-16.139 Y-50.291
X-16.55 Y-49.399
X-16.865 Y-48.47
G2 X-17.518 Y-44.604 I19.602 J5.3
X-17.771 Y-37.74 I86.822 J6.642
X-17.813 Y-24.981 I988.43 J9.579
G1 Y-6.332
Y44.707
X-17.763 Y45.687
X-17.423 Y46.608
X-16.843 Y47.399
X-16.103 Y48.045
X-15.265 Y48.555
X-14.367 Y48.951
X-13.433 Y49.253
G2 X-9.563 Y49.88 I5.297 J-20.467
X-2.698 Y50.122 I6.642 J-90.753
G1 X1.228 Y50.15
X5.154 Y50.165
X9.08 Y50.166
X13.006 Y50.155
X13.957 Y49.914
X14.797 Y49.406
X15.492 Y48.713
X16.047 Y47.903
X16.479 Y47.022
X16.811 Y46.098
G2 X17.5 Y42.24 I-18.52 J-5.299
X17.769 Y35.377 I-82.109 J-6.647
X17.811 Y26.543 I-603.707 J-7.295
G1 X17.813 Y20.654
Y-13.699
Y-45.107
X17.651 Y-46.075
X17.204 Y-46.949
X16.551 Y-47.682
X15.765 Y-48.271
X14.899 Y-48.731
X13.983 Y-49.086
X13.04 Y-49.356
G2 X9.158 Y-49.912 I-5.303 J23.19
X1.31 Y-50.132 I-7.144 J114.385
G1 X-2.616 Y-50.156
X-6.542 Y-50.164
X-10.468 Y-50.158
X-11.42 Y-49.921
X-12.259 Y-49.412
X-12.954 Y-48.719
X-13.508 Y-47.909
X-13.939 Y-47.027
X-14.271 Y-46.103
G2 X-14.96 Y-42.245 I18.551 J5.304
X-15.229 Y-35.381 I82.073 J6.65
X-15.271 Y-26.548 I602.911 J7.297
G1 X-15.273 Y-20.659
Y-13.788
Y42.158
X-15.227 Y43.139
X-14.888 Y44.06
X-14.31 Y44.853
X-13.572 Y45.5
X-12.734 Y46.01
X-11.835 Y46.407
X-10.902 Y46.71
G2 X-7.032 Y47.338 I5.305 J-20.455
X-0.167 Y47.582 I6.647 J-90.376
X10.629 Y47.61 I7.053 J-639.878
G1 X11.566 Y47.312
X12.383 Y46.768
X13.053 Y46.05
X13.585 Y45.226
X13.998 Y44.336
X14.316 Y43.407
G2 X14.975 Y39.542 I-19.448 J-5.303
X15.231 Y32.679 I-86.054 J-6.647
X15.273 Y19.919 I-976.564 J-9.588
G1 Y-15.416
Y-41.916
X15.264 Y-42.898
X14.996 Y-43.842
X14.469 Y-44.67
X13.763 Y-45.352
X12.945 Y-45.895
X12.06 Y-46.318
X11.133 Y-46.643
G2 X7.272 Y-47.317 I-5.298 J18.97
X0.408 Y-47.579 I-6.648 J84.123
X-7.444 Y-47.617 I-6.396 J509.398
G1 X-8.421 Y-47.528
X-9.324 Y-47.143
X-10.09 Y-46.531
X-10.712 Y-45.771
X-11.201 Y-44.92
X-11.579 Y-44.014
X-11.868 Y-43.076
G2 X-12.464 Y-39.201 I21.605 J5.305
X-12.695 Y-32.335 I95.423 J6.648
G1 X-12.718 Y-29.146
X-12.732 Y-25.956
X-12.737 Y-22.766
X-12.733 Y-19.576
Y-0.927
Y39.315
X-12.728 Y40.297
X-12.481 Y41.247
X-11.967 Y42.083
X-11.271 Y42.775
X-10.459 Y43.326
X-9.576 Y43.755
X-8.651 Y44.084
G2 X-4.792 Y44.77 I5.307 J-18.673
X2.071 Y45.038 I6.654 J-82.513
X7.96 Y45.073 I4.971 J-340.066
G1 X8.909 Y44.824
X9.744 Y44.307
X10.434 Y43.609
X10.983 Y42.796
X11.41 Y41.912
X11.739 Y40.987
G2 X12.422 Y37.128 I-18.734 J-5.307
X12.689 Y30.264 I-82.786 J-6.653
X12.731 Y21.431 I-607.158 J-7.303
G1 X12.733 Y15.542
Y10.634
Y-39.423
X12.724 Y-40.405
X12.441 Y-41.345
X11.905 Y-42.167
X11.192 Y-42.841
X10.37 Y-43.378
X9.481 Y-43.795
X8.553 Y-44.115
G2 X4.69 Y-44.78 I-5.306 J19.272
X-2.173 Y-45.039 I-6.651 J85.158
G1 X-3.155 Y-45.055
X-4.136 Y-45.062
X-5.118 Y-45.067
X-6.087 Y-44.915
X-6.965 Y-44.475
X-7.699 Y-43.823
X-8.29 Y-43.039
X-8.752 Y-42.174
X-9.109 Y-41.26
X-9.381 Y-40.316
G2 X-9.941 Y-36.435 I23.007 J5.3
X-10.163 Y-28.588 I113.694 J7.144
G1 X-10.185 Y-24.989
X-10.195 Y-21.39
X-10.192 Y-17.791
X-10.193 Y6.747
Y37.174
X-10.12 Y38.153
X-9.757 Y39.064
X-9.158 Y39.842
X-8.408 Y40.475
X-7.563 Y40.974
X-6.66 Y41.36
X-5.724 Y41.656
G2 X-1.851 Y42.266 I5.305 J-21.077
X5.014 Y42.503 I6.647 J-93.044
G1 X5.988 Y42.39
X6.878 Y41.976
X7.629 Y41.344
X8.236 Y40.572
X8.711 Y39.714
X9.077 Y38.803
X9.357 Y37.862
G2 X9.933 Y33.983 I-22.365 J-5.304
X10.162 Y26.136 I-110.296 J-7.15
X10.192 Y17.303 I-767.871 J-6.984
G1 X10.193 Y8.469
Y-36.681
X10.192 Y-37.662
X9.975 Y-38.619
X9.483 Y-39.469
X8.802 Y-40.175
X7.998 Y-40.739
X7.12 Y-41.178
X6.199 Y-41.516
G2 X2.343 Y-42.221 I-5.307 J18.144
X-2.557 Y-42.468 I-5.651 J63.355
G1 X-3.528 Y-42.332
X-4.409 Y-41.899
X-5.149 Y-41.254
X-5.743 Y-40.473
X-6.208 Y-39.608
X-6.566 Y-38.694
X-6.839 Y-37.752
G2 X-7.401 Y-33.87 I22.912 J5.297
X-7.623 Y-26.023 I113.391 J7.143
G1 X-7.646 Y-22.097
X-7.656 Y-18.171
X-7.653 Y-14.245
Y34.831
X-7.525 Y35.804
X-7.107 Y36.692
X-6.473 Y37.441
X-5.699 Y38.045
X-4.84 Y38.519
X-3.929 Y38.886
X-2.988 Y39.165
G2 X0.89 Y39.742 I5.303 J-22.34
G1 X1.869 Y39.811
X2.85 Y39.853
X3.806 Y39.631
X4.649 Y39.129
X5.346 Y38.437
X5.9 Y37.627
X6.331 Y36.745
X6.661 Y35.821
G2 X7.344 Y31.961 I-18.615 J-5.285
X7.609 Y25.098 I-83.051 J-6.642
X7.651 Y16.265 I-611.495 J-7.297
G1 X7.653 Y10.375
Y3.505
Y-34.774
X7.542 Y-35.749
X7.138 Y-36.644
X6.514 Y-37.402
X5.747 Y-38.015
X4.892 Y-38.496
X3.983 Y-38.867
X3.044 Y-39.151
X2.086 Y-39.366
X1.118 Y-39.527
X0.144 Y-39.649
X-0.347 Y-39.632
X-1.308 Y-39.433
X-2.153 Y-38.933
X-2.848 Y-38.24
X-3.397 Y-37.427
X-3.823 Y-36.543
X-4.147 Y-35.616
G2 X-4.815 Y-31.754 I18.911 J5.258
X-5.071 Y-24.89 I85.391 J6.621
X-5.113 Y-12.13 I980.847 J9.574
G1 Y10.445
Y32.038
X-5.054 Y33.018
X-4.703 Y33.934
X-4.116 Y34.721
X-3.373 Y35.362
X-2.532 Y35.868
X-1.632 Y36.26
X-0.697 Y36.559
X-0.22 Y36.673
X0.269 Y36.719
X0.756 Y36.664
X1.693 Y36.371
X2.488 Y35.796
X3.125 Y35.048
X3.62 Y34.201
X3.998 Y33.295
X4.284 Y32.356
G2 X4.862 Y28.478 I-21.643 J-5.209
X5.084 Y20.631 I-111.684 J-7.086
X5.112 Y11.797 I-756.815 J-6.823
G1 X5.113 Y1.982
Y-32.371
X4.96 Y-33.341
X4.521 Y-34.219
X3.873 Y-34.955
X3.09 Y-35.548
X2.658 Y-35.78
X2.186 Y-35.916
X1.696 Y-35.909
X1.577 Y-35.878
X0.641 Y-35.583
X-0.138 Y-34.986
X-0.751 Y-34.219
X-1.219 Y-33.357
X-1.572 Y-32.441
X-1.836 Y-31.495
G2 X-2.357 Y-27.608 I23.44 J5.118
X-2.548 Y-19.76 I126.409 J7.016
G1 X-2.567 Y-16.161
X-2.575 Y-12.562
X-2.573 Y-8.963
Y7.722
G2 X-2.481 Y10.105 I24.475 J0.25
G3 X-2.355 Y19.823 I-226.473 J7.798
G1 X-2.346 Y22.768
X-2.345 Y29.638
X-2.231 Y30.613
X-2.021 Y31.056
G2 X0.292 Y31.43 I1.301 J-0.709
G1 X0.622 Y31.067
X1.073 Y30.195
X1.409 Y29.273
X1.658 Y28.323
G2 X2.145 Y24.431 I-24.876 J-5.086
X2.322 Y16.582 I-136.232 J-6.998
G1 X2.338 Y13.638
X2.345 Y10.693
X2.344 Y7.749
X2.345 Y-7.955
Y-29.058
X2.343 Y-29.303
G3 X2.397 Y-29.545 I0.635 J0.016
G1 X2.491 Y-30.086
G2 X2.005 Y-32.139 I-2.449 J-0.504
G1 X-40.981 Y-82.683
X-41.204 Y-82.842
G2 X-42.542 Y-83.23 Z-6 I-1.338 J2.112
X-44.966 Y-81.344 J2.5
G1 X-45.058 Y-80.972
X-45.118 Y-80.73
Y-80.58
G2 X-45.607 Y-76.69 I20.941 J4.608
X-45.74 Y-68.84 I152.298 J6.496
G1 X-45.75 Y-66.877
X-45.753 Y-62.951
Y-33.505
Y74.461
X-45.691 Y74.948
X-45.477 Y75.389
X-44.878 Y76.167
X-44.081 Y76.74
X-43.19 Y77.151
X-42.252 Y77.442
G2 X-38.365 Y77.95 I4.607 J-20.128
X-30.515 Y78.088 I6.497 J-146.465
G1 X-28.552 Y78.099
X-24.626 Y78.102
X-2.051
X42.117
X42.604 Y78.038
X43.044 Y77.822
X43.821 Y77.222
X44.393 Y76.425
X44.804 Y75.533
X45.094 Y74.596
G2 X45.602 Y70.709 I-20.161 J-4.607
X45.739 Y62.859 I-146.699 J-6.496
G1 X45.75 Y60.896
X45.753 Y56.97
Y30.469
Y-74.553
X45.652 Y-75.034
X45.419 Y-75.465
X44.796 Y-76.224
X43.988 Y-76.781
X43.091 Y-77.181
X42.151 Y-77.463
G2 X38.262 Y-77.955 I-4.608 J20.798
X30.412 Y-78.089 I-6.496 J151.275
G1 X28.449 Y-78.099
X24.523 Y-78.102
X-4.923
X-39.276
X-39.521 Y-78.099
X-40.004 Y-78.012
X-40.873 Y-77.556
X-41.536 Y-76.833
X-42.024 Y-75.981
X-42.375 Y-75.064
X-42.626 Y-74.115
G2 X-43.072 Y-70.219 I23.769 J4.697
X-43.2 Y-62.369 I162.848 J6.574
G1 X-43.21 Y-60.406
X-43.212 Y-56.48
X-43.213 Y-34.886
Y71.117
X-43.15 Y71.604
X-42.831 Y72.532
X-42.219 Y73.3
X-41.441 Y73.898
X-40.57 Y74.351
X-39.648 Y74.687
X-38.698 Y74.933
G2 X-34.803 Y75.398 I4.9 J-24.529
X-26.954 Y75.546 I6.725 J-148.326
G1 X-24.99 Y75.557
X-22.046 Y75.561
X-15.175 Y75.562
X21.141
X38.808
X39.294 Y75.491
X40.217 Y75.158
X40.977 Y74.538
X41.57 Y73.755
X42.017 Y72.881
X42.349 Y71.958
X42.593 Y71.007
G2 X43.051 Y67.111 I-24.854 J-4.899
X43.197 Y59.262 I-150.381 J-6.725
G1 X43.208 Y57.299
X43.212 Y54.354
X43.213 Y47.484
Y44.539
Y-5.518
Y-71.28
X43.116 Y-71.761
X42.739 Y-72.667
X42.093 Y-73.406
X41.296 Y-73.979
X40.415 Y-74.412
X39.487 Y-74.732
X38.534 Y-74.966
G2 X34.636 Y-75.407 I-4.898 J25.868
X26.786 Y-75.547 I-6.724 J156.592
G1 X24.823 Y-75.558
X21.879 Y-75.561
X14.027 Y-75.562
X10.101
X-36.031
X-36.52 Y-75.528
X-36.993 Y-75.398
X-37.876 Y-74.968
X-38.59 Y-74.295
X-39.141 Y-73.483
X-39.557 Y-72.593
X-39.865 Y-71.662
G2 X-40.457 Y-67.787 I19.356 J4.939
X-40.648 Y-60.92 I101.44 J6.262
X-40.672 Y-54.049 I609.856 J5.523
G1 X-40.673 Y-47.179
Y-23.622
Y68.64
X-40.408 Y69.585
X-39.856 Y70.396
X-39.123 Y71.049
X-38.283 Y71.556
X-37.38 Y71.942
X-36.442 Y72.23
G2 X-32.562 Y72.8 I5.066 J-21.019
X-25.696 Y72.995 I6.373 J-103.192
X-18.825 Y73.02 I5.632 J-598.534
G1 X-12.936 Y73.022
X15.528
X36.139
X37.098 Y72.81
X37.933 Y72.294
X38.611 Y71.584
X39.139 Y70.757
X39.541 Y69.862
X39.843 Y68.928
G2 X40.44 Y65.053 I-20.018 J-5.064
X40.645 Y58.187 I-98.39 J-6.373
X40.671 Y51.317 I-570.681 J-5.632
G1 X40.673 Y45.428
Y-4.63
Y-68.428
X40.48 Y-69.391
X39.98 Y-70.235
X39.278 Y-70.921
X38.457 Y-71.458
X37.565 Y-71.868
X36.633 Y-72.176
G2 X32.76 Y-72.784 I-5.062 J19.604
X25.895 Y-72.993 I-6.372 J96.483
X19.024 Y-73.02 I-5.632 J559.788
G1 X13.135 Y-73.022
X6.264
X-32.996
X-33.977 Y-72.992
X-34.893 Y-72.637
X-35.664 Y-72.03
X-36.28 Y-71.266
X-36.756 Y-70.408
X-37.117 Y-69.495
X-37.388 Y-68.552
G2 X-37.922 Y-64.667 I22.591 J5.087
X-38.111 Y-56.818 I123.401 J6.897
G1 X-38.123 Y-55.837
X-38.128 Y-53.874
X-38.131 Y-50.929
X-38.133 Y-44.059
Y-14.613
Y65.871
X-37.902 Y66.825
X-37.383 Y67.658
X-36.675 Y68.338
X-35.852 Y68.873
X-34.961 Y69.284
X-34.03 Y69.595
G2 X-30.16 Y70.223 I5.155 J-19.542
X-23.295 Y70.449 I6.468 J-92.021
X-15.443 Y70.48 I6.404 J-620.027
G1 X-8.573 Y70.482
X29.707
X33.633
X34.575 Y70.209
X35.392 Y69.665
X36.054 Y68.94
X36.574 Y68.108
X36.973 Y67.211
X37.275 Y66.277
G2 X37.883 Y62.404 I-20.194 J-5.152
X38.101 Y55.539 I-95.225 J-6.464
X38.131 Y47.687 I-642.617 J-6.4
G1 X38.133 Y40.816
Y26.093
Y-65.188
X38.113 Y-66.169
X37.78 Y-67.093
X37.193 Y-67.879
X36.444 Y-68.513
X35.596 Y-69.008
X34.691 Y-69.387
X33.752 Y-69.673
G2 X29.873 Y-70.247 I-5.151 J21.437
X23.007 Y-70.452 I-6.462 J101.108
X16.136 Y-70.48 I-5.729 J568.562
G1 X10.247 Y-70.482
X-18.217
X-29.995
X-30.976 Y-70.481
X-31.929 Y-70.244
X-32.761 Y-69.723
X-33.441 Y-69.016
X-33.976 Y-68.193
X-34.388 Y-67.302
X-34.7 Y-66.371
G2 X-35.33 Y-62.502 I19.525 J5.168
X-35.559 Y-55.637 I91.418 J6.484
X-35.591 Y-47.785 I612.111 J6.421
G1 X-35.593 Y-41.896
Y-35.025
Y15.032
Y63.126
X-35.402 Y64.089
X-34.919 Y64.944
X-34.238 Y65.65
X-33.432 Y66.21
X-32.551 Y66.644
X-31.627 Y66.975
G2 X-27.767 Y67.652 I5.209 J-18.363
X-20.903 Y67.904 I6.531 J-84.481
X-13.051 Y67.94 I6.476 J-554.958
G1 X-7.162 Y67.942
X14.432
X30.136
X31.117 Y67.934
X32.05 Y67.629
X32.855 Y67.067
X33.508 Y66.335
X34.023 Y65.499
X34.419 Y64.601
X34.72 Y63.666
G2 X35.332 Y59.794 I-20.38 J-5.208
X35.559 Y52.929 I-93.734 J-6.525
X35.591 Y45.077 I-616.909 J-6.469
G1 X35.593 Y39.188
Y36.243
Y-13.814
Y-62.89
X35.481 Y-63.865
X35.062 Y-64.753
X34.42 Y-65.495
X33.638 Y-66.089
X32.773 Y-66.552
X31.857 Y-66.906
X30.913 Y-67.174
G2 X27.029 Y-67.714 I-5.198 J23.137
X19.181 Y-67.917 I-7.019 J119.61
G1 X15.582 Y-67.936
X11.983 Y-67.945
X8.384 Y-67.942
X-13.209
X-27.932
X-28.909 Y-67.844
X-29.803 Y-67.44
X-30.555 Y-66.809
X-31.159 Y-66.036
X-31.63 Y-65.175
X-31.991 Y-64.262
X-32.264 Y-63.319
G2 X-32.817 Y-59.437 I22.683 J5.215
X-33.027 Y-51.589 I116.384 J7.034
X-33.051 Y-44.718 I578.383 J5.485
G1 X-33.053 Y-37.848
Y-34.903
Y15.154
Y60.304
X-32.932 Y61.278
X-32.512 Y62.165
X-31.875 Y62.911
X-31.096 Y63.51
X-30.233 Y63.977
X-29.32 Y64.335
X-28.377 Y64.608
G2 X-24.494 Y65.162 I5.243 J-22.839
X-16.647 Y65.375 I7.066 J-115.675
X-9.776 Y65.4 I5.52 J-570.591
G1 X-3.887 Y65.402
X19.669
X27.521
X28.503 Y65.396
X29.439 Y65.101
X30.251 Y64.549
X30.912 Y63.824
X31.435 Y62.993
X31.839 Y62.099
X32.147 Y61.167
G2 X32.778 Y57.298 I-19.963 J-5.244
X33.016 Y50.433 I-90.409 J-6.568
X33.051 Y42.581 I-584.674 J-6.52
G1 X33.053 Y36.692
Y25.895
Y-60.478
X32.88 Y-61.445
X32.418 Y-62.31
X31.749 Y-63.029
X30.953 Y-63.602
X30.079 Y-64.049
X29.159 Y-64.391
X28.212 Y-64.65
G2 X24.325 Y-65.176 I-5.233 J24.048
X16.477 Y-65.377 I-7.056 J122.34
G1 X12.878 Y-65.396
X9.28 Y-65.404
X5.681 Y-65.402
X-24.746
X-25.728 Y-65.4
X-26.684 Y-65.177
X-27.528 Y-64.677
X-28.226 Y-63.986
X-28.78 Y-63.176
X-29.211 Y-62.294
X-29.54 Y-61.37
G2 X-30.217 Y-57.509 I18.557 J5.242
X-30.473 Y-50.645 I84.197 J6.575
X-30.513 Y-37.886 I997.428 J9.493
G1 Y-14.329
Y57.321
X-30.496 Y58.303
X-30.195 Y59.237
X-29.638 Y60.045
X-28.913 Y60.707
X-28.083 Y61.23
X-27.189 Y61.635
X-26.257 Y61.944
G2 X-22.389 Y62.581 I5.268 J-19.943
X-15.524 Y62.823 I6.598 J-89.436
X-4.728 Y62.861 I8.397 J-855.759
G1 X9.995 Y62.862
X24.718
X25.699
X26.656 Y62.643
X27.502 Y62.146
X28.203 Y61.459
X28.76 Y60.651
X29.193 Y59.77
X29.525 Y58.846
G2 X30.21 Y54.987 I-18.451 J-5.265
X30.471 Y48.123 I-82.925 J-6.598
X30.513 Y35.364 I-969.191 J-9.52
G1 Y-4.878
Y-57.88
X30.346 Y-58.847
X29.891 Y-59.717
X29.23 Y-60.443
X28.438 Y-61.023
X27.568 Y-61.476
X26.65 Y-61.823
X25.704 Y-62.087
G2 X21.82 Y-62.626 I-5.26 J23.641
X13.972 Y-62.835 I-7.087 J118.792
X7.101 Y-62.86 I-5.544 J582.515
G1 X1.212 Y-62.862
X-14.492
X-22.344
X-23.326 Y-62.855
X-24.267 Y-62.578
X-25.089 Y-62.042
X-25.763 Y-61.328
X-26.298 Y-60.505
X-26.713 Y-59.615
X-27.03 Y-58.686
G2 X-27.684 Y-54.821 I19.37 J5.265
X-27.933 Y-47.957 I87.004 J6.597
G1 X-27.958 Y-44.767
X-27.973 Y-41.577
X-27.978 Y-38.388
X-27.973 Y-35.198
Y-23.419
Y55.102
X-27.873 Y56.078
X-27.478 Y56.977
X-26.856 Y57.736
X-26.089 Y58.349
X-25.234 Y58.83
X-24.326 Y59.202
X-23.386 Y59.485
G2 X-19.508 Y60.065 I5.275 J-22.006
X-11.661 Y60.292 I7.111 J-109.897
X-3.808 Y60.32 I6.268 J-654.412
G1 X4.044 Y60.322
X22.692
X23.671 Y60.24
X24.576 Y59.86
X25.344 Y59.249
X25.967 Y58.491
X26.456 Y57.64
X26.833 Y56.733
X27.12 Y55.795
G2 X27.711 Y51.919 I-21.63 J-5.279
X27.937 Y45.053 I-96.515 J-6.612
X27.971 Y37.201 I-612.613 J-6.577
G1 X27.973 Y31.312
Y-5.986
Y-55.061
X27.883 Y-56.039
X27.496 Y-56.941
X26.882 Y-57.707
X26.121 Y-58.326
X25.268 Y-58.812
X24.361 Y-59.188
X23.422 Y-59.473
G2 X19.546 Y-60.061 I-5.28 J21.747
X11.699 Y-60.292 I-7.112 J108.356
X4.828 Y-60.32 I-5.573 J528.441
G1 X-1.061 Y-60.322
X-19.71
X-20.691 Y-60.321
X-21.64 Y-60.071
X-22.474 Y-59.552
X-23.161 Y-58.852
X-23.707 Y-58.036
X-24.132 Y-57.151
X-24.458 Y-56.225
G2 X-25.132 Y-52.364 I18.865 J5.282
X-25.391 Y-45.5 I84.161 J6.618
X-25.433 Y-32.741 I972.106 J9.545
G1 Y-12.129
Y52.651
X-25.301 Y53.624
X-24.877 Y54.509
X-24.238 Y55.254
X-23.461 Y55.854
X-22.6 Y56.324
X-21.687 Y56.686
X-20.746 Y56.962
G2 X-16.865 Y57.53 I5.285 J-22.603
X-9.018 Y57.753 I7.121 J-112.38
X-2.147 Y57.78 I5.586 J-546.326
G1 X3.742 Y57.782
X7.668
X20.427
X21.394 Y57.612
X22.264 Y57.157
X22.99 Y56.497
X23.572 Y55.706
X24.027 Y54.837
X24.378 Y53.92
X24.644 Y52.975
G2 X25.19 Y49.092 I-23.466 J-5.281
X25.405 Y41.244 I-116.87 J-7.12
X25.431 Y34.374 I-568.216 J-5.585
G1 X25.433 Y28.485
Y22.595
Y-27.462
Y-52
X25.428 Y-52.981
X25.191 Y-53.934
X24.684 Y-54.774
X23.992 Y-55.47
X23.182 Y-56.025
X22.3 Y-56.457
X21.376 Y-56.788
G2 X17.517 Y-57.474 I-5.286 J18.538
X10.654 Y-57.739 I-6.628 J82.602
X-2.106 Y-57.782 I-9.615 J965.371
G1 X-17.81
X-18.78 Y-57.635
X-19.659 Y-57.198
X-20.398 Y-56.551
X-20.991 Y-55.769
X-21.455 Y-54.905
X-21.812 Y-53.99
X-22.084 Y-53.047
G2 X-22.643 Y-49.166 I22.977 J5.29
X-22.864 Y-41.318 I113.943 J7.127
G1 X-22.886 Y-37.719
X-22.895 Y-34.121
X-22.892 Y-30.522
X-22.893 Y-1.076
Y49.963
X-22.8 Y50.94
X-22.412 Y51.842
X-21.801 Y52.609
X-21.04 Y53.23
X-20.189 Y53.718
X-19.282 Y54.094
X-18.344 Y54.382
G2 X-14.468 Y54.976 I5.297 J-21.638
X-7.603 Y55.205 I6.633 J-95.875
G1 X-4.413 Y55.228
X-1.223 Y55.242
X1.967 Y55.246
X5.157 Y55.242
X17.917
X18.881 Y55.06
X19.745 Y54.595
X20.467 Y53.929
X21.044 Y53.136
X21.496 Y52.264
X21.843 Y51.346
X22.107 Y50.401
G2 X22.65 Y46.517 I-23.69 J-5.292
X22.865 Y38.669 I-117.383 J-7.13
X22.891 Y30.817 I-686.935 J-6.267
G1 X22.893 Y22.965
Y-19.24
Y-49.667
X22.871 Y-50.648
X22.567 Y-51.582
X22.013 Y-52.392
X21.29 Y-53.055
X20.461 Y-53.581
X19.569 Y-53.99
X18.639 Y-54.303
G2 X14.772 Y-54.951 I-5.292 J19.725
X7.908 Y-55.201 I-6.632 J87.635
G1 X4.718 Y-55.226
X1.528 Y-55.242
X-1.662 Y-55.247
X-4.851 Y-55.242
X-14.667
X-15.648 Y-55.233
X-16.592 Y-54.962
X-17.418 Y-54.432
X-18.098 Y-53.724
X-18.639 Y-52.905
X-19.06 Y-52.019
X-19.383 Y-51.092
G2 X-20.051 Y-47.229 I19.085 J5.292
X-20.31 Y-40.366 I84.809 J6.637
X-20.352 Y-28.588 I891.723 J9.055
G1 X-20.353 Y-9.939
Y46.989
X-20.345 Y47.97
X-20.082 Y48.916
X-19.556 Y49.745
X-18.852 Y50.429
X-18.036 Y50.974
X-17.15 Y51.398
X-16.224 Y51.722
G2 X-12.363 Y52.397 I5.3 J-18.961
X-5.499 Y52.659 I6.645 J-83.988
X5.297 Y52.701 I8.563 J-810.681
G1 X15.112 Y52.702
X16.088 Y52.596
X16.985 Y52.198
X17.746 Y51.578
X18.361 Y50.813
X18.844 Y49.958
X19.217 Y49.05
X19.502 Y48.111
G2 X20.089 Y44.234 I-21.906 J-5.301
X20.322 Y36.387 I-108.177 J-7.141
G1 X20.346 Y32.461
X20.356 Y28.535
X20.353 Y24.609
Y18.72
Y-31.337
Y-47.042
X20.346 Y-48.023
X20.067 Y-48.964
X19.531 Y-49.786
X18.819 Y-50.462
X17.998 Y-50.999
X17.109 Y-51.417
X16.182 Y-51.737
G2 X12.318 Y-52.401 I-5.302 J19.258
X5.455 Y-52.659 I-6.643 J85.244
X-3.379 Y-52.7 I-7.287 J627.988
G1 X-9.268 Y-52.702
X-11.231
X-12.213
X-13.194 Y-52.684
X-14.129 Y-52.386
X-14.943 Y-51.838
X-15.61 Y-51.118
X-16.139 Y-50.291
X-16.55 Y-49.399
X-16.865 Y-48.47
G2 X-17.518 Y-44.604 I19.602 J5.3
X-17.771 Y-37.74 I86.822 J6.642
X-17.813 Y-24.981 I988.43 J9.579
G1 Y-6.332
Y44.707
X-17.763 Y45.687
X-17.423 Y46.608
X-16.843 Y47.399
X-16.103 Y48.045
X-15.265 Y48.555
X-14.367 Y48.951
X-13.433 Y49.253
G2 X-9.563 Y49.88 I5.297 J-20.467
X-2.698 Y50.122 I6.642 J-90.753
G1 X1.228 Y50.15
X5.154 Y50.165
X9.08 Y50.166
X13.006 Y50.155
X13.957 Y49.914
X14.797 Y49.406
X15.492 Y48.713
X16.047 Y47.903
X16.479 Y47.022
X16.811 Y46.098
G2 X17.5 Y42.24 I-18.52 J-5.299
X17.769 Y35.377 I-82.109 J-6.647
X17.811 Y26.543 I-603.707 J-7.295
G1 X17.813 Y20.654
Y-13.699
Y-45.107
X17.651 Y-46.075
X17.204 Y-46.949
X16.551 Y-47.682
X15.765 Y-48.271
X14.899 Y-48.731
X13.983 Y-49.086
X13.04 Y-49.356
G2 X9.158 Y-49.912 I-5.303 J23.19
X1.31 Y-50.132 I-7.144 J114.385
G1 X-2.616 Y-50.156
X-6.542 Y-50.164
X-10.468 Y-50.158
X-11.42 Y-49.921
X-12.259 Y-49.412
X-12.954 Y-48.719
X-13.508 Y-47.909
X-13.939 Y-47.027
X-14.271 Y-46.103
G2 X-14.96 Y-42.245 I18.551 J5.304
X-15.229 Y-35.381 I82.073 J6.65
X-15.271 Y-26.548 I602.911 J7.297
G1 X-15.273 Y-20.659
Y-13.788
Y42.158
X-15.227 Y43.139
X-14.888 Y44.06
X-14.31 Y44.853
X-13.572 Y45.5
X-12.734 Y46.01
X-11.835 Y46.407
X-10.902 Y46.71
G2 X-7.032 Y47.338 I5.305 J-20.455
X-0.167 Y47.582 I6.647 J-90.376
X10.629 Y47.61 I7.053 J-639.878
G1 X11.566 Y47.312
X12.383 Y46.768
X13.053 Y46.05
X13.585 Y45.226
X13.998 Y44.336
X14.316 Y43.407
G2 X14.975 Y39.542 I-19.448 J-5.303
X15.231 Y32.679 I-86.054 J-6.647
X15.273 Y19.919 I-976.564 J-9.588
G1 Y-15.416
Y-41.916
X15.264 Y-42.898
X14.996 Y-43.842
X14.469 Y-44.67
X13.763 Y-45.352
X12.945 Y-45.895
X12.06 Y-46.318
X11.133 Y-46.643
G2 X7.272 Y-47.317 I-5.298 J18.97
X0.408 Y-47.579 I-6.648 J84.123
X-7.444 Y-47.617 I-6.396 J509.398
G1 X-8.421 Y-47.528
X-9.324 Y-47.143
X-10.09 Y-46.531
X-10.712 Y-45.771
X-11.201 Y-44.92
X-11.579 Y-44.014
X-11.868 Y-43.076
G2 X-12.464 Y-39.201 I21.605 J5.305
X-12.695 Y-32.335 I95.423 J6.648
G1 X-12.718 Y-29.146
X-12.732 Y-25.956
X-12.737 Y-22.766
X-12.733 Y-19.576
Y-0.927
Y39.315
X-12.728 Y40.297
X-12.481 Y41.247
X-11.967 Y42.083
X-11.271 Y42.775
X-10.459 Y43.326
X-9.576 Y43.755
X-8.651 Y44.084
G2 X-4.792 Y44.77 I5.307 J-18.673
X2.071 Y45.038 I6.654 J-82.513
X7.96 Y45.073 I4.971 J-340.066
G1 X8.909 Y44.824
X9.744 Y44.307
X10.434 Y43.609
X10.983 Y42.796
X11.41 Y41.912
X11.739 Y40.987
G2 X12.422 Y37.128 I-18.734 J-5.307
X12.689 Y30.264 I-82.786 J-6.653
X12.731 Y21.431 I-607.158 J-7.303
G1 X12.733 Y15.542
Y10.634
Y-39.423
X12.724 Y-40.405
X12.441 Y-41.345
X11.905 Y-42.167
X11.192 Y-42.841
X10.37 Y-43.378
X9.481 Y-43.795
X8.553 Y-44.115
G2 X4.69 Y-44.78 I-5.306 J19.272
X-2.173 Y-45.039 I-6.651 J85.158
G1 X-3.155 Y-45.055
X-4.136 Y-45.062
X-5.118 Y-45.067
X-6.087 Y-44.915
X-6.965 Y-44.475
X-7.699 Y-43.823
X-8.29 Y-43.039
X-8.752 Y-42.174
X-9.109 Y-41.26
X-9.381 Y-40.316
G2 X-9.941 Y-36.435 I23.007 J5.3
X-10.163 Y-28.588 I113.694 J7.144
G1 X-10.185 Y-24.989
X-10.195 Y-21.39
X-10.192 Y-17.791
X-10.193 Y6.747
Y37.174
X-10.12 Y38.153
X-9.757 Y39.064
X-9.158 Y39.842
X-8.408 Y40.475
X-7.563 Y40.974
X-6.66 Y41.36
X-5.724 Y41.656
G2 X-1.851 Y42.266 I5.305 J-21.077
X5.014 Y42.503 I6.647 J-93.044
G1 X5.988 Y42.39
X6.878 Y41.976
X7.629 Y41.344
X8.236 Y40.572
X8.711 Y39.714
X9.077 Y38.803
X9.357 Y37.862
G2 X9.933 Y33.983 I-22.365 J-5.304
X10.162 Y26.136 I-110.296 J-7.15
X10.192 Y17.303 I-767.871 J-6.984
G1 X10.193 Y8.469
Y-36.681
X10.192 Y-37.662
X9.975 Y-38.619
X9.483 Y-39.469
X8.802 Y-40.175
X7.998 Y-40.739
X7.12 Y-41.178
X6.199 Y-41.516
G2 X2.343 Y-42.221 I-5.307 J18.144
X-2.557 Y-42.468 I-5.651 J63.355
G1 X-3.528 Y-42.332
X-4.409 Y-41.899
X-5.149 Y-41.254
X-5.743 Y-40.473
X-6.208 Y-39.608
X-6.566 Y-38.694
X-6.839 Y-37.752
G2 X-7.401 Y-33.87 I22.912 J5.297
X-7.623 Y-26.023 I113.391 J7.143
G1 X-7.646 Y-22.097
X-7.656 Y-18.171
X-7.653 Y-14.245
Y34.831
X-7.525 Y35.804
X-7.107 Y36.692
X-6.473 Y37.441
X-5.699 Y38.045
X-4.84 Y38.519
X-3.929 Y38.886
X-2.988 Y39.165
G2 X0.89 Y39.742 I5.303 J-22.34
G1 X1.869 Y39.811
X2.85 Y39.853
X3.806 Y39.631
X4.649 Y39.129
X5.346 Y38.437
X5.9 Y37.627
X6.331 Y36.745
X6.661 Y35.821
G2 X7.344 Y31.961 I-18.615 J-5.285
X7.609 Y25.098 I-83.051 J-6.642
X7.651 Y16.265 I-611.495 J-7.297
G1 X7.653 Y10.375
Y3.505
Y-34.774
X7.542 Y-35.749
X7.138 Y-36.644
X6.514 Y-37.402
X5.747 Y-38.015
X4.892 Y-38.496
X3.983 Y-38.867
X3.044 Y-39.151
X2.086 Y-39.366
X1.118 Y-39.527
X0.144 Y-39.649
X-0.347 Y-39.632
X-1.308 Y-39.433
X-2.153 Y-38.933
X-2.848 Y-38.24
X-3.397 Y-37.427
X-3.823 Y-36.543
X-4.147 Y-35.616
G2 X-4.815 Y-31.754 I18.911 J5.258
X-5.071 Y-24.89 I85.391 J6.621
X-5.113 Y-12.13 I980.847 J9.574
G1 Y10.445
Y32.038
X-5.054 Y33.018
X-4.703 Y33.934
X-4.116 Y34.721
X-3.373 Y35.362
X-2.532 Y35.868
X-1.632 Y36.26
X-0.697 Y36.559
X-0.22 Y36.673
X0.269 Y36.719
X0.756 Y36.664
X1.693 Y36.371
X2.488 Y35.796
X3.125 Y35.048
X3.62 Y34.201
X3.998 Y33.295
X4.284 Y32.356
G2 X4.862 Y28.478 I-21.643 J-5.209
X5.084 Y20.631 I-111.684 J-7.086
X5.112 Y11.797 I-756.815 J-6.823
G1 X5.113 Y1.982
Y-32.371
X4.96 Y-33.341
X4.521 Y-34.219
X3.873 Y-34.955
X3.09 Y-35.548
X2.658 Y-35.78
X2.186 Y-35.916
X1.696 Y-35.909
X1.577 Y-35.878
X0.641 Y-35.583
X-0.138 Y-34.986
X-0.751 Y-34.219
X-1.219 Y-33.357
X-1.572 Y-32.441
X-1.836 Y-31.495
G2 X-2.357 Y-27.608 I23.44 J5.118
X-2.548 Y-19.76 I126.409 J7.016
G1 X-2.567 Y-16.161
X-2.575 Y-12.562
X-2.573 Y-8.963
Y7.722
G2 X-2.481 Y10.105 I24.475 J0.25
G3 X-2.355 Y19.823 I-226.473 J7.798
G1 X-2.346 Y22.768
X-2.345 Y29.638
X-2.231 Y30.613
X-2.021 Y31.056
G2 X0.292 Y31.43 I1.301 J-0.709
G1 X0.622 Y31.067
X1.073 Y30.195
X1.409 Y29.273
X1.658 Y28.323
G2 X2.145 Y24.431 I-24.876 J-5.086
X2.322 Y16.582 I-136.232 J-6.998
G1 X2.338 Y13.638
X2.345 Y10.693
X2.344 Y7.749
X2.345 Y-7.955
Y-29.058
X2.343 Y-29.303
G3 X2.397 Y-29.545 I0.635 J0.016
G1 X2.491 Y-30.086
G2 X2.005 Y-32.139 I-2.449 J-0.504
G1 X-40.981 Y-82.683
X-41.204 Y-82.842
G2 X-42.542 Y-83.23 Z-8 I-1.338 J2.112
X-44.966 Y-81.344 J2.5
G1 X-45.058 Y-80.972
X-45.118 Y-80.73
Y-80.58
G2 X-45.607 Y-76.69 I20.941 J4.608
X-45.74 Y-68.84 I152.298 J6.496
G1 X-45.75 Y-66.877
X-45.753 Y-62.951
Y-33.505
Y74.461
X-45.691 Y74.948
X-45.477 Y75.389
X-44.878 Y76.167
X-44.081 Y76.74
X-43.19 Y77.151
X-42.252 Y77.442
G2 X-38.365 Y77.95 I4.607 J-20.128
X-30.515 Y78.088 I6.497 J-146.465
G1 X-28.552 Y78.099
X-24.626 Y78.102
X-2.051
X42.117
X42.604 Y78.038
X43.044 Y77.822
X43.821 Y77.222
X44.393 Y76.425
X44.804 Y75.533
X45.094 Y74.596
G2 X45.602 Y70.709 I-20.161 J-4.607
X45.739 Y62.859 I-146.699 J-6.496
G1 X45.75 Y60.896
X45.753 Y56.97
Y30.469
Y-74.553
X45.652 Y-75.034
X45.419 Y-75.465
X44.796 Y-76.224
X43.988 Y-76.781
X43.091 Y-77.181
X42.151 Y-77.463
G2 X38.262 Y-77.955 I-4.608 J20.798
X30.412 Y-78.089 I-6.496 J151.275
G1 X28.449 Y-78.099
X24.523 Y-78.102
X-4.923
X-39.276
X-39.521 Y-78.099
X-40.004 Y-78.012
X-40.873 Y-77.556
X-41.536 Y-76.833
X-42.024 Y-75.981
X-42.375 Y-75.064
X-42.626 Y-74.115
G2 X-43.072 Y-70.219 I23.769 J4.697
X-43.2 Y-62.369 I162.848 J6.574
G1 X-43.21 Y-60.406
X-43.212 Y-56.48
X-43.213 Y-34.886
Y71.117
X-43.15 Y71.604
X-42.831 Y72.532
X-42.219 Y73.3
X-41.441 Y73.898
X-40.57 Y74.351
X-39.648 Y74.687
X-38.698 Y74.933
G2 X-34.803 Y75.398 I4.9 J-24.529
X-26.954 Y75.546 I6.725 J-148.326
G1 X-24.99 Y75.557
X-22.046 Y75.561
X-15.175 Y75.562
X21.141
X38.808
X39.294 Y75.491
X40.217 Y75.158
X40.977 Y74.538
X41.57 Y73.755
X42.017 Y72.881
X42.349 Y71.958
X42.593 Y71.007
G2 X43.051 Y67.111 I-24.854 J-4.899
X43.197 Y59.262 I-150.381 J-6.725
G1 X43.208 Y57.299
X43.212 Y54.354
X43.213 Y47.484
Y44.539
Y-5.518
Y-71.28
X43.116 Y-71.761
X42.739 Y-72.667
X42.093 Y-73.406
X41.296 Y-73.979
X40.415 Y-74.412
X39.487 Y-74.732
X38.534 Y-74.966
G2 X34.636 Y-75.407 I-4.898 J25.868
X26.786 Y-75.547 I-6.724 J156.592
G1 X24.823 Y-75.558
X21.879 Y-75.561
X14.027 Y-75.562
X10.101
X-36.031
X-36.52 Y-75.528
X-36.993 Y-75.398
X-37.876 Y-74.968
X-38.59 Y-74.295
X-39.141 Y-73.483
X-39.557 Y-72.593
X-39.865 Y-71.662
G2 X-40.457 Y-67.787 I19.356 J4.939
X-40.648 Y-60.92 I101.44 J6.262
X-40.672 Y-54.049 I609.856 J5.523
G1 X-40.673 Y-47.179
Y-23.622
Y68.64
X-40.408 Y69.585
X-39.856 Y70.396
X-39.123 Y71.049
X-38.283 Y71.556
X-37.38 Y71.942
X-36.442 Y72.23
G2 X-32.562 Y72.8 I5.066 J-21.019
X-25.696 Y72.995 I6.373 J-103.192
X-18.825 Y73.02 I5.632 J-598.534
G1 X-12.936 Y73.022
X15.528
X36.139
X37.098 Y72.81
X37.933 Y72.294
X38.611 Y71.584
X39.139 Y70.757
X39.541 Y69.862
X39.843 Y68.928
G2 X40.44 Y65.053 I-20.018 J-5.064
X40.645 Y58.187 I-98.39 J-6.373
X40.671 Y51.317 I-570.681 J-5.632
G1 X40.673 Y45.428
Y-4.63
Y-68.428
X40.48 Y-69.391
X39.98 Y-70.235
X39.278 Y-70.921
X38.457 Y-71.458
X37.565 Y-71.868
X36.633 Y-72.176
G2 X32.76 Y-72.784 I-5.062 J19.604
X25.895 Y-72.993 I-6.372 J96.483
X19.024 Y-73.02 I-5.632 J559.788
G1 X13.135 Y-73.022
X6.264
X-32.996
X-33.977 Y-72.992
X-34.893 Y-72.637
X-35.664 Y-72.03
X-36.28 Y-71.266
X-36.756 Y-70.408
X-37.117 Y-69.495
X-37.388 Y-68.552
G2 X-37.922 Y-64.667 I22.591 J5.087
X-38.111 Y-56.818 I123.401 J6.897
G1 X-38.123 Y-55.837
X-38.128 Y-53.874
X-38.131 Y-50.929
X-38.133 Y-44.059
Y-14.613
Y7.995
X-38.138 Y8.11
X-38.151 Y8.225
X-38.174 Y8.338
X-38.735 Y10.697
X-38.754 Y10.794
X-38.773 Y10.92
X-38.81 Y11.366
G2 X-38.806 Y14.486 I48.457 J1.508
X-38.546 Y15.895 I15.206 J-2.081
G3 X-38.2 Y20.786 I-35.863 J4.999
X-38.135 Y30.601 I-424.416 J7.716
G1 X-38.133 Y39.435
Y43.65
G3 X-38.439 Y44.57 I-1.619 J-0.028
G2 X-38.82 Y46.355 I3.419 J1.661
X-38.805 Y49.475 I57.194 J1.293
G1 X-38.775 Y49.698
G3 X-38.317 Y52.832 I-16.85 J4.065
X-38.152 Y59.699 I-107.438 J6.016
G1 X-38.142 Y60.681
X-38.137 Y62.644
X-38.135 Y65.589
X-37.997 Y66.56
X-37.55 Y67.434
X-36.888 Y68.159
X-36.093 Y68.734
X-35.217 Y69.178
X-34.296 Y69.516
X-33.347 Y69.769
G2 X-29.458 Y70.275 I5.149 J-24.371
X-21.609 Y70.46 I6.961 J-129.003
G3 X-17.756 Y70.488 I-0.36 J310.978
G1 X-17.542 Y70.543
X-17.338 Y70.622
G2 X-16.036 Y71.11 I2.577 J-4.89
X-14.923 Y71.173 I0.898 J-6.077
G1 X-14.032 Y71.174
G2 X-12.695 Y71.093 I0.265 J-6.73
G3 X-8.802 Y70.62 I4.783 J23.092
X-1.933 Y70.496 I5.993 J142.259
G1 X0.03 Y70.487
X2.974 Y70.484
X10.199 Y70.482
G3 X11.134 Y70.798 I-0.06 J1.718
G2 X12.695 Y71.169 I1.634 J-3.412
X15.146 Y71.141 I0.886 J-29.792
X16.09 Y70.935 I-2.025 J-11.533
G3 X19.997 Y70.583 I4.497 J28.053
X27.848 Y70.491 I6.507 J220.666
G1 X30.793 Y70.484
X32.756 Y70.483
X33.737 Y70.478
X34.669 Y70.17
X35.469 Y69.601
X36.115 Y68.863
X36.621 Y68.021
X37.009 Y67.12
X37.302 Y66.183
G2 X37.891 Y62.307 I-20.854 J-5.15
X38.102 Y55.441 I-98.411 J-6.461
X38.128 Y50.244 I-397.223 J-4.591
G1 X38.147 Y50.014
X38.201 Y49.79
X38.288 Y49.576
G2 X38.815 Y47.915 I-3.503 J-2.025
X38.817 Y41.898 I-436.771 J-3.119
G1 X38.781 Y41.34
G3 X38.276 Y37.395 I21.881 J-4.807
X38.148 Y30.526 I136.708 J-5.989
G1 X38.138 Y28.563
X38.135 Y25.619
X38.134 Y23.668
G3 X38.442 Y22.733 I1.693 J0.041
G2 X38.824 Y20.949 I-3.476 J-1.676
G1 X38.825 Y18.052
Y14.709
G2 X38.756 Y13.751 I-6.946 J0.018
G3 X38.234 Y8.877 I28.144 J-5.481
X38.142 Y1.026 I220.181 J-6.507
G1 X38.135 Y-1.918
X38.133 Y-9.77
Y-36.271
Y-65.717
X37.953 Y-66.682
X37.472 Y-67.537
X36.788 Y-68.241
X35.98 Y-68.797
X35.097 Y-69.226
X34.171 Y-69.552
G2 X30.307 Y-70.21 I-5.155 J18.601
X23.442 Y-70.447 I-6.469 J87.665
X13.627 Y-70.481 I-7.613 J782.024
G1 X5.382 Y-70.482
X5.283 Y-70.485
X5.184 Y-70.495
X5.087 Y-70.512
X3.564 Y-70.821
G2 X1.782 Y-71.036 I-1.985 J8.958
G1 X0 Y-71.159
X-0.223
X-0.668 Y-71.158
X-0.891 Y-71.146
X-2.895 Y-71.012
X-3.564 Y-70.952
G3 X-7.695 Y-70.578 I-4.595 J-27.745
X-15.546 Y-70.491 I-6.479 J-228.586
G1 X-18.491 Y-70.484
X-26.343 Y-70.482
X-30.269
X-31.25 Y-70.466
X-32.175 Y-70.137
X-32.966 Y-69.555
X-33.603 Y-68.809
X-34.1 Y-67.963
X-34.482 Y-67.058
X-34.77 Y-66.12
G2 X-35.352 Y-62.243 I21.263 J5.17
X-35.562 Y-55.377 I99.426 J6.481
X-35.592 Y-45.562 I915.844 J7.735
G1 X-35.593 Y-29.857
Y-2.676
X-35.598 Y-2.56
X-35.611 Y-2.446
X-35.634 Y-2.333
X-38.174 Y8.338
G3 X-38.201 Y8.416 I-0.612 J-0.169
G2 X-38.232 Y8.51 I0.585 J0.247
G1 X-38.248 Y8.576
X-39.597 Y14.001
G2 X-38.939 Y14.788 I0.616 J0.153
G3 X-38.735 Y14.932 I0.013 J0.198
G2 X-37.532 Y16.942 I3.608 J-0.794
G3 X-36.711 Y18.316 I-4.267 J3.483
G1 X-36.475 Y18.937
X-36.232 Y19.777
G3 X-35.745 Y23.667 I-20.891 J4.589
X-35.608 Y31.517 I-151.999 J6.584
G1 X-35.597 Y34.848
X-35.592 Y38.18
X-35.596 Y41.511
G3 X-36.527 Y42.803 I-1.415 J-0.037
G1 X-36.75 Y42.905
X-36.948 Y43.012
X-37.195 Y43.168
G3 X-38.15 Y42.635 I-0.32 J-0.548
G1 X-38.753 Y17.273
G3 X-37.698 Y16.781 I0.635 J-0.015
G2 X-36.882 Y17.382 I2.41 J-2.419
G1 X-36.373 Y17.606
G3 X-35.19 Y18.582 I-1.34 J2.828
G1 X-34.936 Y18.922
X-34.683 Y19.331
X-34.415 Y19.856
X-34.146 Y20.505
X-33.87 Y21.361
G3 X-33.279 Y25.236 I-19.479 J4.949
X-33.081 Y32.102 I-101.145 J6.359
X-33.071 Y39.954 I-451.526 J4.497
G1 X-33.13 Y40.588
X-33.223 Y41.119
X-33.301 Y41.423
G3 X-34.736 Y42.533 I-1.434 J-0.371
G1 X-34.968 Y42.535
X-35.413 Y42.555
G3 X-36.054 Y41.951 I-0.006 J-0.635
G1 X-37.214 Y18.237
G3 X-36.373 Y17.606 I0.634 J-0.031
G2 X-35.115 Y17.811 I1.219 J-3.505
G3 X-33.382 Y18.783 I-0.64 J3.174
X-32.202 Y20.431 I-4.273 J4.306
G1 X-31.891 Y21.101
X-31.579 Y21.947
X-31.315 Y22.892
G3 X-30.766 Y26.775 I-24.015 J5.376
X-30.542 Y34.622 I-113.773 J7.166
X-30.543 Y38.548 I-100.307 J1.941
G1 X-30.604 Y39.528
X-30.703 Y40.262
G3 X-31.131 Y41.703 I-5.992 J-0.999
X-32.463 Y42.533 I-1.332 J-0.653
G1 X-34.736
G3 X-35.348 Y41.914 I0.022 J-0.635
G1 X-35.931 Y18.453
G3 X-35.291 Y17.802 I0.635 J-0.016
G2 X-33.402 Y17.815 I1.201 J-36.655
G3 X-31.713 Y18.541 I-0.453 J3.38
X-30.403 Y19.945 I-3.552 J4.628
G1 X-30.064 Y20.482
X-29.714 Y21.152
X-29.36 Y21.986
X-29.051 Y22.917
G3 X-28.354 Y26.776 I-21.151 J5.808
X-28.033 Y33.636 I-76.571 J7.021
X-28.074 Y38.542 I-59.691 J1.961
G1 X-28.182 Y39.518
X-28.326 Y40.323
G3 X-28.937 Y42.001 I-6.044 J-1.249
X-30.736 Y42.687 I-1.304 J-0.717
G1 X-30.959 Y42.627
G2 X-32.072 Y42.537 I-0.935 J4.648
G1 X-32.463 Y42.533
G3 X-33.075 Y41.93 I0.022 J-0.635
G1 X-34.24 Y18.477
G3 X-33.632 Y17.811 I0.634 J-0.032
G1 X-31.627 Y17.8
G3 X-29.848 Y18.377 I-0.072 J3.256
X-28.097 Y20.131 I-3.324 J5.07
G1 X-27.704 Y20.749
X-27.327 Y21.472
X-26.943 Y22.375
G3 X-26.026 Y26.185 I-17.457 J6.218
X-25.541 Y33.034 I-55.989 J7.408
X-25.667 Y38.918 I-42.998 J2.024
G1 X-25.827 Y39.886
X-26.017 Y40.698
G3 X-26.845 Y42.577 I-6.204 J-1.614
X-27.685 Y43.489 I-3.008 J-1.928
X-29.51 Y43.317 I-0.801 J-1.264
G1 X-29.627 Y43.235
X-29.845 Y43.096
G3 X-30.118 Y42.628 I0.359 J-0.524
G1 X-32.234 Y18.49
G3 X-31.627 Y17.8 I0.633 J-0.055
G1 X-30.513 Y17.794
G2 X-29.488 Y17.713 I-0.27 J-9.892
G3 X-27.641 Y18.336 I-0.196 J3.627
X-26.154 Y19.691 I-3.319 J5.135
G1 X-25.741 Y20.245
X-25.334 Y20.894
X-24.925 Y21.682
X-24.544 Y22.586
G3 X-23.59 Y26.388 I-18.372 J6.626
X-23.039 Y33.232 I-51.941 J7.628
X-23.142 Y38.135 I-39.595 J1.62
G1 X-23.266 Y39.109
X-23.439 Y40.075
X-23.664 Y40.965
X-23.93 Y41.748
X-24.218 Y42.413
G3 X-25.357 Y44.098 I-5.86 J-2.734
X-26.946 Y45.141 I-2.912 J-2.704
X-28.367 Y44.705 I-0.323 J-1.483
G1 X-28.554 Y44.458
X-28.681 Y44.247
G3 X-28.757 Y44.011 I0.555 J-0.309
G1 X-28.76 Y43.976
X-30.303 Y18.404
G3 X-29.808 Y17.746 I0.634 J-0.038
G2 X-28.593 Y17.33 I-0.577 J-3.666
G3 X-26.876 Y17.318 I0.875 J2.595
X-25.101 Y18.251 I-1.336 J4.699
G1 X-24.666 Y18.623
X-24.251 Y19.041
X-23.802 Y19.574
X-23.344 Y20.216
X-22.9 Y20.96
X-22.465 Y21.84
G3 X-21.32 Y25.587 I-16.589 J7.114
X-20.583 Y32.411 I-42.29 J8.024
X-20.709 Y38.293 I-38.394 J2.117
X-21.58 Y42.113 I-16.986 J-1.864
G1 X-21.917 Y42.915
G3 X-23.473 Y45.254 I-8.048 J-3.669
X-25.287 Y46.576 I-4.214 J-3.876
X-26.389 Y46.863 I-1.325 J-2.829
X-27.693 Y46.072 I0.013 J-1.492
G1 X-28.486 Y44.572
X-28.509 Y44.532
X-28.554 Y44.458
G3 X-28.63 Y44.222 I0.555 J-0.309
X-28.634 Y44.159 I0.631 J-0.074
G1 X-29.059 Y17.962
G3 X-28.732 Y17.396 I0.635 J-0.01
G2 X-27.732 Y16.663 I-1.586 J-3.212
G3 X-25.867 Y16.291 I1.423 J2.279
X-23.992 Y16.922 I-0.535 J4.685
X-22.084 Y18.481 I-3.72 J6.501
G1 X-21.596 Y19.064
X-21.087 Y19.786
X-20.587 Y20.631
G3 X-19.192 Y24.292 I-14.859 J7.76
X-18.179 Y31.076 I-34.418 J8.606
X-18.338 Y38.914 I-38.36 J3.139
X-19.295 Y42.715 I-18.899 J-2.733
G1 X-19.676 Y43.62
X-20.118 Y44.49
X-20.585 Y45.25
X-21.078 Y45.925
G3 X-23.105 Y47.802 I-6.825 J-5.336
X-25.151 Y48.645 I-3.091 J-4.598
X-26.588 Y47.993 I-0.197 J-1.476
X-27.689 Y46.07 I13.95 J-9.26
G1 X-27.721 Y45.994
X-27.743 Y45.915
X-27.755 Y45.832
X-27.756 Y45.801
X-28.013 Y17.206
G3 X-27.841 Y16.765 I0.635 J-0.006
G2 X-27.126 Y15.853 I-3.293 J-3.318
G3 X-25.495 Y15.074 I1.849 J1.771
X-23.254 Y15.353 I0.571 J4.542
X-21.202 Y16.516 I-2.426 J6.674
G1 X-20.664 Y16.974
X-20.092 Y17.551
X-19.507 Y18.242
X-18.936 Y19.039
G3 X-17.248 Y22.574 I-13.181 J8.462
X-15.978 Y28.314 I-27.239 J9.039
X-15.777 Y38.106 I-42.733 J5.773
X-16.831 Y42.891 I-23.421 J-2.648
X-18.56 Y46.404 I-14.546 J-4.975
G1 X-19.139 Y47.197
X-19.742 Y47.9
X-20.359 Y48.512
X-20.982 Y49.039
X-21.599 Y49.48
X-22.19 Y49.835
G3 X-23.812 Y50.452 I-2.886 J-5.148
X-25.294 Y49.926 I-0.318 J-1.456
G1 X-25.391 Y49.802
X-26.588 Y47.993
X-26.656 Y47.753
X-26.682 Y47.661
X-25.613 Y45.22
X-25.508 Y45.018
G2 X-25.29 Y43.68 I-2.266 J-1.056
G1 X-27.191 Y16.227
X-27.209 Y15.978
X-26.437 Y14.793
G3 X-24.854 Y13.755 I2.114 J1.499
X-22.514 Y13.752 I1.176 J4.538
X-20.339 Y14.644 I-1.596 J6.989
G1 X-19.711 Y15.057
X-19.068 Y15.56
X-18.44 Y16.137
X-17.788 Y16.842
G3 X-15.699 Y20.153 I-11.277 J9.431
X-13.929 Y25.755 I-21.811 J9.97
X-13.358 Y38.454 I-41.799 J8.242
X-14.419 Y43.239 I-26.089 J-3.276
X-16.558 Y47.64 I-17.154 J-5.615
X-19.182 Y50.544 I-11.648 J-7.889
G1 X-19.89 Y51.079
X-20.561 Y51.506
G3 X-22.546 Y52.308 I-3.508 J-5.832
G1 X-22.946 Y52.373
G3 X-23.487 Y52.149 I-0.054 J-0.635
X-25.294 Y49.926 I86.394 J-72.053
G1 X-25.358 Y49.685
X-25.414 Y49.475
X-24.379 Y47.023
G2 X-24.172 Y45.909 I-2.291 J-1.001
G1 X-26.419 Y15.042
X-26.437 Y14.793
X-25.614 Y13.529
G3 X-23.746 Y12.234 I2.517 J1.635
X-21.657 Y12.132 I1.284 J4.851
X-19.294 Y12.889 I-1.104 J7.512
G1 X-18.648 Y13.242
X-17.949 Y13.702
X-17.224 Y14.269
X-16.501 Y14.933
G3 X-14.148 Y18.062 I-10.398 J10.268
X-11.967 Y23.515 I-19.78 J11.073
X-10.672 Y33.219 I-39.031 J10.148
X-11.535 Y41.986 I-33.851 J1.092
X-13.66 Y47.462 I-22.347 J-5.521
X-16.607 Y51.367 I-15.153 J-8.37
G1 X-17.331 Y52.03
X-18.098 Y52.642
X-18.866 Y53.164
X-19.567 Y53.563
X-20.222 Y53.868
X-20.481 Y53.964
G3 X-22.05 Y53.619 I-0.517 J-1.389
G1 X-23.163 Y52.495
X-23.463 Y52.175
X-23.551 Y51.941
X-23.62 Y51.757
X-25.497 Y13.621
X-25.509 Y13.372
G3 X-23.987 Y11.476 I35.636 J27.063
X-21.914 Y10.554 I2.425 J2.661
X-19.353 Y10.744 I0.831 J6.148
G1 X-18.731 Y10.934
X-18.034 Y11.213
X-17.294 Y11.582
X-16.564 Y12.022
X-15.79 Y12.577
G3 X-13.088 Y15.409 I-8.877 J11.175
X-10.363 Y20.608 I-16.838 J12.139
X-8.568 Y28.235 I-32.096 J11.576
X-8.638 Y39.974 I-41.361 J5.623
X-10.16 Y45.654 I-29.161 J-4.769
X-12.98 Y50.805 I-20.943 J-8.117
X-16.403 Y54.301 I-14.117 J-10.4
G1 X-17.207 Y54.864
X-17.848 Y55.245
X-18.36 Y55.497
X-18.62 Y55.6
G3 X-20.111 Y55.363 I-0.545 J-1.378
G1 X-21.159 Y54.494
X-21.296 Y54.378
X-21.382 Y54.293
X-22.05 Y53.619
X-22.154 Y53.392
X-22.214 Y53.263
X-24.074 Y11.838
X-24.085 Y11.589
G3 X-22.224 Y9.611 I10.399 J7.923
X-19.973 Y8.928 I2.349 J3.688
X-17.72 Y9.199 I0.308 J6.925
G1 X-17.014 Y9.426
X-16.308 Y9.718
X-15.531 Y10.115
X-14.711 Y10.621
G3 X-11.815 Y13.255 I-8.156 J11.875
X-8.731 Y18.25 I-15.936 J13.289
X-6.469 Y25.749 I-29.27 J12.92
X-6.079 Y39.429 I-43.481 J8.084
X-7.731 Y46.085 I-31.831 J-4.364
X-10.968 Y52.122 I-23.512 J-8.722
X-14.331 Y55.681 I-16.551 J-12.271
G1 X-15.111 Y56.277
X-15.798 Y56.729
X-16.315 Y57.012
X-16.536 Y57.111
G3 X-17.97 Y56.986 I-0.605 J-1.352
G1 X-18.532 Y56.606
X-18.932 Y56.335
X-19.154 Y56.155
X-20.111 Y55.363
X-20.24 Y55.15
X-20.304 Y55.046
X-22.628 Y10.159
X-22.634 Y10.029
X-22.583 Y9.922
X-21.346 Y8.691
G3 X-20.206 Y7.816 I3.521 J3.401
X-17.97 Y7.369 I2.044 J4.407
X-15.51 Y7.833 I-0.189 J7.742
G1 X-14.746 Y8.135
X-13.927 Y8.54
X-13.085 Y9.043
G3 X-10.14 Y11.623 I-8.263 J12.404
X-6.472 Y17.402 I-16.89 J14.775
X-4.136 Y24.879 I-30.42 J13.605
X-3.612 Y39.529 I-44.873 J8.938
X-5.523 Y47.129 I-34.372 J-4.601
X-9.341 Y53.959 I-25.186 J-9.597
X-12.757 Y57.469 I-17.33 J-13.444
G1 X-13.484 Y58.01
X-14.043 Y58.362
X-14.244 Y58.467
G3 X-15.635 Y58.457 I-0.686 J-1.313
G1 X-16.17 Y58.166
X-16.704 Y57.841
X-17.97 Y56.986
X-18.106 Y56.777
X-18.217 Y56.606
X-20.905 Y8.482
X-20.911 Y8.391
X-20.847 Y8.246
X-20.713 Y8.129
X-20.588 Y8.023
X-18.932 Y6.691
G3 X-16.902 Y5.919 I2.288 J2.962
X-14.772 Y6.057 I0.656 J6.372
G1 X-14.103 Y6.232
X-13.35 Y6.495
X-12.564 Y6.844
X-11.73 Y7.297
G3 X-8.685 Y9.758 I-7.797 J12.76
X-4.766 Y15.37 I-16.534 J15.72
X-1.876 Y23.691 I-30.39 J15.216
X-1.234 Y40.277 I-45.911 J10.084
X-3.553 Y48.779 I-36.014 J-5.259
X-8.126 Y56.298 I-26.892 J-11.204
X-10.924 Y59.047 I-17.11 J-14.617
G1 X-11.528 Y59.493
X-11.756 Y59.635
G3 X-13.114 Y59.743 I-0.784 J-1.258
X-14.523 Y59.055 I3.633 J-9.225
G1 X-15.635 Y58.457
X-15.801 Y58.271
X-15.894 Y58.166
X-18.995 Y6.926
X-19 Y6.842
X-18.932 Y6.691
X-18.709 Y6.517
X-18.263 Y6.195
X-18.041 Y6.047
X-16.61 Y5.126
G3 X-14.286 Y4.513 I2.159 J3.478
X-11.968 Y4.915 I-0.037 J7.1
G1 X-11.217 Y5.198
X-10.435 Y5.569
X-9.584 Y6.059
G3 X-6.581 Y8.573 I-8.671 J13.408
X-2.654 Y14.183 I-17.748 J16.603
X0.581 Y23.418 I-32.246 J16.48
X0.99 Y41.947 I-47.268 J10.311
X-1.196 Y49.475 I-38.029 J-6.957
X-6.253 Y57.842 I-29.269 J-11.98
X-8.922 Y60.476 I-16.857 J-14.413
G1 X-9.178 Y60.654
G3 X-10.691 Y60.764 I-0.846 J-1.185
G1 X-10.914 Y60.668
X-13.114 Y59.743
X-13.301 Y59.578
X-13.386 Y59.503
X-16.691 Y5.354
X-16.695 Y5.289
X-16.61 Y5.126
X-16.036 Y4.757
G3 X-13.665 Y3.534 I14.137 J24.509
X-11.489 Y3.302 I1.567 J4.374
G1 X-10.933 Y3.381
X-10.35 Y3.515
X-9.69 Y3.724
X-8.946 Y4.027
X-8.148 Y4.43
X-7.31 Y4.941
G3 X-4.356 Y7.515 I-9.391 J13.763
X-0.458 Y13.148 I-19.167 J17.432
X2.868 Y22.353 I-33.545 J17.321
X3.508 Y41.849 I-49.039 J11.37
X0.72 Y51.235 I-39.959 J-6.764
X-4.487 Y59.515 I-30.897 J-13.649
G1 X-5.15 Y60.239
X-5.838 Y60.939
X-6.416 Y61.455
X-6.883 Y61.809
X-7.279 Y62.062
X-7.509 Y62.184
G3 X-9.37 Y61.79 I-0.695 J-1.308
G1 X-9.464 Y61.56
X-9.485 Y61.509
X-14.004 Y3.862
X-14.01 Y3.789
X-13.909 Y3.644
X-12.918 Y3.145
G3 X-10.794 Y2.35 I16.408 J40.598
X-8.947 Y2.257 I1.15 J4.461
G1 X-8.434 Y2.344
X-7.851 Y2.494
X-7.227 Y2.709
X-6.51 Y3.022
X-5.715 Y3.449
X-4.891 Y3.981
G3 X-1.994 Y6.619 I-9.937 J13.821
X2.28 Y13.176 I-21.266 J18.531
X5.62 Y23.411 I-37.452 J17.886
X5.827 Y42.925 I-51.163 J10.3
X2.94 Y52.284 I-42.342 J-7.934
X-2.856 Y61.345 I-32.517 J-14.416
G1 X-3.541 Y62.048
X-4.246 Y62.7
X-4.802 Y63.137
G3 X-7.145 Y64.143 I-3.223 J-4.273
X-8.696 Y63.069 I-0.144 J-1.448
G1 X-8.734 Y62.947
X-8.745 Y62.697
X-11.257 Y2.673
X-11.258 Y2.643
X-11.136 Y2.46
X-9.932 Y2.006
G3 X-7.692 Y1.415 I9.282 J30.668
X-5.167 Y1.686 I0.708 J5.295
G1 X-4.571 Y1.904
X-3.894 Y2.221
X-3.132 Y2.655
X-2.321 Y3.207
G3 X0.511 Y5.915 I-10.502 J13.817
X4.683 Y12.541 I-22.877 J19.03
X8.019 Y22.78 I-39.59 J18.56
X8.279 Y43.268 I-53.331 J10.923
G2 X7.643 Y46.431 I110.411 J23.825
G3 X-0.041 Y62.11 I-36.658 J-8.244
X-2.738 Y64.697 I-13.674 J-11.557
X-5.259 Y66.003 I-5.513 J-7.553
X-7.365 Y66.156 I-1.415 J-4.896
X-8.587 Y64.817 I0.267 J-1.471
G1 X-8.579 Y64.494
G3 X-4.873 Y65.128 I1.853 J0.317
X-5.168 Y65.864 I-1.853 J-0.317
G1 X-10.637 Y73.957
G3 X-13.752 Y71.851 I-1.558 J-1.053
X-12.931 Y71.174 I1.558 J1.053
X-12.695 Y71.092 I0.736 J1.73
G2 X-10.246 Y69.287 I-0.768 J-3.607
G1 X-10.152 Y69.086
X-9.964 Y68.641
X-9.876 Y68.418
X-8.822 Y65.521
X-8.748 Y65.298
G3 X-7.518 Y65.521 I0.595 J0.221
G1 X-7.043 Y69.309
G2 X-6.624 Y70.424 I2.482 J-0.298
G1 X-5.791 Y71.614
X-4.631 Y72.652
X-3.564 Y73.239
X-2.005 Y73.716
X11.804 Y74.439
G2 X14.064 Y73.321 I0.172 J-2.494
G1 X15.452 Y71.258
X15.591 Y71.051
X15.813 Y70.984
X16.036 Y70.902
X20.105 Y68.986
X20.751 Y68.755
X21.641 Y68.515
G3 X25.538 Y68.075 I4.553 J22.858
X30.444 Y67.965 I4.976 J111.956
G1 X31.421 Y67.874
X32.32 Y67.48
X33.077 Y66.855
X33.685 Y66.084
X34.16 Y65.225
X34.524 Y64.314
X34.8 Y63.372
G2 X35.357 Y59.49 I-22.415 J-5.2
X35.537 Y54.916 I-76.573 J-5.293
G1 X35.568 Y54.647
X35.646 Y54.387
X35.77 Y54.147
X36.617 Y52.818
X36.972 Y52.147
X38.114 Y49.92
X38.288 Y49.576
X38.401 Y49.354
G2 X38.813 Y47.915 I-3.303 J-1.724
G1 X38.824 Y47.246
X38.825 Y42.12
X38.817 Y41.898
X38.794 Y41.533
X38.781 Y41.34
X38.778 Y41.313
X38.771 Y41.285
G2 X38.31 Y40.028 I-3.755 J0.665
X37.507 Y39.075 I-3.623 J2.238
G3 X36.675 Y37.649 I4.244 J-3.431
G1 X36.438 Y37
X36.194 Y36.114
G3 X35.737 Y32.219 I22.394 J-4.603
X35.612 Y25.925 I127.389 J-5.663
X36.527 Y24.504 I1.562 J0.001
G2 X38.321 Y22.947 I-1.405 J-3.429
G3 X38.487 Y22.764 I0.544 J0.327
X39.499 Y23.307 I0.377 J0.511
G1 X38.713 Y38.784
G3 X37.653 Y39.223 I-0.634 J-0.032
G2 X36.32 Y38.416 I-2.491 J2.609
G3 X35.069 Y37.3 I1.713 J-3.178
G1 X34.81 Y36.92
X34.555 Y36.47
X34.285 Y35.888
X34.01 Y35.143
X33.746 Y34.198
G3 X33.244 Y30.308 I23.169 J-4.963
G1 X33.189 Y29.328
X33.151 Y28.348
X33.143 Y27.432
G3 X33.385 Y25.799 I6.664 J0.155
X34.784 Y24.773 I1.412 J0.459
G1 X34.968 Y24.772
X35.413 Y24.752
G3 X36.051 Y25.325 I0.006 J0.635
G1 X37.286 Y37.802
G3 X36.46 Y38.469 I-0.632 J0.063
G2 X35.121 Y38.231 I-1.297 J3.41
G3 X33.39 Y37.264 I0.633 J-3.169
X32.2 Y35.607 I4.263 J-4.314
G1 X31.887 Y34.932
X31.573 Y34.075
G3 X30.851 Y30.223 I17.76 J-5.322
G1 X30.774 Y29.245
X30.754 Y28.263
X30.795 Y27.474
G3 X31.204 Y25.707 I6.053 J0.47
X32.741 Y24.774 I1.384 J0.548
G1 X34.784
G3 X35.401 Y25.381 I-0.017 J0.635
G1 X35.931 Y37.578
G3 X35.291 Y38.24 I-0.634 J0.028
G1 X34.968 Y38.226
X34.745 Y38.224
X33.631
G3 X31.992 Y37.689 I0.065 J-2.981
X30.382 Y36.059 I3.077 J-4.648
G1 X30.04 Y35.514
X29.69 Y34.837
X29.338 Y33.994
G3 X28.421 Y29.191 I15.129 J-5.377
G1 X28.424 Y28.24
X28.492 Y27.44
G3 X29.037 Y25.473 I6.371 J0.704
G1 X29.22 Y25.129
G3 X29.992 Y24.415 I1.421 J0.762
X31.182 Y24.42 I0.59 J1.406
G2 X32.072 Y24.708 I1.665 J-3.62
G1 X32.73 Y24.773
G3 X33.279 Y25.352 I-0.084 J0.629
G1 X34.242 Y37.539
G3 X33.632 Y38.224 I-0.633 J0.05
G2 X31.734 Y38.341 I-0.409 J8.809
G3 X29.706 Y37.623 I0.093 J-3.485
X28.269 Y36.191 I3.504 J-4.951
G1 X27.9 Y35.651
X27.514 Y34.973
X27.134 Y34.157
G3 X26.178 Y30.362 I12.673 J-5.209
G1 X26.106 Y29.383
X26.105 Y28.427
X26.172 Y27.581
X26.297 Y26.805
G3 X27.025 Y24.779 I6.708 J1.267
X28.358 Y23.33 I3.601 J1.975
X29.864 Y23.421 I0.674 J1.358
G1 X30.105 Y23.624
X30.207 Y23.73
G3 X30.362 Y24.056 I-0.472 J0.425
G1 X32.505 Y37.584
G3 X32.042 Y38.296 I-0.627 J0.099
G2 X30.826 Y38.768 I0.802 J3.871
G3 X28.801 Y38.656 I-0.863 J-2.756
X26.962 Y37.466 I1.86 J-4.891
G1 X26.545 Y37.039
X26.108 Y36.51
X25.697 Y35.92
X25.275 Y35.199
X24.87 Y34.357
G3 X23.876 Y30.572 I12.378 J-5.275
G1 X23.796 Y29.594
X23.787 Y28.613
X23.85 Y27.642
X23.975 Y26.79
G3 X24.914 Y24.117 I8.784 J1.586
X26.37 Y22.355 I5.146 J2.769
X27.572 Y21.699 I2.612 J3.357
X29.372 Y22.528 I0.437 J1.419
X29.41 Y22.683 I-0.592 J0.231
G1 X29.421 Y22.771
X31.262 Y38.079
G3 X30.959 Y38.699 I-0.63 J0.076
G2 X30.081 Y39.379 I1.819 J3.254
G3 X28.338 Y39.816 I-1.449 J-2.079
X26.551 Y39.305 I0.292 J-4.401
X24.77 Y37.99 I3.121 J-6.088
G1 X24.28 Y37.457
X23.794 Y36.833
X23.336 Y36.136
X22.884 Y35.313
G3 X21.684 Y31.588 I12.403 J-6.053
X21.646 Y26.703 I14.09 J-2.552
G1 X21.848 Y25.761
X22.102 Y24.907
X22.403 Y24.131
G3 X23.895 Y21.767 I8.096 J3.458
X25.843 Y20.268 I4.737 J4.14
X27.235 Y19.882 I1.852 J3.981
X28.736 Y20.843 I0.109 J1.483
G1 X29.275 Y22.286
X29.363 Y22.509
X29.371 Y22.528
G3 X29.414 Y22.722 I-0.591 J0.231
G1 X29.417 Y22.772
X30.361 Y38.802
G3 X30.189 Y39.275 I-0.634 J0.037
G2 X29.502 Y40.184 I2.835 J2.858
G3 X27.962 Y41.005 I-1.845 J-1.606
X25.804 Y40.824 I-0.724 J-4.306
X23.855 Y39.821 I2.031 J-6.346
G1 X23.304 Y39.387
X22.776 Y38.897
X22.232 Y38.303
X21.681 Y37.595
X21.148 Y36.783
G3 X19.651 Y33.167 I11.921 J-7.05
X19.338 Y26.354 I15.632 J-4.133
G1 X19.545 Y25.394
X19.817 Y24.451
X20.158 Y23.531
X20.556 Y22.671
X20.993 Y21.896
X21.466 Y21.195
G3 X23.515 Y19.155 I7.374 J5.356
X25.822 Y18.091 I3.838 J5.289
G1 X26.193 Y18.029
X26.555 Y17.995
G3 X27.94 Y18.813 I0.058 J1.483
G1 X28.063 Y19.061
X28.109 Y19.166
X28.736 Y20.843
G3 X28.768 Y21.014 I-0.602 J0.201
G1 X28.772 Y21.089
X29.659 Y39.719
G3 X29.58 Y40.057 I-0.634 J0.03
G2 X29.047 Y41.269 I25.992 J12.166
G3 X27.515 Y42.359 I-2.243 J-1.53
X25.22 Y42.47 I-1.364 J-4.447
X22.497 Y41.357 I1.325 J-7.131
G1 X21.863 Y40.91
X21.252 Y40.399
X20.626 Y39.784
X19.997 Y39.057
G3 X18.036 Y35.67 I10.937 J-8.595
X17.008 Y26.032 I16.517 J-6.636
X18.158 Y22.288 I15.59 J2.742
G1 X18.597 Y21.41
X19.098 Y20.566
X19.661 Y19.764
X20.261 Y19.04
X20.89 Y18.394
X21.542 Y17.825
X22.19 Y17.345
G3 X24.513 Y16.229 I4.687 J6.785
G1 X24.955 Y16.125
X25.38 Y16.058
G3 X26.608 Y16.403 I0.236 J1.519
G1 X26.808 Y16.615
X26.963 Y16.862
X27.94 Y18.813
G3 X27.996 Y19.042 I-0.577 J0.264
G1 X27.997 Y19.054
X29.208 Y40.731
Y40.742
G3 X29.177 Y40.977 I-0.634 J0.035
G1 X28.67 Y42.343
G3 X27.223 Y43.87 I-2.473 J-0.895
X24.594 Y44.298 I-2.053 J-4.318
X21.081 Y43.094 I0.709 J-7.798
X17.681 Y39.968 I6.03 J-9.97
X14.912 Y34.173 I13.039 J-9.791
X15.416 Y22.326 I18.633 J-5.141
X18.869 Y16.93 I14.737 J5.626
X22.57 Y14.414 I8.621 J8.702
X24.188 Y13.965 I2.931 J7.414
X25.423 Y14.376 I0.191 J1.488
G1 X25.635 Y14.636
X26.538 Y16.046
G3 X26.963 Y16.862 I-12.198 J6.877
X27.019 Y17.083 I-0.577 J0.264
G1 X27.021 Y17.103
X28.701 Y42.097
Y42.101
G3 X28.67 Y42.343 I-0.634 J0.043
G1 X28.174 Y43.68
G3 X27.57 Y44.758 I-4.041 J-1.557
X25.403 Y45.947 I-2.885 J-2.691
X22.748 Y45.965 I-1.371 J-6.289
G1 X22.086 Y45.818
X21.383 Y45.599
X20.645 Y45.302
X19.872 Y44.916
X19.076 Y44.436
X18.28 Y43.862
G3 X14.575 Y39.49 I9.325 J-11.657
G1 X14.33 Y39.065
X14.217 Y38.847
X14.162 Y38.738
G3 X14.993 Y37.89 I0.577 J-0.266
G1 X27.579 Y43.407
G3 X27.904 Y44.249 I-0.255 J0.582
G1 X27.087 Y45.909
G3 X25.215 Y47.595 I-2.95 J-1.393
X22.571 Y47.998 I-2.166 J-5.329
X18.57 Y46.842 I0.565 J-9.457
X14.38 Y43.491 I6.417 J-12.316
G1 X14.275 Y43.383
X14.178 Y43.269
G2 X11.837 Y43.169 I-1.209 J0.857
G1 X11.268 Y43.969
G2 X10.27 Y47.492 I114.628 J34.383
G3 X5.971 Y58.075 I-45.287 J-12.229
X1.981 Y63.785 I-32.515 J-18.473
G2 X0.84 Y65 I132.566 J125.681
X1.339 Y67.135 I1.244 J0.835
G1 X1.786 Y67.338
G2 X6.681 Y67.651 I5.107 J-41.439
G1 X7.638 Y67.673
X8.043 Y67.713
G3 X9.263 Y68.641 I-0.144 J1.456
G2 X9.798 Y69.678 I3.685 J-1.244
G1 X9.885 Y69.91
X9.91 Y69.978
X10.27 Y72.429
G2 X12.473 Y74.362 I2.166 J-0.247
G1 X14.247 Y74.31
X16.836 Y73.981
X17.595 Y73.646
G2 X18.709 Y72.276 I-0.99 J-1.942
G1 X19.482 Y69.427
X19.514 Y69.309
X19.6 Y69.215
X19.823 Y69.1
G2 X23.69 Y66.779 I-71.841 J-124.079
G1 X24.171 Y66.555
X24.795 Y66.315
X25.635 Y66.068
X26.596 Y65.867
X27.567 Y65.727
X28.543 Y65.622
X29.463 Y65.281
X30.26 Y64.707
X30.913 Y63.974
X31.431 Y63.141
X31.833 Y62.245
X32.14 Y61.313
X32.373 Y60.36
X32.548 Y59.394
X32.617 Y58.881
X32.674 Y58.627
X32.775 Y58.387
X32.916 Y58.169
X34.304 Y56.383
X34.471 Y56.161
X34.623 Y55.938
X34.745 Y55.756
X35.77 Y54.147
X35.968 Y53.995
X36.081 Y53.908
X38.754 Y53.598
G2 X40.704 Y52.149 I-0.329 J-2.478
G1 X41.588 Y50.366
X42.055 Y48.806
X42.143 Y47.246
X42.095 Y41.222
X41.698 Y39.446
X40.981 Y38.045
X39.868 Y36.747
X38.531 Y35.801
X37.172 Y35.212
X35.965 Y34.96
X32.072 Y34.951
X30.291 Y35.382
X28.654 Y36.218
X27.618 Y37.2
X26.633 Y38.555
X25.568 Y41.229
G2 X25.684 Y43.458 I2.292 J0.998
G1 X26.909 Y45.81
X27.024 Y46.032
X26.95 Y46.176
X26.727 Y46.601
X26.621 Y46.8
X25.784 Y48.138
G3 X23.862 Y49.6 I-2.955 J-1.889
X20.906 Y49.906 I-2.114 J-6.003
X16.796 Y48.578 I1.122 J-10.495
G2 X16.067 Y48.281 I-1.4 J2.394
G1 X15.821 Y48.265
X15.577 Y48.286
X15.102 Y48.409
X14.281 Y48.947
X13.592 Y49.647
X13.005 Y50.433
G2 X11.154 Y53.892 I23.705 J14.918
G3 X8.104 Y59.762 I-68.147 J-31.673
X6.834 Y61.77 I-50.7 J-30.656
G2 X6.958 Y63.389 I1.291 J0.716
G1 X7.552 Y64.04
G3 X7.927 Y64.852 I-1.095 J0.999
G1 X7.979 Y65.075
X8.042 Y65.298
X8.241 Y65.847
X9.176 Y68.418
X9.263 Y68.641
X9.257 Y68.89
X9.252 Y69.086
X8.619 Y70.869
G2 X10.245 Y74.015 I2.381 J0.763
G1 X11.883 Y74.435
X15.145 Y74.472
X16.927 Y74.119
X21.446 Y71.984
X21.811 Y71.761
G2 X23.026 Y69.755 I-1.281 J-2.147
G1 X23.078 Y67.322
X23.079 Y67.256
X23.163 Y67.093
X23.386 Y66.948
X23.515 Y66.858
X25.659 Y65.298
X26.282 Y64.838
X26.504 Y64.657
G2 X29.312 Y62.178 I-126.746 J-146.445
G1 X29.845 Y61.621
X31.85 Y59.489
X32.034 Y59.281
X32.225 Y59.058
X32.916 Y58.169
X33.137 Y58.053
X33.347 Y57.943
X36.081 Y57.89
G2 X38.22 Y56.606 I-0.046 J-2.5
G1 X39.551 Y54.378
X41.662 Y50.143
X42.089 Y48.583
X42.12 Y41.452
X41.909 Y40.223
X41.499 Y39
X40.86 Y37.886
X39.868 Y36.747
X38.531 Y35.801
X37.195 Y35.217
X35.942 Y34.959
X32.072 Y34.951
X30.291 Y35.382
X28.732 Y36.168
X28.013 Y36.772
X27.262 Y37.629
X26.528 Y38.778
X24.602 Y43.458
G2 X24.58 Y45.463 I2.279 J1.028
G1 X25.747 Y47.906
X25.81 Y48.038
X25.784 Y48.138
X25.226 Y49.029
X25.083 Y49.252
X24.945 Y49.438
X24.277 Y50.296
G3 X22.556 Y51.44 I-2.809 J-2.359
X20.551 Y51.78 I-2.012 J-5.779
G1 X19.895 Y51.766
X19.17 Y51.69
X18.688 Y51.6
X17.706 Y51.618
X16.785 Y51.956
X15.965 Y52.495
X15.243 Y53.16
X14.602 Y53.903
G2 X12.488 Y57.208 I21.832 J16.298
G1 X11.512 Y58.911
X11.02 Y59.76
G3 X10.189 Y60.681 I-1.42 J-0.446
G2 X8.686 Y61.764 I1.446 J3.589
X7.936 Y63.292 I2.961 J2.402
G1 X7.895 Y63.515
G3 X6.656 I-0.62 J-0.138
G1 X-8.157 Y1.688
X-8.16 Y1.676
X-8.018 Y1.486
X-6.904 Y1.195
G3 X-4.348 Y0.789 I5.592 J26.971
X-2.297 Y1.126 I0.185 J5.286
G1 X-1.709 Y1.36
X-1.087 Y1.67
X-0.371 Y2.102
X0.426 Y2.675
G3 X3.179 Y5.462 I-10.863 J13.482
X7.213 Y12.175 I-24.489 J19.284
X10.273 Y21.481 I-41.592 J18.831
G1 X10.284 Y21.563
Y21.646
X10.273 Y21.728
G3 X9.134 Y21.958 I-0.62 J-0.136
G1 X-5.079 Y1.815
G3 X-4.677 Y0.824 I0.519 J-0.366
G1 X-3.564 Y0.655
G2 X-2.131 Y0.292 I-0.599 J-5.358
G3 X0.231 Y0.428 I0.952 J4.029
X2.859 Y1.84 I-2.472 J7.748
X5.968 Y4.992 I-9.695 J12.676
X9.137 Y10.094 I-22.335 J17.408
X11.862 Y16.979 I-37.324 J18.754
G2 X13.911 Y17.75 I1.382 J-0.564
G1 X14.747 Y17.235
G3 X18.48 Y13.859 I19.835 J18.178
X21.647 Y12.166 I8.307 J11.73
X22.949 Y11.876 I1.917 J5.534
X24.07 Y12.436 I-0.063 J1.529
G1 X24.82 Y13.372
X24.966 Y13.594
X25.395 Y14.263
X25.635 Y14.636
X25.701 Y14.877
X25.723 Y14.96
X25.567 Y15.377
X25.391 Y15.519
X16.036 Y19.63
X13.809 Y19.904
G3 X12.695 Y19.8 I-0.329 J-2.478
G1 X10.914 Y19.122
X9.461 Y18.052
X8.556 Y16.937
X-2.507 Y0.603
X-2.528 Y0.574
X-2.413 Y0.394
G2 X-1.189 Y-0.382 I-1.379 J-3.53
G3 X0.616 Y-0.272 I0.83 J1.232
G1 X0.703 Y-0.183
X0.781 Y-0.086
G3 X0.171 Y1.994 I-1.097 J0.807
X-1.301 Y-0.284 I-0.496 J-1.294
G1 X-1.127 Y-0.446
G3 X-0.67 Y-0.905 I2.017 J1.55
X0.219 Y-0.657 I0.319 J0.573
G2 X2.45 Y0.593 I2.858 J-2.486
G1 X3.118 Y0.695
G3 X5.397 Y1.596 I-0.985 J5.82
G1 X6.009 Y2.014
X6.702 Y2.578
X7.412 Y3.256
G3 X9.809 Y6.357 I-14.394 J13.607
X12.232 Y10.9 I-28.511 J18.119
G2 X12.943 Y11.551 I1.306 J-0.712
G1 X13.408 Y11.709
X14.386 Y11.792
X15.36 Y11.669
X16.31 Y11.424
X17.241 Y11.111
X18.16 Y10.769
X19.081 Y10.428
X20.011 Y10.114
X20.669 Y9.941
X20.948 Y9.892
G3 X22.259 Y10.305 I0.261 J1.459
G1 X22.718 Y10.767
X22.852 Y10.92
X24.069 Y12.436
G3 X23.609 Y13.449 I-0.509 J0.38
G1 X14.615 Y15.049
X13.141 Y14.869
X11.76 Y14.378
X10.859 Y13.805
X9.851 Y12.926
X9.178 Y12.034
X2.907 Y0.828
X2.911 Y0.825
X3.095 Y0.693
X3.107 Y0.694
X3.118 Y0.695
X5.123 Y0.999
G3 X7.559 Y1.573 I-1.797 J13.069
X9.397 Y2.635 I-2.348 J6.187
G1 X10.015 Y3.163
X10.707 Y3.86
G3 X12.729 Y6.63 I-13.089 J11.678
G1 X13.076 Y6.978
X13.893 Y7.522
X14.834 Y7.799
X15.812 Y7.887
X16.793 Y7.852
X17.768 Y7.745
X18.667 Y7.63
G3 X19.878 Y8.024 I0.185 J1.489
G1 X20.491 Y8.529
X20.713 Y8.751
X22.259 Y10.305
G3 X22.389 Y10.517 I-0.466 J0.432
X21.705 Y11.366 I-0.596 J0.22
G1 X13.809 Y10.95
X12.572 Y10.499
X11.582 Y9.965
X10.468 Y9.011
X8.155 Y6.017
G3 X7.63 Y4.903 I1.929 J-1.59
G1 X6.905 Y1.546
X6.904 Y1.544
X7.127 Y1.436
X8.909 Y1.904
X9.132 Y1.965
X11.359 Y2.811
X11.686 Y2.954
X12.068 Y3.16
X12.892 Y3.693
X13.741 Y4.186
X14.664 Y4.52
G3 X15.363 Y4.767 I-0.24 J1.79
G1 X15.427 Y4.82
X15.485 Y4.88
X15.533 Y4.947
G3 X14.719 Y5.859 I-0.535 J0.341
G1 X10.876 Y3.983
G3 X11.359 Y2.811 I0.279 J-0.571
G1 X12.027 Y3.065
X12.166 Y3.12
G3 X15.227 Y4.678 I-66.653 J134.735
G1 X17.373 Y6.073
X17.618 Y6.24
X18.041 Y6.534
X18.263 Y6.711
X19.789 Y7.949
X19.924 Y8.159
X19.98 Y8.246
X24.252 Y50.048
X24.277 Y50.296
X23.182 Y51.703
G3 X22.212 Y52.673 I-6.18 J-5.211
G1 X21.966 Y52.836
X21.696 Y52.989
X21.361 Y53.145
X19.522 Y53.83
X18.66 Y54.3
X17.87 Y54.882
X17.15 Y55.55
G2 X15.081 Y58.182 I12.98 J12.329
G1 X14.933 Y58.365
X14.76 Y58.524
G3 X12.696 Y59.621 I-9.843 J-16.03
G1 X10.691 Y60.466
X10.189 Y60.681
G3 X9.945 Y60.724 I-0.23 J-0.592
X9.605 Y59.562 I0.014 J-0.635
G1 X21.727 Y51.422
G3 X22.555 Y52.372 I0.354 J0.527
G1 X21.276 Y53.709
X21.159 Y53.821
X20.566 Y54.378
X18.932 Y55.771
X18.728 Y55.938
X18.263 Y56.291
X18.135 Y56.383
X16.036 Y57.831
X15.856 Y57.943
X14.563 Y58.653
G3 X13.758 Y57.721 I-0.286 J-0.567
G1 X27.222 Y37.663
X27.841 Y36.929
X40.642 Y25.406
X41.52 Y23.99
X41.929 Y22.732
X42.142 Y20.992
X42.123 Y17.383
G2 X40.981 Y15.402 I-2.497 J0.12
G1 X38.955 Y13.9
X38.754 Y13.752
X38.619 Y13.149
X36.285 Y3.343
G3 X35.706 Y-1.524 I26.638 J-5.633
X35.603 Y-10.356 I226.114 J-7.06
G1 X35.594 Y-13.301
X35.593 Y-23.116
Y-46.672
Y-62.377
X35.59 Y-63.358
X35.318 Y-64.301
X34.779 Y-65.122
X34.062 Y-65.792
X33.235 Y-66.321
X32.343 Y-66.729
X31.412 Y-67.04
G2 X27.543 Y-67.673 I-5.204 J19.681
X20.678 Y-67.907 I-6.523 J90.7
X12.002 Y-67.939 I-6.7 J633.868
G1 X11.772 Y-67.959
X11.547 Y-68.012
X11.334 Y-68.1
X9.577 Y-68.988
X9.381 Y-69.086
X8.686 Y-69.389
X6.682 Y-70.086
G2 X5.087 Y-70.511 I-3.037 J8.18
G1 X4.842 Y-70.562
X3.564 Y-70.821
G2 X2.004 Y-71.022 I-1.784 J7.71
G1 X0 Y-71.159
X-0.223
X-0.668 Y-71.158
G2 X-3.54 Y-70.955 I3.083 J64.051
G1 X-3.564 Y-70.952
X-3.786 Y-70.915
X-4.455 Y-70.783
X-6.459 Y-70.375
X-6.682 Y-70.311
X-7.127 Y-70.171
X-7.35 Y-70.097
X-9.354 Y-69.401
G3 X-11.569 Y-68.578 I-5.965 J-12.671
G1 X-12.53 Y-68.377
G3 X-16.439 Y-68.04 I-4.527 J-29.73
X-24.29 Y-67.951 I-6.536 J-228.45
G1 X-28.216 Y-67.943
X-29.18 Y-67.754
X-30.036 Y-67.275
X-30.745 Y-66.596
X-31.309 Y-65.792
X-31.745 Y-64.913
X-32.078 Y-63.99
G2 X-32.76 Y-60.13 I18.261 J5.215
X-33.014 Y-53.266 I83.82 J6.541
X-33.051 Y-45.414 I548.411 J6.488
G1 X-33.053 Y-39.525
Y-37.562
Y-9.902
G3 X-33.634 Y-8.717 I-1.526 J-0.013
G2 X-34.345 Y-7.577 I3.011 J2.674
G1 X-34.544 Y-6.909
X-35.075 Y-4.68
X-35.634 Y-2.333
X-35.773 Y-2.126
X-35.859 Y-1.998
X-38.977 Y0.331
G2 X-40.005 Y1.783 I1.393 J2.076
G1 X-41.696 Y8.914
X-42.133 Y11.366
X-42.12 Y46.355
G2 X-40.981 Y48.315 I2.496 J-0.139
G1 X-38.933 Y49.776
X-38.73 Y49.92
G2 X-38.395 Y50.812 I3.253 J-0.711
G1 X-38.086 Y51.374
X-37.007 Y53.263
X-36.771 Y53.729
X-36.543 Y54.287
X-36.305 Y55.033
X-36.083 Y55.99
G3 X-35.708 Y59.894 I-27.33 J4.594
G1 X-35.671 Y60.875
X-35.647 Y61.856
X-35.631 Y62.838
X-35.521 Y63.813
X-35.11 Y64.705
X-34.478 Y65.456
X-33.703 Y66.057
X-32.84 Y66.526
X-31.927 Y66.885
X-30.984 Y67.157
G2 X-27.101 Y67.708 I5.211 J-22.763
X-22.95 Y67.879 I5.101 J-73.392
G1 X-22.691 Y67.908
X-22.44 Y67.98
X-22.207 Y68.095
X-20.936 Y68.868
X-20.713 Y68.999
X-20.552 Y69.086
X-20.491 Y69.117
X-17.338 Y70.622
G3 X-17.595 Y71.819 I-0.293 J0.563
G1 X-30.513 Y70.65
X-32.072 Y70.31
X-34.184 Y69.532
X-36.081 Y68.391
X-37.421 Y67.081
X-38.476 Y65.298
X-38.79 Y64.183
X-38.899 Y63.292
X-39.225 Y57.498
G3 X-38.948 Y56.161 I2.494 J-0.18
G1 X-37.345 Y53.263
X-37.225 Y53.197
X-37.176 Y53.169
X-37.007 Y53.263
X-36.498 Y54.155
X-36.364 Y54.378
X-35.912 Y55.046
X-34.799 Y56.606
X-34.575 Y56.955
X-34.346 Y57.385
X-34.107 Y57.935
X-33.861 Y58.658
X-33.619 Y59.609
X-33.451 Y60.576
X-33.175 Y61.518
X-32.661 Y62.354
X-31.97 Y63.051
X-31.163 Y63.61
X-30.285 Y64.048
X-29.363 Y64.385
G2 X-26.938 Y64.926 I5.286 J-17.997
G1 X-26.713 Y65.029
X-26.505 Y65.161
X-24.85 Y66.412
G2 X-24.055 Y66.973 I4.97 J-6.208
G1 X-22.207 Y68.095
G3 X-22.495 Y69.258 I-0.349 J0.531
G1 X-26.059 Y69.246
X-26.727 Y69.066
X-32.072 Y66.842
X-33.265 Y66.189
X-34.853 Y64.852
X-35.859 Y63.434
X-36.508 Y61.955
X-36.667 Y61.286
G3 X-36.527 Y59.683 I2.428 J-0.596
G1 X-35.113 Y56.606
X-35.022 Y56.561
X-34.956 Y56.529
X-34.799 Y56.606
X-34.3 Y57.305
X-33.841 Y57.943
G2 X-30.898 Y61.288 I89.464 J-75.743
G1 X-30.736 Y61.451
X-28.274 Y63.738
X-27.841 Y64.138
X-27.395 Y64.486
X-27.172 Y64.656
X-26.505 Y65.161
X-26.378 Y65.375
X-26.282 Y65.537
X-26.261 Y68.418
G2 X-24.945 Y70.519 I2.498 J-0.101
G1 X-21.827 Y72.152
X-17.818 Y74.013
X-16.229 Y74.435
X-13.141 Y74.466
X-11.445 Y74.212
X-9.919 Y73.544
X-8.686 Y72.586
X40.313 Y25.762
X41.427 Y24.179
X41.938 Y22.732
X42.142 Y20.949
X42.095 Y13.675
X40.366 Y6.24
G2 X38.977 Y4.587 I-2.421 J0.624
G1 X36.485 Y3.471
X36.304 Y3.39
X36.285 Y3.343
X33.854 Y-6.867
G3 X33.284 Y-10.03 I14.087 J-4.174
X33.079 Y-15.914 I79.736 J-5.715
X33.054 Y-23.766 I792.249 J-6.438
G1 X33.053 Y-34.563
Y-60.082
X32.996 Y-61.062
X32.639 Y-61.976
X32.042 Y-62.755
X31.289 Y-63.385
X30.442 Y-63.881
X29.538 Y-64.263
X28.6 Y-64.553
G2 X24.724 Y-65.146 I-5.233 J21.263
X17.859 Y-65.368 I-6.559 J96.7
G1 X16.877 Y-65.381
X15.757 Y-65.387
G3 X14.792 Y-65.75 I0.006 J-1.482
G1 X14.477 Y-66.024
G2 X12.25 Y-67.562 I-68.987 J97.489
G1 X11.582 Y-67.975
X11.334 Y-68.1
X11.169 Y-68.286
X11.052 Y-68.418
X10.609 Y-70.869
G2 X8.909 Y-72.869 I-2.471 J0.378
G1 X7.573 Y-73.288
X4.677 Y-73.959
X0 Y-74.476
X-4.455 Y-74.178
X-7.795 Y-73.424
G2 X-9.442 Y-71.538 I0.807 J2.366
G1 X-9.903 Y-69.327
X-9.911 Y-69.288
X-10.023 Y-69.11
X-10.075 Y-69.086
X-10.245 Y-69.004
X-12.287 Y-67.972
G2 X-13.586 Y-67.127 I9.731 J16.388
G1 X-14.058 Y-66.837
X-14.497 Y-66.613
X-15.064 Y-66.379
X-15.822 Y-66.136
X-16.777 Y-65.912
G3 X-20.681 Y-65.526 I-4.654 J-27.115
X-25.587 Y-65.424 I-5.063 J-125.78
G1 X-26.552 Y-65.242
X-27.415 Y-64.775
X-28.134 Y-64.107
X-28.707 Y-63.31
X-29.154 Y-62.436
X-29.496 Y-61.516
X-29.756 Y-60.569
G2 X-30.284 Y-56.683 I24.042 J5.248
X-30.487 Y-48.835 I121.463 J7.071
X-30.511 Y-41.965 I598.078 J5.525
G1 X-30.513 Y-35.094
Y-29.205
Y-12.519
X-30.524 Y-11.538
X-30.555 Y-11.146
G3 X-31.739 Y-9.811 I-1.477 J-0.117
G1 X-31.987 Y-9.836
X-32.072 Y-9.845
X-32.329 Y-10.029
X-32.45 Y-10.252
X-33.791 Y-15.377
X-33.776 Y-50.812
X-33.611 Y-56.383
X-33.394 Y-59.058
X-32.761 Y-62.178
X-31.768 Y-64.629
X-30.736 Y-66.1
X-29.4 Y-67.387
X-27.841 Y-68.257
X-26.282 Y-68.663
X-17.818 Y-69.136
G3 X-16.495 Y-68.863 I0.177 J2.494
G1 X-13.586 Y-67.446
X-13.538 Y-67.35
X-13.506 Y-67.287
X-13.586 Y-67.127
X-14.477 Y-66.515
X-15.145 Y-66.048
X-15.246 Y-65.966
X-15.591 Y-65.662
X-16.24 Y-65.075
G3 X-17.872 Y-64.052 I-3.808 J-4.263
G1 X-18.527 Y-63.802
X-19.414 Y-63.543
G3 X-23.302 Y-63.034 I-4.892 J-22.234
G1 X-24.237 Y-62.733
X-25.057 Y-62.193
X-25.731 Y-61.48
X-26.269 Y-60.658
X-26.687 Y-59.771
X-27.008 Y-58.843
G2 X-27.675 Y-54.98 I19.144 J5.292
X-27.932 Y-48.116 I84.977 J6.616
G1 X-27.958 Y-44.731
X-27.974 Y-41.345
X-27.979 Y-37.96
X-27.973 Y-34.574
X-27.991 Y-34.46
X-28.013 Y-34.347
X-29.929 Y-26.297
G2 X-30.101 Y-24.96 I4.813 J1.298
X-29.847 Y-23.754 I4.09 J-0.232
X-29.28 Y-22.748 I5.941 J-2.684
G1 X-29.075 Y-22.325
X-28.856 Y-21.773
X-28.628 Y-21.026
X-28.416 Y-20.067
G3 X-28.072 Y-16.159 I-28.601 J4.493
X-28.048 Y-12.457 I-41.453 J2.121
X-28.398 Y-10.851 I-6.398 J-0.555
X-29.782 Y-9.904 I-1.388 J-0.545
G1 X-30.513
X-31.182 Y-9.895
X-31.404 Y-9.87
X-31.627 Y-9.833
X-31.739 Y-9.811
G3 X-32.471 Y-10.532 I-0.104 J-0.626
G1 X-30.611 Y-22.78
G3 X-29.467 Y-23.055 I0.628 J0.095
G2 X-28.123 Y-21.852 I3.082 J-2.093
G3 X-26.866 Y-20.294 I-2.606 J3.388
G1 X-26.612 Y-19.759
X-26.354 Y-19.065
X-26.092 Y-18.139
G3 X-25.641 Y-13.265 I-18.894 J4.206
G1 X-25.716 Y-12.478
G3 X-26.164 Y-10.789 I-6.193 J-0.74
X-27.523 Y-9.904 I-1.363 J-0.607
G1 X-29.782
G3 X-30.391 Y-10.611 I0.022 J-0.635
G1 X-29.16 Y-21.426
G3 X-28.253 Y-21.926 I0.631 J0.072
G2 X-26.903 Y-21.467 I2.029 J-3.754
G3 X-25.421 Y-20.47 I-1.02 J3.118
X-24.306 Y-18.717 I-4.667 J4.199
G1 X-24.017 Y-17.995
X-23.746 Y-17.117
X-23.534 Y-16.159
X-23.396 Y-15.187
X-23.332 Y-14.207
X-23.346 Y-13.315
X-23.422 Y-12.516
G3 X-23.889 Y-10.785 I-6.308 J-0.772
X-25.246 Y-9.904 I-1.361 J-0.61
G1 X-27.523
G3 X-28.135 Y-10.561 I0.022 J-0.635
G1 X-27.774 Y-20.891
G3 X-27.05 Y-21.498 I0.635 J0.022
G2 X-26.059 Y-21.444 I0.746 J-4.631
G3 X-25.093 Y-21.365 I0.221 J3.228
X-23.263 Y-20.161 I-1.17 J3.77
G1 X-22.946 Y-19.796
G3 X-21.722 Y-17.52 I-6.449 J4.935
G1 X-21.47 Y-16.72
G3 X-21.1 Y-13.195 I-10.803 J2.918
G1 X-21.174 Y-12.442
G3 X-21.624 Y-10.781 I-6.161 J-0.778
X-22.979 Y-9.904 I-1.359 J-0.614
G1 X-25.246
G3 X-25.858 Y-10.516 I0.022 J-0.635
G1 X-26.226 Y-20.783
G3 X-25.613 Y-21.44 I0.635 J-0.023
G1 X-23.709
G3 X-22.064 Y-20.878 I-0.152 J3.132
X-20.452 Y-19.256 I-3.092 J4.686
G1 X-20.112 Y-18.714
X-19.797 Y-18.105
G3 X-18.946 Y-15.068 I-8.943 J4.144
G1 Y-14.991
G3 X-20.099 Y-14.646 I-0.635 J-0.022
G1 X-24.205 Y-20.438
G3 X-23.709 Y-21.44 I0.518 J-0.367
X-21.423 Y-21.396 I0.664 J24.816
X-18.991 Y-18.943 I-0.181 J2.611
G1 X-18.949 Y-18.274
X-18.946 Y-18.052
Y-13.149
X-18.951 Y-12.926
X-19.008 Y-12.257
G3 X-19.922 Y-10.555 I-2.548 J-0.272
X-21.604 Y-9.939 I-1.693 J-2.018
G1 X-22.273 Y-9.905
X-22.979 Y-9.904
X-23.21 Y-9.999
X-23.386 Y-10.071
X-32.348 Y-21.394
X-33.071 Y-22.954
X-33.394 Y-24.515
X-33.409 Y-25.335
X-30.736 Y-57.368
X-30.208 Y-59.726
X-29.622 Y-61.304
X-28.824 Y-62.815
X-27.947 Y-63.961
X-26.95 Y-64.899
X-25.613 Y-65.706
X-24.277 Y-66.191
X-20.713 Y-66.69
G3 X-19.6 Y-66.561 I0.276 J2.485
G1 X-16.259 Y-65.376
X-16.222 Y-65.302
X-16.18 Y-65.217
X-16.24 Y-65.075
X-17.373 Y-64.05
G2 X-18.574 Y-62.687 I18.911 J17.876
G3 X-19.953 Y-61.746 I-3.772 J-4.051
G1 X-20.85 Y-61.348
X-21.723 Y-60.898
X-22.494 Y-60.292
X-23.141 Y-59.553
X-23.666 Y-58.724
X-24.083 Y-57.836
X-24.409 Y-56.91
G2 X-25.104 Y-53.052 I19.123 J5.436
X-25.386 Y-46.189 I79.877 J6.718
G1 X-25.4 Y-45.483
X-25.405 Y-45.373
X-25.419 Y-45.264
X-25.44 Y-45.156
X-28.013 Y-34.347
G3 X-29.23 Y-34.32 I-0.612 J-0.169
G1 X-30.291 Y-37.384
G3 X-30.398 Y-38.555 I2.366 J-0.807
G1 X-28.123 Y-55.492
X-27.343 Y-58.612
X-26.444 Y-60.521
X-25.391 Y-62.015
X-24.336 Y-63.069
X-23.386 Y-63.737
G3 X-21.159 Y-64.017 I1.393 J2.076
G1 X-18.442 Y-63.078
X-18.417 Y-63.069
X-18.433 Y-62.846
X-19.377 Y-61.729
X-19.558 Y-61.509
G2 X-21.279 Y-58.835 I58.188 J39.348
G1 X-21.382 Y-58.649
G2 X-22.637 Y-55.938 I118.146 J56.341
X-23.614 Y-52.818 I60.108 J20.548
G1 X-23.721 Y-52.372
X-23.832 Y-51.913
X-25.44 Y-45.156
G3 X-26.608 Y-45.018 I-0.612 J-0.169
G1 X-27.758 Y-48.138
G3 X-27.81 Y-49.475 I2.381 J-0.761
G1 X-26.727 Y-54.008
X-25.765 Y-57.052
X-24.082 Y-60.618
X-22.05 Y-63.685
X-19.823 Y-66.281
X-17.127 Y-68.704
X-13.809 Y-70.923
X-10.468 Y-72.543
X-7.442 Y-73.544
X-4.009 Y-74.241
X0 Y-74.478
X2.895 Y-74.253
X5.345 Y-73.825
X30.805 Y-67.303
X33.854 Y-65.838
G3 X35.016 Y-64.629 I-1.117 J2.236
G1 X36.091 Y-62.178
X36.316 Y-61.063
X36.53 Y-11.143
G3 X36.073 Y-9.583 I-2.497 J0.116
G1 X34.077 Y-7.03
X33.977
X33.854
X33.777 Y-7.131
G2 X32.61 Y-9.017 I-3.455 J0.836
G3 X31.585 Y-10.685 I3.648 J-3.391
G1 X31.343 Y-11.358
X31.095 Y-12.281
G3 X30.654 Y-16.178 I23.495 J-4.634
X30.527 Y-24.028 I166.04 J-6.61
G1 X30.517 Y-25.991
X30.514 Y-29.917
X30.513 Y-47.585
Y-57.4
X30.482 Y-58.381
X30.157 Y-59.307
X29.586 Y-60.105
X28.85 Y-60.755
X28.013 Y-61.268
X27.115 Y-61.664
X26.181 Y-61.966
G2 X22.31 Y-62.588 I-5.265 J20.418
X18.433 Y-62.78 I-5.039 J62.651
G3 X17.355 Y-63.293 I0.048 J-1.489
G2 X16.482 Y-64.223 I-5.552 J4.334
G1 X14.8 Y-65.743
X14.792 Y-65.75
G3 X15.368 Y-66.834 I0.433 J-0.465
G1 X26.95 Y-65.177
X28.509 Y-64.657
X29.845 Y-64.032
X31.258 Y-63.062
X32.521 Y-61.732
X33.409 Y-60.033
X33.678 Y-59.058
X33.842 Y-57.498
X34.351 Y-13.149
G3 X34.151 Y-12.034 I-2.497 J0.126
G1 X32.967 Y-8.92
X32.963 Y-8.912
X32.723 Y-8.914
G2 X31.263 Y-9.761 I-2.59 J2.786
G3 X29.984 Y-10.919 I1.774 J-3.246
G1 X29.725 Y-11.304
X29.463 Y-11.775
X29.189 Y-12.377
X28.912 Y-13.145
X28.654 Y-14.092
G3 X28.163 Y-17.983 I23.857 J-4.99
X28.031 Y-21.581 I75.65 J-4.576
X28.532 Y-22.729 I1.51 J-0.024
G2 X29.276 Y-26.075 I-2.861 J-2.391
G1 X29.229 Y-26.297
X28.646 Y-28.749
G3 X28.082 Y-33.617 I26.499 J-5.534
X27.983 Y-42.45 I232.123 J-7.028
G1 X27.974 Y-46.376
X27.973 Y-55.21
X27.843 Y-56.182
X27.418 Y-57.067
X26.777 Y-57.81
X25.998 Y-58.408
X25.136 Y-58.877
X24.223 Y-59.238
X23.281 Y-59.512
X22.321 Y-59.719
X21.352 Y-59.874
X20.496 Y-59.977
G3 X19.424 Y-60.651 I0.177 J-1.471
G2 X18.711 Y-61.693 I-11.554 J7.14
G1 X17.355 Y-63.293
G3 X18.041 Y-64.297 I0.495 J-0.398
G1 X26.95 Y-61.634
X28.83 Y-60.395
X29.845 Y-59.311
X30.575 Y-58.166
X31.123 Y-56.606
X31.27 Y-55.269
X31.456 Y-32.76
G3 X30.959 Y-31.138 I-2.497 J0.121
G1 X28.954 Y-28.641
X28.837 Y-28.637
X28.732 Y-28.633
X28.646 Y-28.749
X26.099 Y-39.446
G3 X25.542 Y-44.315 I26.54 J-5.504
X25.443 Y-52.166 I204.008 J-6.483
G1 X25.425 Y-53.148
X25.136 Y-54.086
X24.591 Y-54.902
X23.874 Y-55.573
X23.05 Y-56.106
X22.161 Y-56.521
G3 X21.312 Y-57.295 I0.504 J-1.405
G1 X20.936 Y-58.106
X20.69 Y-58.612
X20.577 Y-58.835
X20.268 Y-59.329
X19.424 Y-60.651
G3 X20.312 Y-61.509 I0.547 J-0.323
G1 X26.186 Y-57.943
X27.172 Y-56.925
X28.115 Y-55.49
X28.512 Y-54.378
X28.752 Y-52.818
X28.9 Y-43.458
G3 X28.286 Y-41.682 I-2.497 J0.131
G1 X26.482 Y-39.446
X26.295 Y-39.31
X26.282 Y-39.3
X26.099 Y-39.446
X23.075 Y-52.149
X22.967 Y-52.595
X22.912 Y-52.818
X22.853 Y-53.04
X22.05 Y-55.634
X22.023 Y-55.715
X21.938 Y-55.938
X21.827 Y-56.185
X21.312 Y-57.295
G3 X22.273 Y-58.054 I0.585 J-0.247
G1 X24.945 Y-56.024
G3 X25.776 Y-54.823 I-1.552 J1.96
G1 X26.048 Y-53.932
X32.555 Y-26.52
X32.667 Y-25.183
X31.626 Y-9.806
X31.625 Y-9.805
X31.453 Y-9.704
G3 X31.404 Y-9.71 J-0.198
G2 X30.141 Y-9.905 I-1.218 J3.709
G3 X28.441 Y-10.783 I0.494 J-3.04
X27.253 Y-12.335 I3.941 J-4.25
G1 X26.935 Y-12.966
X26.624 Y-13.737
X26.331 Y-14.674
G3 X25.719 Y-18.547 I21.569 J-5.395
G1 X25.645 Y-19.526
X25.635 Y-20.25
G3 X26.727 Y-21.581 I1.47 J0.092
G1 X26.95 Y-21.647
X27.172 Y-21.735
G3 X27.997 Y-21.303 I0.212 J0.599
G1 X30.887 Y-10.701
G3 X30.291 Y-9.899 I-0.613 J0.167
G2 X28.353 Y-9.912 I-4.219 J474.714
G3 X26.646 Y-10.647 I0.413 J-3.309
X25.325 Y-12.069 I3.548 J-4.621
G1 X24.966 Y-12.644
X24.617 Y-13.321
X24.265 Y-14.163
G3 X23.395 Y-17.983 I15.967 J-5.644
G1 X23.348 Y-18.651
G3 X23.535 Y-20.331 I5.622 J-0.224
X24.971 Y-21.44 I1.438 J0.377
