;FLAVOR:UltiGCode
;TIME:3675
;MATERIAL:6376
;MATERIAL2:0
;Generated with Cura_SteamEngine DEV
;LAYER:0
M107
G0 F9000 X97.010 Y55.851 Z0.300
G0 X99.346 Y54.320
;TYPE:SKIRT
G1 F900 X99.437 Y54.311 E0.01097
G1 X99.434 Y54.311 E0.01133
G1 X100.748 Y54.285 E0.16904
G1 X129.576 Y54.285 E3.62840
G1 X130.319 Y54.295 E3.71757
G1 X130.448 Y54.301 E3.73307
G1 X130.492 Y54.304 E3.73836
G1 X130.627 Y54.317 E3.75464
G1 X130.694 Y54.325 E3.76273
G1 X130.773 Y54.338 E3.77234
G1 X130.881 Y54.357 E3.78550
G1 X130.935 Y54.369 E3.79214
G1 X131.058 Y54.399 E3.80733
G1 X131.116 Y54.414 E3.81452
G1 X131.214 Y54.444 E3.82682
G1 X131.269 Y54.462 E3.83376
G1 X131.392 Y54.506 E3.84944
G1 X131.475 Y54.539 E3.86016
G1 X131.521 Y54.559 E3.86618
G1 X131.636 Y54.612 E3.88137
G1 X131.709 Y54.648 E3.89114
G1 X131.768 Y54.679 E3.89914
G1 X131.884 Y54.745 E3.91515
G1 X131.946 Y54.782 E3.92382
G1 X131.988 Y54.809 E3.92981
G1 X132.080 Y54.872 E3.94319
G1 X132.162 Y54.931 E3.95531
G1 X132.235 Y54.987 E3.96635
G1 X132.287 Y55.030 E3.97445
G1 X132.378 Y55.108 E3.98883
G1 X132.411 Y55.137 E3.99410
G1 X132.500 Y55.223 E4.00895
G1 X132.566 Y55.290 E4.02024
G1 X132.583 Y55.308 E4.02321
G1 X132.661 Y55.396 E4.03732
G1 X132.720 Y55.467 E4.04840
G1 X132.807 Y55.577 E4.06523
G1 X132.820 Y55.594 E4.06780
G1 X132.905 Y55.716 E4.08564
G1 X132.923 Y55.743 E4.08953
G1 X132.994 Y55.857 E4.10565
G1 X133.022 Y55.905 E4.11232
G1 X133.071 Y55.994 E4.12451
G1 X133.106 Y56.064 E4.13390
G1 X133.157 Y56.170 E4.14802
G1 X133.195 Y56.257 E4.15941
G1 X133.208 Y56.289 E4.16355
G1 X133.260 Y56.426 E4.18114
G1 X133.271 Y56.458 E4.18520
G1 X133.306 Y56.569 E4.19917
G1 X133.329 Y56.650 E4.20927
G1 X133.349 Y56.730 E4.21917
G1 X133.369 Y56.817 E4.22988
G1 X133.387 Y56.906 E4.24077
G1 X133.406 Y57.021 E4.25476
G1 X133.415 Y57.081 E4.26204
G1 X133.424 Y57.170 E4.27278
G1 X133.450 Y58.483 E4.43037
G1 X133.450 Y87.291 E7.88733
G1 X133.440 Y88.054 E7.97890
G1 X133.434 Y88.183 E7.99439
G1 X133.432 Y88.217 E7.99848
G1 X133.418 Y88.362 E8.01596
G1 X133.410 Y88.429 E8.02406
G1 X133.397 Y88.508 E8.03366
G1 X133.378 Y88.616 E8.04682
G1 X133.370 Y88.653 E8.05137
G1 X133.339 Y88.782 E8.06729
G1 X133.321 Y88.851 E8.07584
G1 X133.291 Y88.949 E8.08814
G1 X133.272 Y89.006 E8.09535
G1 X133.230 Y89.123 E8.11027
G1 X133.196 Y89.210 E8.12148
G1 X133.176 Y89.256 E8.12750
G1 X133.123 Y89.371 E8.14269
G1 X133.093 Y89.432 E8.15085
G1 X133.056 Y89.503 E8.16046
G1 X132.990 Y89.619 E8.17647
G1 X132.953 Y89.680 E8.18503
G1 X132.925 Y89.724 E8.19129
G1 X132.865 Y89.812 E8.20407
G1 X132.812 Y89.886 E8.21500
G1 X132.749 Y89.968 E8.22741
G1 X132.705 Y90.022 E8.23576
G1 X132.615 Y90.127 E8.25236
G1 X132.511 Y90.235 E8.27035
G1 X132.441 Y90.305 E8.28223
G1 X132.417 Y90.327 E8.28614
G1 X132.333 Y90.401 E8.29957
G1 X132.255 Y90.466 E8.31176
G1 X132.166 Y90.536 E8.32534
G1 X132.125 Y90.566 E8.33144
G1 X132.019 Y90.640 E8.34695
G1 X131.992 Y90.658 E8.35085
G1 X131.886 Y90.724 E8.36583
G1 X131.822 Y90.761 E8.37470
G1 X131.744 Y90.804 E8.38539
G1 X131.671 Y90.841 E8.39521
G1 X131.565 Y90.892 E8.40933
G1 X131.478 Y90.930 E8.42072
G1 X131.439 Y90.946 E8.42578
G1 X131.309 Y90.995 E8.44245
G1 X131.256 Y91.013 E8.44917
G1 X131.166 Y91.041 E8.46048
G1 X131.082 Y91.065 E8.47096
G1 X131.005 Y91.084 E8.48048
G1 X130.906 Y91.107 E8.49267
G1 X130.813 Y91.125 E8.50404
G1 X130.714 Y91.141 E8.51607
G1 X130.654 Y91.150 E8.52335
G1 X130.565 Y91.159 E8.53409
G1 X129.252 Y91.185 E8.69168
G1 X100.424 Y91.185 E12.15104
G1 X99.681 Y91.175 E12.24021
G1 X99.552 Y91.169 E12.25570
G1 X99.508 Y91.166 E12.26100
G1 X99.373 Y91.153 E12.27727
G1 X99.306 Y91.145 E12.28537
G1 X99.227 Y91.132 E12.29498
G1 X99.116 Y91.112 E12.30851
G1 X99.065 Y91.101 E12.31477
G1 X98.942 Y91.071 E12.32996
G1 X98.884 Y91.056 E12.33715
G1 X98.786 Y91.026 E12.34945
G1 X98.729 Y91.007 E12.35666
G1 X98.608 Y90.964 E12.37207
G1 X98.523 Y90.930 E12.38306
G1 X98.479 Y90.911 E12.38881
G1 X98.364 Y90.858 E12.40400
G1 X98.291 Y90.822 E12.41377
G1 X98.227 Y90.788 E12.42247
G1 X98.114 Y90.724 E12.43805
G1 X98.051 Y90.686 E12.44688
G1 X98.008 Y90.658 E12.45304
G1 X97.920 Y90.598 E12.46582
G1 X97.837 Y90.538 E12.47811
G1 X97.765 Y90.483 E12.48898
G1 X97.708 Y90.436 E12.49785
G1 X97.618 Y90.359 E12.51206
G1 X97.587 Y90.330 E12.51715
G1 X97.496 Y90.243 E12.53226
G1 X97.417 Y90.162 E12.54584
G1 X97.408 Y90.152 E12.54745
G1 X97.325 Y90.057 E12.56259
G1 X97.269 Y89.990 E12.57307
G1 X97.180 Y89.876 E12.59043
G1 X97.169 Y89.860 E12.59276
G1 X97.089 Y89.746 E12.60947
G1 X97.077 Y89.727 E12.61216
G1 X97.004 Y89.610 E12.62871
G1 X96.971 Y89.552 E12.63672
G1 X96.924 Y89.466 E12.64848
G1 X96.894 Y89.406 E12.65653
G1 X96.840 Y89.292 E12.67167
G1 X96.805 Y89.213 E12.68204
G1 X96.789 Y89.174 E12.68710
G1 X96.740 Y89.044 E12.70377
G1 X96.722 Y88.991 E12.71048
G1 X96.694 Y88.901 E12.72179
G1 X96.670 Y88.817 E12.73228
G1 X96.651 Y88.740 E12.74179
G1 X96.628 Y88.641 E12.75399
G1 X96.610 Y88.548 E12.76536
G1 X96.594 Y88.449 E12.77739
G1 X96.585 Y88.389 E12.78467
G1 X96.576 Y88.298 E12.79565
G1 X96.550 Y86.966 E12.95552
G1 X96.550 Y58.146 E16.41392
G1 X96.560 Y57.416 E16.50152
G1 X96.566 Y57.287 E16.51702
G1 X96.569 Y57.243 E16.52231
G1 X96.582 Y57.108 E16.53859
G1 X96.590 Y57.041 E16.54669
G1 X96.604 Y56.955 E16.55714
G1 X96.622 Y56.854 E16.56945
G1 X96.634 Y56.800 E16.57609
G1 X96.664 Y56.677 E16.59128
G1 X96.679 Y56.619 E16.59847
G1 X96.716 Y56.498 E16.61366
G1 X96.730 Y56.458 E16.61874
G1 X96.771 Y56.343 E16.63339
G1 X96.804 Y56.260 E16.64411
G1 X96.829 Y56.202 E16.65169
G1 X96.877 Y56.099 E16.66533
G1 X96.913 Y56.026 E16.67509
G1 X96.944 Y55.967 E16.68309
G1 X97.010 Y55.851 E16.69911
G1 X97.047 Y55.789 E16.70777
G1 X97.075 Y55.746 E16.71393
G1 X97.149 Y55.638 E16.72964
G1 X97.197 Y55.572 E16.73943
G1 X97.256 Y55.495 E16.75107
G1 X97.295 Y55.448 E16.75840
G1 X97.376 Y55.353 E16.77338
G1 X97.402 Y55.324 E16.77806
G1 X97.496 Y55.227 E16.79426
G1 X97.569 Y55.156 E16.80648
G1 X97.583 Y55.143 E16.80878
G1 X97.667 Y55.069 E16.82221
G1 X97.745 Y55.004 E16.83440
G1 X97.850 Y54.922 E16.85038
G1 X97.877 Y54.902 E16.85441
G1 X97.981 Y54.830 E16.86959
G1 X98.012 Y54.809 E16.87409
G1 X98.122 Y54.741 E16.88960
G1 X98.178 Y54.709 E16.89734
G1 X98.259 Y54.664 E16.90846
G1 X98.329 Y54.629 E16.91786
G1 X98.435 Y54.578 E16.93197
G1 X98.522 Y54.540 E16.94336
G1 X98.561 Y54.524 E16.94842
G1 X98.691 Y54.475 E16.96509
G1 X98.744 Y54.457 E16.97181
G1 X98.834 Y54.429 E16.98312
G1 X98.918 Y54.405 E16.99360
G1 X98.995 Y54.386 E17.00312
G1 X99.094 Y54.363 E17.01532
G1 X99.187 Y54.345 E17.02668
G1 X99.286 Y54.329 E17.03872
G1 X99.346 Y54.320 E17.04600
G10
G0 F9000 X100.350 Y58.085
;TYPE:WALL-INNER
G11
G1 F900 X129.650 Y58.085 E20.56200
G1 X129.650 Y87.385 E24.07800
G1 X100.350 Y87.385 E27.59400
G1 X100.350 Y58.085 E31.11000
G0 F9000 X99.950 Y57.685
;TYPE:WALL-OUTER
G1 F900 X130.050 Y57.685 E34.72200
G1 X130.050 Y87.785 E38.33400
G1 X99.950 Y87.785 E41.94600
G1 X99.950 Y57.685 E45.55800
G0 F9000 X100.651 Y58.225
;TYPE:SKIN
G1 F900 X129.509 Y87.083 E50.45536
G0 F9000 X129.105 Y87.244
G1 F900 X100.489 Y58.628 E55.31166
G0 F9000 X100.489 Y59.194
G1 F900 X128.539 Y87.244 E60.07190
G0 F9000 X127.974 Y87.244
G1 F900 X100.489 Y59.759 E64.73626
G0 F9000 X100.489 Y60.325
G1 F900 X127.408 Y87.244 E69.30457
G0 F9000 X126.842 Y87.244
G1 F900 X100.489 Y60.891 E73.77682
G0 F9000 X100.489 Y61.456
G1 F900 X126.277 Y87.244 E78.15319
G0 F9000 X125.711 Y87.244
G1 F900 X100.489 Y62.022 E82.43351
G0 F9000 X100.489 Y62.588
G1 F900 X125.145 Y87.244 E86.61777
G0 F9000 X124.580 Y87.244
G1 F900 X100.489 Y63.153 E90.70615
G0 F9000 X100.489 Y63.719
G1 F900 X124.014 Y87.244 E94.69847
G0 F9000 X123.448 Y87.244
G1 F900 X100.489 Y64.285 E98.59474
G0 F9000 X100.489 Y64.850
G1 F900 X122.883 Y87.244 E102.39513
G0 F9000 X122.317 Y87.244
G1 F900 X100.489 Y65.416 E106.09946
G0 F9000 X100.489 Y65.982
G1 F900 X121.751 Y87.244 E109.70774
G0 F9000 X121.186 Y87.244
G1 F900 X100.489 Y66.547 E113.22014
G0 F9000 X100.489 Y67.113
G1 F900 X120.620 Y87.244 E116.63649
G0 F9000 X120.054 Y87.244
G1 F900 X100.489 Y67.679 E119.95678
G0 F9000 X100.489 Y68.244
G1 F900 X119.489 Y87.244 E123.18118
G0 F9000 X118.923 Y87.244
G1 F900 X100.489 Y68.810 E126.30954
G0 F9000 X100.489 Y69.376
G1 F900 X118.357 Y87.244 E129.34184
G0 F9000 X117.791 Y87.244
G1 F900 X100.489 Y69.942 E132.27808
G0 F9000 X100.489 Y70.507
G1 F900 X117.226 Y87.244 E135.11845
G0 F9000 X116.660 Y87.244
G1 F900 X100.489 Y71.073 E137.86276
G0 F9000 X100.489 Y71.639
G1 F900 X116.094 Y87.244 E140.51101
G0 F9000 X115.529 Y87.244
G1 F900 X100.489 Y72.204 E143.06339
G0 F9000 X100.489 Y72.770
G1 F900 X114.963 Y87.244 E145.51971
G0 F9000 X114.397 Y87.244
G1 F900 X100.489 Y73.336 E147.87997
G0 F9000 X100.489 Y73.901
G1 F900 X113.832 Y87.244 E150.14435
G0 F9000 X113.266 Y87.244
G1 F900 X100.489 Y74.467 E152.31268
G0 F9000 X100.489 Y75.033
G1 F900 X112.700 Y87.244 E154.38496
G0 F9000 X112.135 Y87.244
G1 F900 X100.489 Y75.598 E156.36135
G0 F9000 X100.489 Y76.164
G1 F900 X111.569 Y87.244 E158.24169
G0 F9000 X111.003 Y87.244
G1 F900 X100.489 Y76.730 E160.02597
G0 F9000 X100.489 Y77.295
G1 F900 X110.438 Y87.244 E161.71437
G0 F9000 X109.872 Y87.244
G1 F900 X100.489 Y77.861 E163.30672
G0 F9000 X100.489 Y78.427
G1 F900 X109.306 Y87.244 E164.80302
G0 F9000 X108.741 Y87.244
G1 F900 X100.489 Y78.993 E166.20334
G0 F9000 X100.489 Y79.558
G1 F900 X108.175 Y87.244 E167.50770
G0 F9000 X107.609 Y87.244
G1 F900 X100.489 Y80.124 E168.71600
G0 F9000 X100.489 Y80.690
G1 F900 X107.043 Y87.244 E169.82825
G0 F9000 X106.478 Y87.244
G1 F900 X100.489 Y81.255 E170.84462
G0 F9000 X100.489 Y81.821
G1 F900 X105.912 Y87.244 E171.76494
G0 F9000 X105.346 Y87.244
G1 F900 X100.489 Y82.387 E172.58920
G0 F9000 X100.489 Y82.952
G1 F900 X104.781 Y87.244 E173.31757
G0 F9000 X104.215 Y87.244
G1 F900 X100.489 Y83.518 E173.94990
G0 F9000 X100.489 Y84.084
G1 F900 X103.649 Y87.244 E174.48616
G0 F9000 X103.084 Y87.244
G1 F900 X100.489 Y84.649 E174.92655
G0 F9000 X100.489 Y85.215
G1 F900 X102.518 Y87.244 E175.27088
G0 F9000 X101.952 Y87.244
G1 F900 X100.489 Y85.781 E175.51916
G0 F9000 X100.489 Y86.346
G1 F900 X101.387 Y87.244 E175.67156
G0 F9000 X100.821 Y87.244
G1 F900 X100.489 Y86.912 E175.72790
G0 F9000 X101.217 Y58.225
G1 F900 X129.509 Y86.517 E180.52921
G0 F9000 X129.509 Y85.951
G1 F900 X101.783 Y58.225 E185.23447
G0 F9000 X102.348 Y58.225
G1 F900 X129.509 Y85.385 E189.84376
G0 F9000 X129.509 Y84.820
G1 F900 X102.914 Y58.225 E194.35708
G0 F9000 X103.480 Y58.225
G1 F900 X129.509 Y84.254 E198.77435
G0 F9000 X129.509 Y83.688
G1 F900 X104.045 Y58.225 E203.09565
G0 F9000 X104.611 Y58.225
G1 F900 X129.509 Y83.123 E207.32098
G0 F9000 X129.509 Y82.557
G1 F900 X105.177 Y58.225 E211.45026
G0 F9000 X105.742 Y58.225
G1 F900 X129.509 Y81.991 E215.48357
G0 F9000 X129.509 Y81.426
G1 F900 X106.308 Y58.225 E219.42091
G0 F9000 X106.874 Y58.225
G1 F900 X129.509 Y80.860 E223.26219
G0 F9000 X129.509 Y80.294
G1 F900 X107.439 Y58.225 E227.00751
G0 F9000 X108.005 Y58.225
G1 F900 X129.509 Y79.729 E230.65686
G0 F9000 X129.509 Y79.163
G1 F900 X108.571 Y58.225 E234.21016
G0 F9000 X109.136 Y58.225
G1 F900 X129.509 Y78.597 E237.66749
G0 F9000 X129.509 Y78.032
G1 F900 X109.702 Y58.225 E241.02884
G0 F9000 X110.268 Y58.225
G1 F900 X129.509 Y77.466 E244.29415
G0 F9000 X129.509 Y76.900
G1 F900 X110.834 Y58.225 E247.46340
G0 F9000 X111.399 Y58.225
G1 F900 X129.509 Y76.335 E250.53677
G0 F9000 X129.509 Y75.769
G1 F900 X111.965 Y58.225 E253.51409
G0 F9000 X112.531 Y58.225
G1 F900 X129.509 Y75.203 E256.39535
G0 F9000 X129.509 Y74.637
G1 F900 X113.096 Y58.225 E259.18064
G0 F9000 X113.662 Y58.225
G1 F900 X129.509 Y74.072 E261.86997
G0 F9000 X129.509 Y73.506
G1 F900 X114.228 Y58.225 E264.46324
G0 F9000 X114.793 Y58.225
G1 F900 X129.509 Y72.940 E266.96054
G0 F9000 X129.509 Y72.375
G1 F900 X115.359 Y58.225 E269.36188
G0 F9000 X115.925 Y58.225
G1 F900 X129.509 Y71.809 E271.66716
G0 F9000 X129.509 Y71.243
G1 F900 X116.490 Y58.225 E273.87647
G0 F9000 X117.056 Y58.225
G1 F900 X129.509 Y70.678 E275.98982
G0 F9000 X129.509 Y70.112
G1 F900 X117.622 Y58.225 E278.00711
G0 F9000 X118.187 Y58.225
G1 F900 X129.509 Y69.546 E279.92843
G0 F9000 X129.509 Y68.981
G1 F900 X118.753 Y58.225 E281.75378
G0 F9000 X119.319 Y58.225
G1 F900 X129.509 Y68.415 E283.48308
G0 F9000 X129.509 Y67.849
G1 F900 X119.885 Y58.225 E285.11633
G0 F9000 X120.450 Y58.225
G1 F900 X129.509 Y67.284 E286.65369
G0 F9000 X129.509 Y66.718
G1 F900 X121.016 Y58.225 E288.09500
G0 F9000 X121.582 Y58.225
G1 F900 X129.509 Y66.152 E289.44026
G0 F9000 X129.509 Y65.586
G1 F900 X122.147 Y58.225 E290.68955
G0 F9000 X122.713 Y58.225
G1 F900 X129.509 Y65.021 E291.84287
G0 F9000 X129.509 Y64.455
G1 F900 X123.279 Y58.225 E292.90013
G0 F9000 X123.844 Y58.225
G1 F900 X129.509 Y63.889 E293.86143
G0 F9000 X129.509 Y63.324
G1 F900 X124.410 Y58.225 E294.72676
G0 F9000 X124.976 Y58.225
G1 F900 X129.509 Y62.758 E295.49604
G0 F9000 X129.509 Y62.192
G1 F900 X125.541 Y58.225 E296.16934
G0 F9000 X126.107 Y58.225
G1 F900 X129.509 Y61.627 E296.74668
G0 F9000 X129.509 Y61.061
G1 F900 X126.673 Y58.225 E297.22797
G0 F9000 X127.238 Y58.225
G1 F900 X129.509 Y60.495 E297.61328
G0 F9000 X129.509 Y59.930
G1 F900 X127.804 Y58.225 E297.90263
G0 F9000 X128.370 Y58.225
G1 F900 X129.509 Y59.364 E298.09593
G0 F9000 X129.509 Y58.798
G1 F900 X128.935 Y58.225 E298.19325
;LAYER:1
G0 F9000 X129.650 Y58.085 Z0.400
;TYPE:WALL-INNER
G1 F1380 X129.650 Y87.385 E299.36525
G1 X100.350 Y87.385 E300.53725
G1 X100.350 Y58.085 E301.70925
G1 X129.650 Y58.085 E302.88125
G0 F9000 X130.050 Y57.685
;TYPE:WALL-OUTER
G1 F1380 X130.050 Y87.785 E304.08525
G1 X99.950 Y87.785 E305.28925
G1 X99.950 Y57.685 E306.49325
G1 X130.050 Y57.685 E307.69725
G0 F9000 X129.508 Y58.298
;TYPE:SKIN
G1 F1380 X100.562 Y87.244 E309.33468
G0 F9000 X100.489 Y86.752
G1 F1380 X129.017 Y58.224 E310.94847
G0 F9000 X128.451 Y58.224
G1 F1380 X100.489 Y86.187 E312.53027
G0 F9000 X100.489 Y85.621
G1 F1380 X127.885 Y58.224 E314.08005
G0 F9000 X127.320 Y58.224
G1 F1380 X100.489 Y85.055 E315.59784
G0 F9000 X100.489 Y84.490
G1 F1380 X126.754 Y58.224 E317.08364
G0 F9000 X126.188 Y58.224
G1 F1380 X100.489 Y83.924 E318.53743
G0 F9000 X100.489 Y83.358
G1 F1380 X125.623 Y58.224 E319.95922
G0 F9000 X125.057 Y58.224
G1 F1380 X100.489 Y82.793 E321.34902
G0 F9000 X100.489 Y82.227
G1 F1380 X124.491 Y58.224 E322.70681
G0 F9000 X123.926 Y58.224
G1 F1380 X100.489 Y81.661 E324.03261
G0 F9000 X100.489 Y81.095
G1 F1380 X123.360 Y58.224 E325.32639
G0 F9000 X122.794 Y58.224
G1 F1380 X100.489 Y80.530 E326.58818
G0 F9000 X100.489 Y79.964
G1 F1380 X122.229 Y58.224 E327.81798
G0 F9000 X121.663 Y58.224
G1 F1380 X100.489 Y79.398 E329.01576
G0 F9000 X100.489 Y78.833
G1 F1380 X121.097 Y58.224 E330.18155
G0 F9000 X120.532 Y58.224
G1 F1380 X100.489 Y78.267 E331.31535
G0 F9000 X100.489 Y77.701
G1 F1380 X119.966 Y58.224 E332.41714
G0 F9000 X119.400 Y58.224
G1 F1380 X100.489 Y77.136 E333.48694
G0 F9000 X100.489 Y76.570
G1 F1380 X118.834 Y58.224 E334.52471
G0 F9000 X118.269 Y58.224
G1 F1380 X100.489 Y76.004 E335.53050
G0 F9000 X100.489 Y75.439
G1 F1380 X117.703 Y58.224 E336.50430
G0 F9000 X117.137 Y58.224
G1 F1380 X100.489 Y74.873 E337.44608
G0 F9000 X100.489 Y74.307
G1 F1380 X116.572 Y58.224 E338.35587
G0 F9000 X116.006 Y58.224
G1 F1380 X100.489 Y73.742 E339.23368
G0 F9000 X100.489 Y73.176
G1 F1380 X115.440 Y58.224 E340.07946
G0 F9000 X114.875 Y58.224
G1 F1380 X100.489 Y72.610 E340.89326
G0 F9000 X100.489 Y72.044
G1 F1380 X114.309 Y58.224 E341.67503
G0 F9000 X113.743 Y58.224
G1 F1380 X100.489 Y71.479 E342.42482
G0 F9000 X100.489 Y70.913
G1 F1380 X113.178 Y58.224 E343.14262
G0 F9000 X112.612 Y58.224
G1 F1380 X100.489 Y70.347 E343.82840
G0 F9000 X100.489 Y69.782
G1 F1380 X112.046 Y58.224 E344.48219
G0 F9000 X111.481 Y58.224
G1 F1380 X100.489 Y69.216 E345.10399
G0 F9000 X100.489 Y68.650
G1 F1380 X110.915 Y58.224 E345.69378
G0 F9000 X110.349 Y58.224
G1 F1380 X100.489 Y68.085 E346.25157
G0 F9000 X100.489 Y67.519
G1 F1380 X109.783 Y58.224 E346.77735
G0 F9000 X109.218 Y58.224
G1 F1380 X100.489 Y66.953 E347.27113
G0 F9000 X100.489 Y66.388
G1 F1380 X108.652 Y58.224 E347.73293
